NaiveD/Slimdog/Experiment/Scaffold/12-23/Reducing-support/Kinovea/Red_P1_R3_EE_J123o_H_Pos.csv
Time (ms),RB_End_Effector,RB_Joint2 - o,RB_Joint1 - o,RB_Joint3 - o
0,0.362286760867864,-25.5662025165147,-21.9928093550343,0.0606199377445781
33,0.69076511671112,-25.8621798128045,-22.4592634978378,-0.30291761175519
67,0.989141998510807,-26.3753481280304,-23.023523745259,-0.680866801005048
100,1.21432148955991,-26.994229437116,-23.5403353879071,-0.895062079964432
133,1.34966794642453,-27.337632403967,-23.7219024677533,-0.786169101744866
167,1.42324949512778,-27.2100635121331,-23.5573029227045,-0.447117850786538
200,1.46470558433422,-26.9069378424276,-23.4723597307328,-0.155164930990083
233,1.4759706791393,-26.8808406950935,-23.8631792192077,-0.124974853242061
267,1.44938790313497,-27.1954805720596,-24.5844753876573,-0.30233538483725
300,1.38701688398257,-27.5163348430319,-25.0767359629744,-0.447438577854469
333,1.29793682424844,-27.5491794550076,-24.9420644249476,-0.476851769541355
367,1.20021784420011,-27.3402683752707,-24.352823162162,-0.614262605562819
400,1.14035730279288,-27.198758720515,-23.9111387625879,-1.0839957163699
433,1.17515989804118,-27.3918298849141,-24.0940667683841,-1.74526461912244
467,1.29683155395216,-27.9321066934256,-24.8503758707596,-2.23283388138318
500,1.41741568537833,-28.5972994254765,-25.6611642762244,-2.38602909989038
533,1.46872453147032,-29.0391727218033,-25.9572928676291,-2.30415411387681
567,1.46834317321355,-29.04453702966,-25.6549744585458,-2.11705139658205
600,1.46298125545135,-28.8289455824736,-25.2474279915356,-1.94524990046208
633,1.46465508975675,-28.7994576874125,-25.2677918163336,-1.90404778998754
667,1.45188131123871,-29.019586020085,-25.8039376576153,-1.95302199651397
700,1.38778924215704,-29.1767230124047,-26.4431525006413,-1.90960468651058
733,1.23069682584972,-29.0129553630906,-26.6745013497315,-1.72956929454701
767,0.967207351490492,-28.6116821964828,-26.4829706071437,-1.6675570391618
800,0.671720213611807,-28.3078866849174,-26.3483395947875,-2.01170864719995
833,0.49562396931545,-28.4415970058264,-26.6529927505971,-2.6720700832611
867,0.523132934827209,-29.1101756193816,-27.3452628610974,-3.26423126260873
900,0.664534909618231,-30.0078503644983,-28.1425274374565,-3.5596876873722
933,0.76802059075315,-30.6235908032308,-28.7315818849106,-3.59121349722851
967,0.788371497745612,-30.7448794806187,-28.8696835859418,-3.47461875767101
1000,0.777440568764025,-30.6448752119363,-28.7170848598865,-3.35323731137327
1033,0.778154244618075,-30.6913384698331,-28.779303128666,-3.35587949072597
1067,0.776842564886597,-30.92706669203,-29.2002295810001,-3.45466769266097
1100,0.705184374026594,-31.093165837291,-29.4899065774091,-3.47749102398672
1133,0.470053229986328,-30.9707652741288,-29.1755513638836,-3.40417415463582
1167,0.029474760715935,-30.605720691025,-28.4585865151997,-3.50004745297131
1200,-0.543794602909563,-30.2307618821085,-27.962882897046,-3.93730763585124
1233,-1.11743054656702,-30.1562789567375,-28.0434003276439,-4.49830089135371
1267,-1.60726181796137,-30.6171115271943,-28.5948971439004,-4.88431727068474
1300,-1.97347261029697,-31.4399932036099,-29.2304370912464,-5.00704129033902
1333,-2.17283150082568,-32.039022339106,-29.4839270349936,-4.84743660333742
1367,-2.20421545911238,-32.0302636588166,-29.1875715930408,-4.45400365415759
1400,-2.1444621189257,-31.7066705826225,-28.7003469559144,-4.10237497692473
1433,-2.08395137056648,-31.6405928660528,-28.5222853838174,-4.05856574767208
1467,-2.0696223073339,-31.950522035203,-28.7343957164091,-4.24084451231536
1500,-2.11495644388514,-32.2319025004793,-28.9694743553061,-4.35985423984252
1533,-2.21983896190671,-32.1339897446799,-28.9047799431115,-4.32229872612329
1567,-2.36203780141838,-31.744684416685,-28.6197381117254,-4.34938370662437
1600,-2.48631891603494,-31.417067783077,-28.4335947361097,-4.65110216963545
1633,-2.53837984239878,-31.4460577713651,-28.5749937488275,-5.11232717302739
1667,-2.51339117692615,-31.883498963139,-29.0191884827468,-5.44665087540057
1700,-2.45042324935687,-32.4583223450045,-29.4840495134179,-5.49873933724226
1733,-2.38819264320838,-32.7317473988516,-29.6190726525946,-5.28217850104302
1767,-2.33835423010256,-32.5338364095496,-29.3477275457147,-4.91388180525369
1800,-2.29703311760866,-32.1696221118588,-28.9774914765135,-4.58472620915964
1833,-2.26833952057561,-32.0270010562958,-28.8512007186659,-4.45605697339203
1867,-2.26278637683143,-32.1250423833456,-28.9649108268229,-4.50056798203258
1900,-2.28628619741587,-32.1587797564192,-29.0102520033857,-4.51310189374642
1933,-2.3420950758867,-31.8870426792619,-28.7572536263343,-4.35517931605452
1967,-2.42081958041155,-31.4030874079364,-28.3272540923704,-4.15140685936045
2000,-2.48143732086832,-31.0009634276392,-28.029339354133,-4.15468944533108
2033,-2.47649640833933,-30.8979650482748,-28.0318485009608,-4.3794586731818
2067,-2.40892275550972,-31.1237043446388,-28.2676946652802,-4.55308109177055
2100,-2.33112279850726,-31.4548430147353,-28.5004825578721,-4.49251724114943
2133,-2.27903073128335,-31.5151635780908,-28.4540596423719,-4.22965559247906
2167,-2.24326251778919,-31.1886843801844,-28.0622389785422,-3.83473981866403
2200,-2.20964158287708,-30.7727492709841,-27.6000613357112,-3.4330839903164
2233,-2.18479051674827,-30.5682224053809,-27.3912508180264,-3.2040982275691
2267,-2.17574173022676,-30.5158705034208,-27.3796749512444,-3.13910744015552
2300,-2.17385697981748,-30.2726370719428,-27.1703742525225,-2.97988916499219
2333,-2.15895018974883,-29.5897200683465,-26.5165619563733,-2.53373924122342
2367,-2.10240154652935,-28.6781387701783,-25.6478826421654,-1.94078593598033
2400,-1.96157446744245,-28.0723756000263,-25.0807762535354,-1.54893740932608
2433,-1.69563608047078,-28.0650885583879,-25.1069214092767,-1.57701035712756
2467,-1.32256805571471,-28.440294038306,-25.5210382370649,-1.89941330018197
2500,-0.940598321829274,-28.7365794925765,-25.8561759724256,-2.13633825332219
2533,-0.651477128204742,-28.6496645159591,-25.7950758758426,-2.00780195511222
2567,-0.483700033082033,-28.2396459831768,-25.4035720892397,-1.59494470775362
2600,-0.410242221267249,-27.8202462170425,-25.01614717003,-1.20445208298187
2633,-0.398479802578127,-27.6167075327929,-24.8448599686592,-1.03330511804882
2667,-0.421370215432935,-27.5467879840867,-24.7693710058157,-1.01971953989355
2700,-0.445430865118173,-27.3493518551468,-24.5305003045532,-0.941023505682925
2733,-0.419317341223074,-26.8696235491546,-24.0168558260651,-0.632728638904287
2767,-0.276547246791492,-26.2671741308093,-23.3984645188061,-0.185841889499744
2800,0.0294605943872945,-25.9168900254484,-23.0338938023191,0.112183213415473
2833,0.474486546919412,-25.9998822102572,-23.12998102914,0.101869248373407
2867,0.953462604600416,-26.2998914388612,-23.4880764634777,-0.0610635682930693
2900,1.34092566638941,-26.4492174722031,-23.698584257704,-0.114716981369053
2933,1.57122833969089,-26.2965971220532,-23.5722075009896,0.0152409965650797
2967,1.66117544761924,-26.0219632959146,-23.2949883955782,0.212631449074192
3000,1.66885362186117,-25.8898725251828,-23.1555072875185,0.333336853240348
3033,1.64434325869479,-25.9749003002364,-23.2491373526893,0.294685039382911
3067,1.61171075578222,-26.1513349403179,-23.453918269835,0.129602275137076
3100,1.58095944895969,-26.1933637989852,-23.5244849292546,-0.0100464673926398
3133,1.56801368250131,-25.9389642785706,-23.296273512847,0.00176058069452507
3167,1.60269432493781,-25.5418960432344,-22.9462188043673,0.122092753007038
3200,1.71930475795474,-25.4222135652236,-22.8760647646242,0.180982523654002
3233,1.9353543702958,-25.8131868689629,-23.25978228236,0.0466951908903018
3267,2.23105052851804,-26.4865036063441,-23.8776545533453,-0.241219619207874
3300,2.54663671746509,-26.9737211605669,-24.3633062667645,-0.48784127850224
3333,2.80899740788789,-26.9929332595281,-24.4829937077136,-0.507537857582754
3367,2.9730752853158,-26.7033874346486,-24.3112942929966,-0.324018071640661
3400,3.03956035853875,-26.5379874803025,-24.1999431069164,-0.197965769496674
3433,3.03659720653092,-26.7228765782655,-24.4017929774314,-0.344271340945035
3467,2.9946215100403,-27.0497842638743,-24.7554490936449,-0.662840962121463
3500,2.93583614368139,-27.1346842761178,-24.8726982716832,-0.850735170512052
3533,2.86927473303701,-26.8125998124413,-24.5731441836618,-0.725905447058634
3567,2.79078358269401,-26.3721077973066,-24.1146184855341,-0.464565120422695
3600,2.71096013051548,-26.3655567675276,-24.0139226932206,-0.52596545319455
3633,2.68614189620873,-27.0339819717942,-24.5621723507747,-1.16497911443795
3667,2.78118909541183,-28.0526458302913,-25.5301498199383,-2.04246243642977
3700,2.99193637616435,-28.8661449562686,-26.3440620561713,-2.53435176812173
3733,3.23889840419615,-29.1073147162015,-26.5607570715311,-2.41763232816974
3767,3.4373855813849,-28.8542179906816,-26.3812184835992,-2.04718985815522
3800,3.55259931301516,-28.5698552833472,-26.5166808828099,-1.85088822808903
3833,3.59504279295882,-28.5905238447288,-27.2316898508324,-1.90838810432906
3867,3.57193635196557,-28.8018417883521,-27.9679291244102,-2.03687909058511
3900,3.4372274886961,-28.9079901298799,-28.1521363351115,-2.04780002509074
3933,3.106886643557,-28.7627554310688,-27.8649963912714,-1.93948896217013
3967,2.56426816834637,-28.4417015691702,-27.5769805311637,-1.95673025921658
4000,1.93721923193096,-28.1764516184279,-27.5902365949665,-2.32895391186851
4033,1.40783629571598,-28.2627027905013,-27.9260234638811,-2.8930679017028
4067,1.06614168652266,-28.8650247357428,-28.4635919836903,-3.20391838466729
4100,0.9025925027556,-29.6696294505906,-28.9097516385773,-3.02208812471023
4133,0.874200328450174,-29.9964593480498,-28.9320361403846,-2.49304856806636
4167,0.922471656558674,-29.6544528604081,-28.5900125081715,-1.96705959877478
4200,0.983517571819938,-29.2992237787831,-28.3649983469961,-1.75387163249825
4233,1.01226663358734,-29.5552927600489,-28.5841823621607,-1.89429665752548
4267,0.98338983458575,-30.2325270133821,-29.0551790355703,-2.13934772223381
4300,0.876799934187889,-30.6722228724125,-29.3582247584364,-2.24654989953291
4333,0.678385462557569,-30.506625478167,-29.2919784944066,-2.27586842739998
4367,0.40063224233119,-29.9269365356198,-28.9881239714783,-2.49905683111045
4400,0.0872124682566012,-29.4356723749656,-28.7652829134084,-3.00031682679816
4433,-0.216062660423268,-29.4942499995536,-28.9110217789495,-3.52374141653808
4467,-0.473507213309369,-30.1937438212351,-29.4488547539534,-3.79493195111167
4500,-0.644793109242784,-31.0766830973903,-30.0577595130492,-3.7787773660606
4533,-0.704334005216517,-31.5131231215034,-30.3220336031246,-3.57159595070525
4567,-0.679026938044604,-31.3663775186064,-30.150580201661,-3.29695560047383
4600,-0.630424703800894,-31.0822184466791,-29.8982762525106,-3.13397776763189
4633,-0.60533669821946,-31.1254148760055,-29.9620626012332,-3.22449395331296
4667,-0.620172792584355,-31.5046998795893,-30.3093164283545,-3.46297102016269
4700,-0.675108304967113,-31.8332778170423,-30.5209673335883,-3.54730676725709
4733,-0.772428389190478,-31.7352344844165,-30.2721336043888,-3.37785101034825
4767,-0.923679767962727,-31.1756422367997,-29.684741603604,-3.20924967541862
4800,-1.1330473011213,-30.525190439028,-29.2026287805941,-3.28709950590005
4833,-1.37374486454717,-30.3113163827027,-29.1888943619991,-3.5726131165126
4867,-1.59580149399079,-30.7290683853564,-29.6513187498668,-3.88005210344425
4900,-1.75945471641249,-31.408001775568,-30.2483361634635,-4.05348265022316
4933,-1.84969528301031,-31.7769806359548,-30.5507082008118,-4.01682511607556
4967,-1.87448154975176,-31.6780489738162,-30.4454856509997,-3.83750395866484
5000,-1.86261730808537,-31.5349636097367,-30.2458000097676,-3.69622998797154
5033,-1.84630513107815,-31.7339881173641,-30.2558688951868,-3.68260696166395
5067,-1.84232012934919,-31.9748178517117,-30.3419719562147,-3.66689121958373
5100,-1.85178117230441,-31.6467198486104,-30.0825015375725,-3.42656230507346
5133,-1.86409553241633,-30.6884239810187,-29.3036786638439,-2.89454260256609
5167,-1.85453140192769,-29.6579297628411,-28.364875482776,-2.28149835369925
5200,-1.78446690247234,-29.1348260894057,-27.851329591944,-1.95657138736035
5233,-1.62151806757739,-29.2883981322792,-28.0445518261795,-2.13430550919281
5267,-1.37647357188363,-29.8472191654798,-28.7059179786383,-2.61055515194285
5300,-1.1107194840526,-30.3029742365102,-29.2739820009911,-2.91965321650005
5333,-0.890506896973847,-30.2669298123106,-29.3204227710665,-2.80235690779867
5367,-0.744852764523906,-29.8201441276553,-28.9145834920235,-2.39370191990446
5400,-0.673260837903524,-29.413968616847,-28.4824413396142,-1.9984059280339
5433,-0.667736040455229,-29.3490869628114,-28.3155817674453,-1.82213235829795
5467,-0.710718093393904,-29.4963878825041,-28.3248374213707,-1.85158688267446
5500,-0.7633653784993,-29.5045654410314,-28.205951179361,-1.86947153864539
5533,-0.770300621664349,-29.1524920858377,-27.7754483879924,-1.65316848036212
5567,-0.676551343319193,-28.5723954486874,-27.2014350094534,-1.26093022115499
5600,-0.443802162577994,-28.173104837646,-26.8706664738992,-1.00724226971813
5633,-0.0796250838408746,-28.2411055605056,-27.0087849610906,-1.08386893423484
5667,0.338428943387946,-28.6215974513555,-27.4523036911238,-1.32879705246575
5700,0.701852876299671,-28.8465814530842,-27.7516636230499,-1.39147739959429
5733,0.946756014819544,-28.5928796953948,-27.5679593118366,-1.09012113959864
5767,1.07502719133107,-28.030992279925,-27.0492101746616,-0.622568636385383
5800,1.11908894556182,-27.630452631193,-26.6742321627711,-0.3483294757621
5833,1.11417025401029,-27.6124891126664,-26.6712591863964,-0.366572600083961
5867,1.09313485369608,-27.7429874288397,-26.799833260088,-0.446956334866431
5900,1.08880809593153,-27.6402817310086,-26.697338530804,-0.324587131101907
5933,1.13784759908487,-27.1836945238318,-26.2392763497099,0.0436017793148676
5967,1.27614226315939,-26.6269553099644,-25.6382081203237,0.460792000095486
6000,1.5166170238132,-26.3095866335262,-25.2664086872829,0.699533142405912
6033,1.81907495573428,-26.3068624856664,-25.2858545649273,0.718877613021494
6067,2.09787427373782,-26.4443940152296,-25.5060870380805,0.644795957372646
6100,2.2853798630182,-26.541599220394,-25.6361329268136,0.621302694694111
6133,2.37715807355641,-26.5033656127307,-25.5741031997985,0.719167047239304
6167,2.40808098525033,-26.3005030799111,-25.4231485811233,0.893692803773167
6200,2.41013956075233,-26.0359065796092,-25.3128683129119,1.02953294647091
6233,2.39999617168794,-25.8915343876836,-25.297472103897,1.0665763135256
6267,2.38664454159946,-25.8528896858461,-25.3042773180542,1.07565774654498
6300,2.3818708075505,-25.6726139496721,-25.1077297406906,1.22127937617037
6333,2.40811269878566,-25.208274986455,-24.5746542344147,1.57364150340136
6367,2.50157436822253,-24.67067239457,-23.958988467921,1.93876085707319
6400,2.70567687272898,-24.4811942354902,-23.7375642496149,2.02557324933756
6433,3.03473534275169,-24.8662889099172,-24.1434548598186,1.7773743485687
6467,3.42487463507281,-25.603341582886,-24.9383924499025,1.40390986426736
6500,3.75672163304281,-26.2173627833931,-25.6054427979264,1.15065435957133
6533,3.95288741391354,-26.4254086277161,-25.7912690845616,1.12784570633492
6567,4.02499704268736,-26.3579814035808,-25.6202489997369,1.24512771501588
6600,4.02760250269483,-26.3556226612472,-25.5086056626004,1.28235012973052
6633,4.00670981496838,-26.5904832832929,-25.6715190119487,1.12982330414706
6667,3.98743091123761,-26.9003505485614,-25.927527868035,0.913557835912981
6700,3.97205452975396,-26.9449707034769,-25.9531548343085,0.852184923897593
6733,3.93541769999554,-26.5728188411354,-25.6503046540526,1.02645226234034
6767,3.83551709695787,-26.0987889194132,-25.3030132602735,1.24417811791868
6800,3.65978424906438,-26.0541689330699,-25.3580388802486,1.14681893281341
6833,3.48469863253888,-26.6419175715749,-26.0113022182801,0.557605177946739
6867,3.46006778107744,-27.5881777128984,-26.9855289589834,-0.221876841230472
6900,3.67906989857173,-28.339071817995,-27.6714437170307,-0.580132464735573
6933,4.06333921771336,-28.3987206134919,-27.6336077662002,-0.23265138214658
6967,4.42401049996838,-27.8986107891129,-27.1079133584086,0.420040554424402
7000,4.63206288754912,-27.6072539523514,-26.786678829934,0.773135948397848
7033,4.68250612917727,-27.9356494955822,-27.0056932488998,0.684062234168803
7067,4.61968960079736,-28.4483158182464,-27.4166165939009,0.48098837113134
7100,4.456462275872,-28.6058960784533,-27.5246776193302,0.477897142199006
7133,4.17502090483869,-28.369237172369,-27.2549975676118,0.587699368762791
7167,3.79313776595493,-28.0259850285325,-26.9260091736046,0.445358138981072
7200,3.38599200946857,-27.900493484943,-26.9093016675497,-0.0829902165895935
7233,3.03549987329919,-28.2419577682001,-27.3954780749852,-0.751100773746882
7267,2.81006508883766,-29.0799813836438,-28.2768952299257,-1.26534697303142
7300,2.76491362420633,-30.0250131813532,-29.1002796303886,-1.45911050758105
7333,2.88734946316583,-30.4420035371197,-29.3377454674844,-1.28438844263689
7367,3.07474110476772,-30.1519582970707,-28.9529838954768,-0.91978884028126
7400,3.21739024608898,-29.7500542110255,-28.5323339246649,-0.737772360706226
7433,3.2664275642343,-29.8769722712148,-28.6296647570739,-0.939738657515387
7467,3.20877079868957,-30.4251996402694,-29.1362397273979,-1.30899213030786
7500,3.02381284087608,-30.7826241712338,-29.4849899476396,-1.49515042747681
7533,2.69113839626177,-30.6019127104406,-29.3378241658025,-1.45549010254482
7567,2.22756400651933,-30.0734938721955,-28.8734384891574,-1.43949563878947
7600,1.67952090609646,-29.6980024451562,-28.5356190818555,-1.63490931897461
7633,1.08884364476841,-29.9306949414206,-28.6988591522589,-2.00927010571891
7667,0.518313253100526,-30.7904102744272,-29.3946977251386,-2.42026351394789
7700,0.0743500453902235,-31.7583280431014,-30.2017056386955,-2.72103443869329
7733,-0.166396939772022,-32.2568912562774,-30.6235545552529,-2.82652855275611
7767,-0.230532205850685,-32.2448239921952,-30.6260376203358,-2.80694447001204
7800,-0.214644947575961,-32.1679972502956,-30.5839366907887,-2.84394548995174
7833,-0.201660331457233,-32.3559362026458,-30.756701295493,-3.01721973736536
7867,-0.223070030238571,-32.667721433955,-30.9996110687286,-3.18323561990222
7900,-0.279750469149737,-32.7223896789104,-30.9800361055071,-3.12240754639369
7933,-0.369056078789455,-32.3720045594644,-30.5989821505825,-2.85237232704167
7967,-0.480047993116578,-31.8689172516766,-30.1260158658681,-2.6993818414792
8000,-0.584172113340886,-31.5875007368897,-29.9411835906863,-2.91723055925464
8033,-0.651453568090606,-31.7377113715933,-30.218746475978,-3.38054050754361
8067,-0.67147667484973,-32.2382344629994,-30.7822428304078,-3.75080881025114
8100,-0.657382188892184,-32.6814176875052,-31.1830561043433,-3.76584279143047
8133,-0.63014098912713,-32.6506827360281,-31.0685148792434,-3.40015054517152
8167,-0.602349377205477,-32.2210994201298,-30.5892482017404,-2.90437316356196
8200,-0.581745740178209,-31.8827971586985,-30.2543575163653,-2.60684747419334
8233,-0.575830979718282,-31.915096193668,-30.3036206340174,-2.59442569931249
8267,-0.58706849908645,-32.0961995131477,-30.4462361470999,-2.6381031004176
8300,-0.61273946349895,-32.0179997873021,-30.2578493110132,-2.44832327186289
8333,-0.647075085732573,-31.5185202144403,-29.6721832652584,-2.01857819374144
8367,-0.673469818424436,-30.8443793106102,-29.0475059466336,-1.69413054361917
8400,-0.663399268651331,-30.4266024461918,-28.8094898237923,-1.78856477760376
8433,-0.60453302907859,-30.5096544197412,-29.0717032342639,-2.19069717712152
8467,-0.519477710713414,-30.9797673572452,-29.5663964453152,-2.51060617107398
8500,-0.440647834217512,-31.4139166403293,-29.8578776513477,-2.48724161229337
8533,-0.381734734640879,-31.3910497969377,-29.681704949645,-2.12852640317715
8567,-0.343823977735051,-30.9440705407158,-29.2083047530276,-1.66304174180307
8600,-0.332996663940028,-30.5518897663808,-28.8796509252914,-1.38723965193097
8633,-0.351851923126057,-30.5560455868156,-28.9013432714608,-1.38136328488137
8667,-0.38164374027033,-30.7771163047039,-29.0411372638186,-1.4293334934116
8700,-0.393610121453275,-30.7939965202258,-28.9246314697942,-1.27344876311132
8733,-0.373149746756139,-30.429459673034,-28.4375404512269,-0.904545614773536
8767,-0.315287892968301,-29.8972001204686,-27.8728576972857,-0.599429611151471
8800,-0.207907933765157,-29.5631513338744,-27.6503167185043,-0.62472354629169
8833,-0.051191277527453,-29.6203132942357,-27.8869502826903,-0.912398892368145
8867,0.115658071281376,-29.9276337018411,-28.2982260295804,-1.14131698733152
8900,0.244840025622343,-30.0969563903509,-28.456671214907,-1.08412026344371
8933,0.325730230139397,-29.8580829902336,-28.1603622110491,-0.750287575561901
8967,0.373165776651218,-29.3616766584663,-27.6245787328045,-0.316898295310226
9000,0.395865048490888,-28.9800354917349,-27.2524368453356,-0.0115612894974846
9033,0.396527534029068,-28.8886322942254,-27.2194002031503,0.0650433386114078
9067,0.382525898542399,-28.9390076643478,-27.3190139758309,0.0537230648504766
9100,0.369859919097297,-28.8089189794332,-27.1625343793817,0.220717834050087
9133,0.38738602472157,-28.3126930887084,-26.5893340425304,0.666793050839686
9167,0.477755503264881,-27.6978461362875,-25.931717143389,1.15403777911834
9200,0.678642240704911,-27.4572031618565,-25.7194771173261,1.31536696994871
9233,0.975490448464465,-27.7695756961127,-26.0896018648625,1.05042267111371
9267,1.28138256811225,-28.3090646395402,-26.6631796783888,0.638408770478218
9300,1.5055362324539,-28.5784744913276,-26.9568233393389,0.459323212312326
9333,1.62752680487071,-28.3842488939334,-26.7843194816904,0.649261446023028
9367,1.67656973547347,-27.9972600020967,-26.3774229012421,1.00940667967547
9400,1.67865298316652,-27.7843835077144,-26.1361974847792,1.23797397660311
9433,1.65099017902713,-27.8231617608118,-26.1925873918682,1.23514248252297
9467,1.61676547516728,-27.927633599857,-26.3139372371008,1.15687216912663
9500,1.60493266812934,-27.8366640168648,-26.2004166938092,1.24212477623614
9533,1.645864018597,-27.4308470601974,-25.7885564638796,1.56445991190476
9567,1.7700718589009,-26.9438094845483,-25.3395379812131,1.90508257291295
9600,1.99225066667828,-26.7962106094456,-25.2286391115032,1.97194876465155
9633,2.28073893271409,-27.1116660320751,-25.5768717788193,1.72035996529857
9667,2.56263986559225,-27.5671719479924,-26.1056167763687,1.40478340037326
9700,2.7785070884415,-27.7343446086521,-26.3690981742888,1.3471803690508
9733,2.91236657014876,-27.488252431952,-26.1647966417216,1.6052227955433
9767,2.96949398303259,-27.1153133816118,-25.7588707256846,1.90728003997564
9800,2.959534585944,-27.0079151019583,-25.6100359983332,1.97515642857014
9833,2.90517959355913,-27.2446558957104,-25.8482515192031,1.79775173197005
9867,2.84386275192229,-27.5433000359725,-26.1722663471777,1.57630651442005
9900,2.81596341870922,-27.5995921249985,-26.2206645707339,1.52282581767874
9933,2.85503812841169,-27.3704835149249,-25.9406653432729,1.66857935744808
9967,2.97212649708851,-27.0873654253421,-25.6593980998683,1.78671371724321
10000,3.13291488198858,-27.0967510804599,-25.7886306819978,1.58623192565215
10033,3.27106206006211,-27.5972797964002,-26.4222553089869,1.04474784211955
10067,3.35393907889711,-28.3943066854489,-27.2388969140862,0.496734564397449
10100,3.41319556556791,-28.9447494932471,-27.7311244458151,0.35021033988525
10133,3.48671840968161,-28.8548991271213,-27.6199027159373,0.676544372241073
10167,3.56603079035927,-28.4014767030341,-27.2002097074592,1.10332934565375
10200,3.61751607468384,-28.2322224585659,-27.0441828566612,1.22442901242531
10233,3.62475208119104,-28.5052101900957,-27.277703949869,1.05250868977407
10267,3.59865366327986,-28.7680802384299,-27.4784729857433,0.938628234629993
10300,3.55860295004936,-28.6270132820639,-27.2480101132525,1.14676182686311
10333,3.51183018320834,-28.1338027890369,-26.6379402779356,1.56374857239567
10367,3.46052537533255,-27.6231157423572,-26.0873272620709,1.75949372615868
10400,3.42009907493763,-27.4543208989793,-26.0438955322575,1.4242401458962
10433,3.38889194199716,-27.8410353665579,-26.6199145798984,0.737916594423334
10467,3.3136560927106,-28.6673504114914,-27.5190286318867,0.152418671485824
10500,3.15560400490188,-29.4479727511705,-28.2213748562923,-0.0601307027424224
10533,2.96767020719143,-29.7271250353234,-28.3778657549432,0.0471626187102526
10567,2.83474263920443,-29.5698599603019,-28.1398163329664,0.222876201249902
10600,2.77481727119901,-29.4237027378097,-27.9624000840936,0.263693208371913
10633,2.74814499550735,-29.5598062332647,-28.0691953210831,0.183830875642864
10667,2.71693161289313,-29.8399818595743,-28.2708972491852,0.142691084010885
10700,2.6598654075617,-29.9166019249705,-28.2566862578331,0.255982082059285
10733,2.56177001631134,-29.6375115593135,-27.9454180166921,0.432782209029458
10767,2.42213210903576,-29.2237317467138,-27.5744505641708,0.406464071150986
10800,2.2558653200929,-29.0243757323974,-27.4854644687871,0.0647873185943691
10833,2.06170853583321,-29.2856275678953,-27.8502333932289,-0.397536200941655
10867,1.81916443778851,-29.9680180016222,-28.5238311596412,-0.752638111262752
10900,1.54650767263997,-30.6103108985671,-29.0718695161279,-0.878161241801201
10933,1.31755740991167,-30.755399076443,-29.1273586422924,-0.728153507867519
10967,1.18246129061851,-30.5364386712447,-28.8381208105607,-0.476403595207671
11000,1.11853628489973,-30.4522196898471,-28.7049183652012,-0.432689539734701
11033,1.08135733489894,-30.6965897052353,-28.9375941285111,-0.645598237202323
11067,1.05356138125729,-31.0029788662463,-29.2402592318549,-0.839081994594436
11100,1.03009368120192,-31.015823415503,-29.2249414281291,-0.790222779326999
11133,0.991715185397432,-30.668788500424,-28.8727661386211,-0.634778733726987
11167,0.905199787298432,-30.2313549146619,-28.5464526175969,-0.730455269294512
11200,0.740124375072143,-30.0822344030317,-28.6072347271014,-1.22141111706029
11233,0.493135441833076,-30.4485197829991,-29.1184306537583,-1.87047436121952
11267,0.208306193113013,-31.2002602918655,-29.8247299936123,-2.32836313648362
11300,-0.0355822481434819,-31.8711917594721,-30.289567643406,-2.39775574050602
11333,-0.176920598143031,-32.034433501486,-30.2300574629478,-2.10810016342632
11367,-0.218289108154257,-31.7453454777612,-29.8421715367109,-1.71961608900143
11400,-0.21552091546316,-31.4990494028026,-29.607139980374,-1.55073092617468
11433,-0.216549596105213,-31.624972773618,-29.7392192874395,-1.66951932653258
11467,-0.222682954371656,-31.9234157959024,-29.9975350146605,-1.83581984830241
11500,-0.212615645270839,-32.003002581507,-30.0045310963594,-1.81018800024931
11533,-0.186270677299126,-31.7404312336657,-29.6629377872083,-1.66960266349456
11567,-0.175868638931564,-31.3447336778652,-29.2705938085819,-1.68927703231909
11600,-0.223153735792392,-31.1373385951449,-29.2033971302283,-1.93973853715926
11633,-0.349699027953443,-31.3325309581684,-29.5461974167477,-2.23578044744179
11667,-0.534774304626928,-31.8448042679961,-30.0390952730202,-2.38868048960967
11700,-0.714789525737112,-32.2312845682289,-30.2796734590511,-2.28982555096204
11733,-0.824720174720846,-32.1238595383581,-30.0755041255264,-1.93402452525275
11767,-0.852849275787639,-31.7270275133424,-29.6704774492622,-1.50956996443048
11800,-0.842002176046785,-31.5234210015383,-29.462698629176,-1.28778354114586
11833,-0.835737188429905,-31.6110209219141,-29.52472880112,-1.30921456387912
11867,-0.837650248830784,-31.6610187619148,-29.5441150785434,-1.30674891872098
11900,-0.817212479000338,-31.3445532110753,-29.174705511288,-1.00634800099593
11933,-0.737430017086408,-30.6275492462552,-28.4173162445238,-0.430277158917248
11967,-0.578110473970291,-29.8632232256926,-27.6962580237165,0.0797708862555081
12000,-0.35121518910505,-29.5594084999108,-27.4916728593688,0.164244586096677
12033,-0.109865857305618,-29.8495612902281,-27.8812644075651,-0.171873195816561
12067,0.0740265311845268,-30.3606228577134,-28.4862712907187,-0.561572872436152
12100,0.17140469231669,-30.627777917075,-28.800652804555,-0.64111517771522
12133,0.217343437488068,-30.4664807850171,-28.5940968381351,-0.332020947973198
12167,0.251595314303884,-30.0585292908424,-28.0930952015514,0.15158645163778
12200,0.27599840582123,-29.7494606692472,-27.7274118572861,0.517723584270506
12233,0.279515545219269,-29.6970923712259,-27.6808415211381,0.651341162757985
12267,0.268551056190577,-29.7201569024127,-27.7300205664451,0.689540929897249
12300,0.273604094650196,-29.4925738753692,-27.5031756305809,0.883678555918086
12333,0.346224089810324,-28.9264704321168,-26.9157197769957,1.32210042100029
12367,0.540914980749061,-28.3411783153357,-26.3324138573842,1.76180804673496
12400,0.872906567413503,-28.1623601547044,-26.1988422975354,1.86263956032929
12433,1.27982231934655,-28.4906839053121,-26.569239041324,1.59191482114643
12467,1.65077526273693,-28.9871523217375,-27.0511249138121,1.28979684704637
12500,1.91184705562997,-29.1523969505367,-27.1482572052505,1.32139763707011
12533,2.06095473559855,-28.8031194494369,-26.7411721413327,1.70969633444305
12567,2.12644527065101,-28.2736705908242,-26.2283875722999,2.13702446335961
12600,2.12982921624007,-28.0359918405641,-26.0551496984251,2.29253482513949
12633,2.0896946038972,-28.1685172805352,-26.2262408309558,2.16519089098281
12667,2.03694465367158,-28.3146478679208,-26.3863893317585,2.00750434481297
12700,2.01600636603766,-28.1146970145525,-26.2198064061963,2.10397710299187
12733,2.07616514222933,-27.5848846686127,-25.7477347782,2.49954892148632
12767,2.25419921040528,-27.0921552709093,-25.3256666138733,2.89660106215257
12800,2.53860963822637,-26.989444624278,-25.2933661809549,2.97968273210246
12833,2.84795069573967,-27.2999859641533,-25.6406951170401,2.76950496421358
12867,3.08333714999429,-27.7491078003719,-26.0660272006061,2.51898959427928
12900,3.21413903999628,-28.0032298536209,-26.2559417397161,2.44759449899708
12933,3.27683938089046,-27.9249144160679,-26.1243888892495,2.60462810648399
12967,3.30176223755633,-27.7066531534357,-25.8794806552179,2.82764342071658
13000,3.29035360626209,-27.6507172179228,-25.8075212188745,2.89911204213524
13033,3.24960710791204,-27.8002542294072,-25.9596993090078,2.79014379755828
13067,3.20531179315629,-27.8804472593849,-26.0646346587704,2.69410541036191
13100,3.18742767488642,-27.572865116218,-25.7827060996212,2.84160154257128
13133,3.22441495187673,-26.8980953501027,-25.1271581276871,3.22726365573121
13167,3.34614263034702,-26.3250762922952,-24.5931965931662,3.52105567199211
13200,3.57062225425338,-26.3649630697023,-24.7215372897723,3.37514854611651
13233,3.86558978205614,-27.1031495071287,-25.5457571190555,2.79706450514546
13267,4.1376090136992,-28.132774070106,-26.5513295142523,2.16229771300663
13300,4.30449413113702,-28.8349555522756,-27.1231924113656,1.86934426905326
13333,4.36683801923308,-28.8886367992036,-27.0784348961479,1.97300003419133
13367,4.37498566278384,-28.6128270670281,-26.8144538175568,2.18212476957702
13400,4.36188141143411,-28.5811629457177,-26.8188047255535,2.19726318366114
13433,4.33770411914541,-28.9163136440907,-27.1217825946376,1.98212297459125
13467,4.31278035932045,-29.2152955801866,-27.3694557817608,1.7576750077461
13500,4.29043448816148,-29.0881830795258,-27.2546214856495,1.78082193495894
13533,4.24077893767187,-28.5866221856289,-26.8087084804829,2.05870930545542
13567,4.10223863256015,-28.1591033784384,-26.4308221946124,2.2384028449943
13600,3.83134314008901,-28.2669859455845,-26.585766418335,1.89489079217641
13633,3.46057487541749,-29.0249960656356,-27.3712734072235,1.05632545664869
13667,3.09747490531601,-30.0751957553348,-28.3601749821088,0.31587205029453
13700,2.85641721244817,-30.7278517522215,-28.8576957869774,0.267003780495557
13733,2.77830281786578,-30.5173314950108,-28.5213992157032,0.908044113851757
13767,2.80537981254455,-29.8058390798947,-27.7910993111306,1.66487287620332
13800,2.84136041715662,-29.4581776733885,-27.4212243237789,1.96351060259621
13833,2.83458056241177,-29.8110794175508,-27.6422257321941,1.75648554866796
13867,2.79800553831817,-30.3908337900385,-28.0592538491924,1.44497132644811
13900,2.76786106713653,-30.6091070323723,-28.218437343731,1.32954360414328
13933,2.75413164171966,-30.3400415859626,-28.0264700118861,1.29889464389939
13967,2.7099448608188,-29.8935817532454,-27.7333851406023,1.1033820907562
14000,2.54270299688664,-29.7239063453055,-27.6905096783574,0.732233530924407
14033,2.19967414924074,-30.1067558841124,-28.0768094949094,0.352051030695894
14067,1.75767549254159,-30.8717152228216,-28.7267062151974,0.055688038040074
14100,1.37850476802915,-31.4983351840893,-29.2386727448484,-0.129785635967798
14133,1.16471660755344,-31.6429432965904,-29.3608886762043,-0.169372432464255
14167,1.09337570209077,-31.4910263480184,-29.2603098004598,-0.138978931843642
14200,1.08037938929377,-31.4827200305517,-29.3024942272666,-0.236904013474281
14233,1.0717443349284,-31.7833510570755,-29.5956112321344,-0.510123513999265
14267,1.07140041787041,-32.0972071067547,-29.8686036958246,-0.725304396289108
14300,1.10002687176275,-32.0125666515599,-29.7792797047789,-0.659686287875527
14333,1.13178587011474,-31.480856178084,-29.2810460158774,-0.410068950737072
14367,1.0776497111419,-30.8610738430484,-28.7040067424907,-0.282081721413118
14400,0.856420661247844,-30.6113478312681,-28.5092817073405,-0.44605384352268
14433,0.488196059135037,-30.9900755758423,-28.9247244377168,-0.829913776208154
14467,0.0934423050882537,-31.8163143099337,-29.722542975536,-1.26513660111359
14500,-0.202096209040801,-32.5297585385077,-30.3812257887826,-1.58402468616537
14533,-0.349579507870387,-32.7254436592494,-30.5795347049073,-1.68665395086151
14567,-0.382488085449689,-32.5616482222797,-30.4879214669096,-1.65886009730737
14600,-0.366665500663331,-32.4734290856876,-30.4764139295617,-1.69293264066001
14633,-0.349375295054222,-32.5835126550951,-30.597234214167,-1.79848775819808
14667,-0.34381414376133,-32.5553570794985,-30.5104093881612,-1.72246883399278
14700,-0.344277565381557,-32.043029031557,-29.9680974381725,-1.26963282667413
14733,-0.336440155458006,-31.1611422770913,-29.191263035155,-0.646804909455888
14767,-0.295774956967652,-30.4131999737979,-28.6559159018491,-0.306433194066849
14800,-0.219569339480312,-30.2385172510169,-28.6837579934599,-0.454859232645327
14833,-0.168704221428378,-30.6678467859009,-29.2348230798381,-0.892261324858253
14867,-0.214757391435354,-31.3073867331952,-29.9222829331833,-1.25957413689637
14900,-0.33722461833255,-31.6449086022441,-30.2785042485654,-1.30957495275819
14933,-0.44037587238741,-31.4807520032988,-30.1052727002942,-1.0515411774097
14967,-0.466630764918399,-31.0088508187475,-29.5967608996154,-0.702886548067298
15000,-0.436809798239584,-30.4659741010601,-29.0384976216605,-0.419726287634685
