NaiveD/Slimdog/Experiment/Scaffold/12-23/No-support/Kinovea/No_P1_R1_Rb_EE_J123o_V_Vel.csv
Time (ms),RB_End_Effecter,RB_Joint2 - o,RB_Joint1 - o,RB_Joint3 - o
33,-0.001862537,0.026161477,-0.002145767,0.020621752
67,-0.009044671,-0.040028859,-0.02700834,-0.028271239
100,-0.016037516,-0.079261489,-0.059125323,-0.073377378
133,-0.016013663,-0.085045055,-0.092963211,-0.114246562
167,-0.004021458,-0.09328422,-0.125022396,-0.168805405
200,0.017983885,-0.124531165,-0.149408907,-0.228851363
233,0.037216336,-0.164437294,-0.156722531,-0.249938503
267,0.037814289,-0.175299168,-0.138075247,-0.199012607
300,0.020267438,-0.122508138,-0.092741191,-0.098245203
333,0.002932647,-0.018359756,-0.035437774,-0.004026174
367,-0.001080877,0.068322942,0.005870532,0.041228913
400,0.003723237,0.070690438,0.007018375,0.024316618
433,0.005654633,-0.010093403,-0.03357267,-0.043083891
467,-0.006083661,-0.114047803,-0.095126428,-0.127761304
500,-0.041883197,-0.189482391,-0.15221557,-0.192143425
533,-0.10117162,-0.221851423,-0.188929349,-0.219681337
567,-0.159374133,-0.211684778,-0.200979695,-0.220394537
600,-0.185504183,-0.171855643,-0.193651468,-0.212651953
633,-0.173181891,-0.138999358,-0.178431422,-0.203119814
667,-0.137300134,-0.143011943,-0.165820032,-0.186005667
700,-0.091995038,-0.168951988,-0.159208477,-0.15943478
733,-0.048674401,-0.178638265,-0.15554437,-0.131459132
767,-0.018834686,-0.159097478,-0.149624333,-0.109044164
800,-0.006102061,-0.126977339,-0.136055082,-0.09255895
833,-0.006669402,-0.096172132,-0.110307872,-0.077843279
867,-0.020727361,-0.062096208,-0.073611826,-0.060413785
900,-0.052146111,-0.022257041,-0.036648557,-0.046947666
933,-0.092467614,0.003051567,-0.013888549,-0.054093786
967,-0.117837086,-0.007406616,-0.012871741,-0.080084898
1000,-0.112991482,-0.042513657,-0.029388998,-0.094354525
1033,-0.088090532,-0.071151346,-0.051810831,-0.074475996
1067,-0.062747523,-0.078656957,-0.069281384,-0.034948681
1100,-0.04426267,-0.073849291,-0.077013008,-0.005611324
1133,-0.028185509,-0.068653099,-0.075755306,0.002006149
1167,-0.011684202,-0.066431232,-0.068233103,-0.002650023
1200,0.00162406,-0.065423004,-0.055870622,-0.007114505
1233,0.006513476,-0.057594106,-0.037035938,-0.004238033
1267,-0.00192275,-0.02826862,-0.008743285,0.00771346
1300,-0.027738187,0.027597426,0.027769087,0.019484138
1333,-0.066243261,0.0922594,0.062526509,0.015211629
1367,-0.09922263,0.132630721,0.080197334,-0.004275226
1400,-0.108847402,0.115777582,0.070018955,-0.014647864
1433,-0.095275991,0.03810253,0.033884808,0.001761532
1467,-0.071779341,-0.050509065,-0.012923812,0.031923149
1500,-0.047896165,-0.088359833,-0.050296206,0.049119897
1533,-0.026550004,-0.070749663,-0.066117093,0.041726161
1567,-0.010603738,-0.04218464,-0.060270306,0.020591641
1600,-0.002485943,-0.030027578,-0.036738392,0.008687782
1633,0.000162578,-0.016381644,0.00319519,0.023477122
1667,0.004007721,0.030925367,0.05814857,0.063410707
1700,0.015177296,0.117677867,0.119789876,0.109358162
1733,0.032764073,0.209932119,0.170064926,0.13645348
1767,0.046000808,0.251950234,0.18723391,0.130175248
1800,0.043553781,0.205979899,0.160530567,0.096254528
1833,0.027086876,0.092347518,0.1020687,0.052917764
1867,0.00928831,-0.013696861,0.042059612,0.019064568
1900,-4.67E-05,-0.045645334,0.009088897,0.009262418
1933,0.000165153,-0.007687568,0.011746215,0.025744626
1967,0.005881476,0.040090371,0.037261959,0.053771921
2000,0.011145974,0.058276743,0.067417137,0.075039908
2033,0.011363124,0.07859344,0.09417142,0.085854724
2067,0.007656025,0.157528773,0.119740382,0.095952056
2100,0.005779481,0.272405714,0.145359695,0.110671729
2133,0.009189605,0.324919194,0.164238736,0.121376105
2167,0.014766168,0.276050657,0.166676909,0.116072915
2200,0.016394591,0.185822845,0.149603173,0.095109627
2233,0.012616967,0.110454075,0.119473159,0.071562976
2267,0.008702802,0.059299558,0.089412972,0.05905959
2300,0.010033822,0.038968276,0.074986838,0.064577863
2333,0.015673112,0.063278385,0.086363986,0.08739195
2367,0.020290231,0.121941656,0.120078839,0.117244855
2400,0.020572256,0.176292226,0.160457328,0.138850659
2433,0.016570685,0.20044297,0.191330612,0.144952476
2467,0.00959773,0.206859097,0.206383303,0.141753271
2500,0.004085612,0.212979972,0.20744732,0.137152463
2533,0.008652519,0.209478363,0.195996076,0.127609059
2567,0.02898166,0.181530759,0.172341734,0.105614156
2600,0.057494968,0.136848435,0.142145336,0.077604525
2633,0.074787423,0.100291722,0.117740527,0.06175407
2667,0.068544887,0.092911996,0.110872068,0.069039412
2700,0.046871491,0.114863768,0.123348132,0.092631616
2733,0.026475403,0.145737931,0.144080251,0.112842515
2767,0.015041899,0.16581288,0.157306761,0.113783337
2800,0.009704518,0.167366698,0.153927311,0.095158994
2833,0.006843924,0.145221516,0.133773699,0.066094235
2867,0.010542655,0.103145018,0.101585478,0.036967929
2900,0.029619453,0.062932774,0.064118378,0.017407423
2933,0.064011805,0.034471031,0.026638411,0.008668117
2967,0.098383129,0.000215149,-0.00902853,0.000669656
3000,0.112952031,-0.046371456,-0.039844319,-0.011004213
3033,0.09913744,-0.080654815,-0.058266729,-0.012512802
3067,0.066402942,-0.077834986,-0.058397766,0.011641243
3100,0.034477647,-0.04477644,-0.043600559,0.055071052
3133,0.015250896,-0.01328802,-0.025126932,0.090383098
3167,0.005162752,-0.00439167,-0.013893698,0.092937291
3200,-0.003274083,-0.01603918,-0.014515971,0.061121255
3233,-0.010304511,-0.041480541,-0.024633978,0.014566414
3267,-0.010293996,-0.065331452,-0.036937233,-0.021709066
3300,0.002789926,-0.060634512,-0.045644473,-0.034603581
3333,0.031864569,-0.033125207,-0.055669494,-0.034430657
3367,0.071968496,-0.033392712,-0.079250902,-0.045260038
3400,0.105611116,-0.090808868,-0.117123693,-0.074487366
3433,0.111301221,-0.174720094,-0.14937,-0.097778387
3467,0.085610829,-0.224175721,-0.150579914,-0.083424956
3500,0.049332008,-0.184845522,-0.111613363,-0.028646557
3533,0.024026869,-0.05500488,-0.048892587,0.03271519
3567,0.011277223,0.077006429,0.003392887,0.05675381
3600,0.000825512,0.097866431,0.016347026,0.025833843
3633,-0.010431361,-0.002447033,-0.011333656,-0.036538612
3667,-0.016060995,-0.118639745,-0.055900663,-0.089259908
3700,-0.012033408,-0.158063501,-0.09335202,-0.111697525
3733,-0.00273335,-0.129400343,-0.116756909,-0.113702923
3767,0.003983777,-0.099119559,-0.132155508,-0.115443811
3800,0.003014928,-0.110464662,-0.146706954,-0.127514943
3833,-0.005063295,-0.161067292,-0.161648944,-0.146921933
3867,-0.014151834,-0.220555663,-0.17069149,-0.161927819
3900,-0.017352836,-0.240425766,-0.163885683,-0.15774779
3933,-0.013744103,-0.185925558,-0.137641236,-0.128888041
3967,-0.009000742,-0.092641629,-0.102225482,-0.092024051
4000,-0.008100468,-0.039991375,-0.074093908,-0.073532827
4033,-0.009646761,-0.048098084,-0.059550472,-0.078996703
4067,-0.009663462,-0.062797159,-0.051603694,-0.087929681
4100,-0.009967017,-0.045055389,-0.043662928,-0.083022311
4133,-0.019880211,-0.016437434,-0.039786529,-0.071484655
4167,-0.046089128,-0.016054057,-0.047462936,-0.071670912
4200,-0.077808574,-0.050911613,-0.064282604,-0.088432282
4233,-0.089517005,-0.092083156,-0.076876543,-0.104396716
4267,-0.068607256,-0.101497352,-0.071422003,-0.092860147
4300,-0.031146917,-0.062937923,-0.044062614,-0.04511733
4333,-0.001884019,0.000355911,-0.005376434,0.01608417
4367,0.009499025,0.04325781,0.025278566,0.056890722
4400,0.008472669,0.041709423,0.034467027,0.060424514
4433,0.003844964,0.011559962,0.024885176,0.034615155
4467,0.000511444,-0.012988185,0.010717106,0.002828765
4500,-0.000755203,-0.011258411,0.004751015,-0.013813232
4533,-0.000787282,0.01170616,0.010315704,-0.010828614
4567,-0.000384557,0.037289999,0.021846199,0.000343823
4600,-3.55E-05,0.049736306,0.029639909,0.005515981
4633,-0.000171125,0.045262527,0.025750635,-0.000718975
4667,-0.001286852,0.031069277,0.00887432,-0.015824674
4700,-0.003433871,0.010830974,-0.015462684,-0.035873793
4733,-0.00551827,-0.02080307,-0.038826082,-0.056539673
4767,-0.006072914,-0.058553692,-0.05185432,-0.069271013
4800,-0.004912412,-0.074607179,-0.044077493,-0.062156647
4833,-0.002410734,-0.042445563,-0.008826255,-0.029562805
4867,0.002833807,0.034684464,0.048726365,0.023982881
4900,0.012962651,0.124584377,0.110424034,0.088848703
4933,0.025960419,0.184889019,0.152706519,0.145736858
4967,0.034182176,0.188071907,0.158394516,0.163839191
5000,0.031394538,0.139119521,0.126632303,0.126955882
5033,0.02021277,0.065156929,0.073676199,0.058334537
5067,0.009258162,-0.001788425,0.023452088,0.002517629
5100,0.004081035,-0.031310748,-0.005377293,-0.015075802
5133,0.003239822,-0.014101981,-0.007871532,-0.002828193
5167,0.002402937,0.021772671,0.008716392,0.015577124
5200,0.000368643,0.041504003,0.035402294,0.02579727
5233,0.00070163,0.050143141,0.070323654,0.034390852
5267,0.00862627,0.085455038,0.115320958,0.06090166
5300,0.024948798,0.159622476,0.163669676,0.110036008
5333,0.040540624,0.226526052,0.195643023,0.152561277
5367,0.042405311,0.224883825,0.191929132,0.14972423
5400,0.029570995,0.149289593,0.151808441,0.09960679
5433,0.014909612,0.057601541,0.094452374,0.044050705
5467,0.008894312,0.003551674,0.042525958,0.022013534
5500,0.009735274,-0.011918448,0.007522201,0.031901762
5533,0.0100573,-0.014947128,-0.010677624,0.048469268
5567,0.007007503,-0.018235302,-0.015864657,0.05667511
5600,0.003220528,-0.01763792,-0.010408973,0.057869121
5633,0.001034188,-0.00577898,0.003679275,0.05736465
5667,0.000255024,0.01940546,0.021776963,0.055960048
5700,0.002182531,0.047260374,0.035445783,0.048234593
5733,0.013054417,0.054118533,0.034773443,0.023997435
5767,0.037862848,0.028678892,0.015083026,-0.02317019
5800,0.066907793,-0.007215785,-0.019060133,-0.082877949
5833,0.076982915,-0.031307027,-0.060473725,-0.131515875
5867,0.05599989,-0.062460706,-0.106749333,-0.155352712
5900,0.018741425,-0.129342258,-0.154425427,-0.158236548
5933,-0.010227424,-0.205518991,-0.189866334,-0.14477247
5967,-0.021051146,-0.228879526,-0.195711121,-0.117765166
6000,-0.020849098,-0.18506439,-0.167343527,-0.091261409
6033,-0.018300068,-0.115267172,-0.117584601,-0.078086399
6067,-0.010918468,-0.052362151,-0.065495677,-0.067777418
6100,0.014076732,-0.004874611,-0.025853917,-0.038504574
6133,0.06706661,0.012931537,-0.007058429,0.016321419
6167,0.138786837,-0.013539504,-0.009207344,0.080465555
6200,0.195112765,-0.06361112,-0.021831607,0.125468299
6233,0.199860901,-0.085323431,-0.030229852,0.13078998
6267,0.149335235,-0.048958108,-0.028022287,0.09923432
6300,0.077799432,0.014003276,-0.023213767,0.052701756
6333,0.024353044,0.034443852,-0.030611798,0.010299003
6367,0.001448715,-0.020805931,-0.055083271,-0.027060304
6400,-0.002098202,-0.102571383,-0.082286738,-0.063734718
6433,0.00018121,-0.132638156,-0.090579703,-0.090312481
6467,0.002606785,-0.091158487,-0.071306415,-0.087700866
6500,0.003562438,-0.020411968,-0.034428976,-0.045224406
6533,-0.000644803,0.032789323,0.000450039,0.021481061
6567,-0.01662492,0.044841386,0.014584635,0.066320725
6600,-0.045503281,0.010105705,-0.001096344,0.045142867
6633,-0.073838957,-0.056150433,-0.039372824,-0.032121059
6667,-0.081284344,-0.116864197,-0.07875938,-0.097611733
6700,-0.060910478,-0.134676635,-0.096472539,-0.093633406
6733,-0.0268787,-0.099048316,-0.083927825,-0.032029651
6767,0.001031703,-0.036951255,-0.050942227,0.030688832
6800,0.014840304,0.006464195,-0.013687133,0.058062598
6833,0.015065645,0.012149047,0.02024002,0.055343196
6867,-0.003444099,0.012166213,0.053574651,0.045890447
6900,-0.051390477,0.051268384,0.087813377,0.042825222
6933,-0.123462975,0.121370591,0.111886591,0.036410555
6967,-0.183989197,0.158006564,0.105664432,0.006527673
7000,-0.19660677,0.10853833,0.058586881,-0.050145611
7033,-0.16322279,-0.009171295,-0.015446662,-0.109801367
7067,-0.110901095,-0.12055549,-0.084992409,-0.138797164
7100,-0.059596766,-0.163368702,-0.123633377,-0.122224115
7133,-0.019952165,-0.139699742,-0.125802323,-0.076837771
7167,0.002265411,-0.098202318,-0.102999963,-0.030341431
7200,0.008894973,-0.07140512,-0.06792669,0.006716322
7233,0.004448837,-0.047050949,-0.025847623,0.038818073
7267,-0.010371977,0.000293827,0.019618319,0.063210867
7300,-0.033885133,0.071500108,0.059347339,0.063789576
7333,-0.051518064,0.135271445,0.080319501,0.034929227
7367,-0.039240252,0.14760761,0.073403545,0.001722479
7400,0.006589901,0.090530492,0.041255664,-0.006568979
7433,0.053336617,-0.002962017,-0.00046978,0.003539085
7467,0.066988096,-0.071428008,-0.031107614,0.006405258
7500,0.050102483,-0.075299829,-0.037206743,0.001526069
7533,0.027170239,-0.027280137,-0.020837402,0.00690186
7567,0.011757713,0.023508165,0.004433441,0.022494936
7600,0.00329268,0.040210821,0.027940461,0.0324126
7633,-0.001176381,0.034326836,0.049813837,0.034859847
7667,-0.00336442,0.047858901,0.072568409,0.043999888
7700,-0.003890365,0.090063855,0.088694856,0.061646529
7733,-0.000974339,0.112606704,0.082758807,0.06709256
7767,0.009189659,0.07390222,0.048725791,0.043993305
7800,0.026967805,-0.003185749,0.001895428,0.005044341
7833,0.042838488,-0.061712548,-0.030095384,-0.019553088
7867,0.04407452,-0.063081257,-0.027132509,-0.009549021
7900,0.030829899,-0.003044128,0.010212421,0.031615481
7933,0.015239881,0.083521843,0.06039533,0.07767684
7967,0.005405509,0.134117022,0.09527263,0.097629368
8000,0.000681657,0.116396129,0.102610007,0.08507473
8033,-0.0017699,0.072127528,0.094150536,0.062288254
8067,-0.003125131,0.066556543,0.08730869,0.051264558
8100,-0.002074885,0.102314465,0.082500175,0.050057884
8133,0.005233884,0.117412366,0.064878553,0.039025497
8167,0.021792026,0.064562701,0.025987813,0.006363558
8200,0.042669132,-0.0312232,-0.023103617,-0.036362275
8233,0.05443963,-0.10076379,-0.059772488,-0.065295331
8267,0.048877705,-0.10271243,-0.067557044,-0.064967714
8300,0.033267967,-0.052165885,-0.047631163,-0.038591228
8333,0.019373916,0.00690937,-0.016090391,-0.006611108
8367,0.009782692,0.036436841,0.009661674,0.00852195
8400,0.001736382,0.028822802,0.023929022,0.0037395
8433,-0.004310531,0.013939189,0.034353446,-0.002648592
8467,-0.005221841,0.0308135,0.051213738,0.007741212
8500,-0.000909761,0.083102129,0.074236959,0.032344755
8533,0.003710514,0.125742525,0.090071298,0.048579164
8567,0.004435077,0.11106433,0.084895991,0.039573416
8600,0.002555097,0.048470587,0.059453771,0.015713345
8633,0.001633488,-0.008014011,0.029208181,0.001793432
8667,0.002957564,-0.024165913,0.010344028,0.009364557
8700,0.005027465,-0.008010577,0.007737064,0.030579863
8733,0.005646972,0.01615076,0.014821243,0.050455388
8767,0.004242052,0.029322622,0.021675682,0.058155295
8800,0.001624363,0.022970293,0.022561455,0.051738665
8833,-0.001293949,0.003712749,0.017935751,0.036409467
8867,-0.001481592,-0.007280158,0.011853789,0.019058881
8900,0.007766636,0.003798008,0.006791782,0.005119783
8933,0.031485468,0.021008778,-0.000742721,-0.00128873
8967,0.065637499,0.011736201,-0.017732905,-0.000590354
9000,0.095264703,-0.037903976,-0.045901962,-0.002436215
9033,0.101341993,-0.104560941,-0.075753301,-0.015448825
9067,0.077562876,-0.138115302,-0.090401456,-0.027845245
9100,0.040248942,-0.100981802,-0.07820148,-0.016372113
9133,0.012096171,-0.015602015,-0.044037722,0.016772496
9167,0.000201076,0.045555212,-0.006637859,0.03827437
9200,-0.002343446,0.040224265,0.018070219,0.026842313
9233,-0.001866817,0.005827045,0.030295942,0.001239002
9267,-0.000194496,0.007547664,0.040602781,-0.006043088
9300,-0.001129192,0.056756109,0.052490324,0.009033805
9333,-0.01310445,0.103566736,0.055386253,0.013020908
9367,-0.041454755,0.095152751,0.036194228,-0.031456087
9400,-0.076446332,0.024625394,-0.004041194,-0.117960252
9433,-0.093971901,-0.063594528,-0.046917912,-0.185735658
9467,-0.078549087,-0.109551422,-0.07133016,-0.175157264
9500,-0.042339064,-0.090186313,-0.070866674,-0.094538666
9533,-0.010653107,-0.040020563,-0.056639381,-0.010003674
9567,0.00370665,-0.013877105,-0.044867992,0.026697561
9600,0.00320634,-0.029169271,-0.042637251,0.015487288
9633,-0.005542881,-0.05781984,-0.045424748,-0.015744817
9667,-0.016602509,-0.07017345,-0.046389766,-0.042484295
9700,-0.024223762,-0.062046714,-0.043903828,-0.052842088
9733,-0.022618901,-0.043306161,-0.040320683,-0.044507362
9767,-0.009213506,-0.027218625,-0.038175486,-0.02067386
9800,0.006629267,-0.030815218,-0.037112903,0.009155488
9833,0.007477934,-0.059036631,-0.030814359,0.02970507
9867,-0.007074424,-0.081645295,-0.008855152,0.036124241
9900,-0.015603661,-0.053286549,0.03353462,0.045225155
9933,-0.00619609,0.029187296,0.084880255,0.067827307
9967,0.008312773,0.108360663,0.11880254,0.081141002
10000,0.011325971,0.117840946,0.113598622,0.05623351
10033,0.001172226,0.048706621,0.07327766,-0.000891316
10067,-0.011907268,-0.039773937,0.024108408,-0.054640852
10100,-0.017666513,-0.078758232,-0.00830841,-0.074932873
10133,-0.014106732,-0.051996797,-0.014652155,-0.061464105
10167,-0.0067044,0.002441597,-0.003904438,-0.039927505
10200,-0.001257947,0.034045026,0.0029603,-0.035005257
10233,0.000683101,0.01819725,-0.009511184,-0.048061032
10267,0.000580819,-0.029078577,-0.035298441,-0.061496291
10300,0.000254139,-0.063618846,-0.054668136,-0.059197135
10333,0.00071307,-0.053249069,-0.056718059,-0.04154091
10367,0.001787218,-0.015868377,-0.047917839,-0.022498226
10400,0.0016111,0.003648376,-0.0385231,-0.011543511
10433,-0.003554933,-0.000771046,-0.026473615,-0.001757884
10467,-0.016953576,0.009861373,0.000876045,0.02101171
10500,-0.035021804,0.058341689,0.051765628,0.061162516
10533,-0.04466857,0.125527948,0.11998643,0.106468603
10567,-0.035109695,0.185940728,0.185688093,0.132909924
10600,-0.012746803,0.224390864,0.22134617,0.118487224
10633,0.004495346,0.211598665,0.203681648,0.059929486
10667,0.006351551,0.116352074,0.13262929,-0.020865977
10700,-0.002481705,-0.03120546,0.039204024,-0.085243031
10733,-0.01060844,-0.13524799,-0.030451009,-0.098478116
10767,-0.011168182,-0.128141209,-0.041763209,-0.056800313
10800,-0.005381155,-0.03694782,0.005149841,0.007413518
10833,0.006437221,0.063114449,0.072833627,0.062394794
10867,0.034713343,0.126347631,0.115087211,0.109317176
10900,0.090296395,0.143379301,0.107562721,0.159289628
10933,0.164432272,0.105370037,0.049598116,0.196743563
10967,0.232892811,0.007099914,-0.04853439,0.196616769
11000,0.273704857,-0.119058028,-0.167111784,0.164026111
11033,0.268397391,-0.200847507,-0.268500686,0.12188486
11067,0.209649354,-0.181269258,-0.304232299,0.079470076
11100,0.121691138,-0.083070375,-0.251837522,0.043459188
11133,0.045851108,0.009756374,-0.14481096,0.022302318
11167,0.001818967,0.036600206,-0.048637386,0.002290373
11200,-0.016855715,-0.002714825,-0.004641723,-0.037983663
11233,-0.018902563,-0.066223234,-0.004018593,-0.085990906
11267,-0.006696688,-0.093247592,-0.011654948,-0.101391181
11300,0.012158524,-0.05041036,-0.004655743,-0.066814996
11333,0.014763556,0.021966362,0.014539432,-0.017088559
11367,-0.028340861,0.042460155,0.030804345,-0.011121583
11400,-0.120071009,-0.020568466,0.030726239,-0.071373843
11433,-0.209721744,-0.112912834,0.009260559,-0.152183399
11467,-0.22764276,-0.159645364,-0.027510736,-0.18114987
11500,-0.161029875,-0.146618828,-0.064978406,-0.13596721
11533,-0.066365339,-0.114967622,-0.09157905,-0.062639661
11567,-0.002922016,-0.098350517,-0.106998242,-0.015993547
11600,0.011915158,-0.09844207,-0.114240922,-0.009297072
11633,-0.013880091,-0.100652494,-0.111704342,-0.028927051
11667,-0.069563292,-0.086129092,-0.100146383,-0.069114193
11700,-0.134683907,-0.04539156,-0.087122157,-0.12745212
11733,-0.171601817,-0.001328373,-0.077669904,-0.175680384
11767,-0.155558601,-0.001838779,-0.06962385,-0.174291
11800,-0.10670165,-0.065815255,-0.062319655,-0.128007874
11833,-0.064853288,-0.151257411,-0.060344119,-0.084755294
11867,-0.043674015,-0.196825773,-0.064200491,-0.069220655
11900,-0.030738292,-0.18103151,-0.067257211,-0.06331937
11933,-0.01570512,-0.128175542,-0.067147918,-0.055294055
11967,-0.000865549,-0.073868178,-0.070071883,-0.058381744
12000,0.004861217,-0.04309845,-0.078848928,-0.076091908
12033,-0.010753924,-0.046834368,-0.087450027,-0.092236444
12067,-0.058693398,-0.074026674,-0.091785043,-0.101089515
12100,-0.131143153,-0.09073963,-0.095546998,-0.11557845
12133,-0.191294551,-0.079992481,-0.105245009,-0.141020522
12167,-0.201736376,-0.085643008,-0.12786454,-0.162183955
12200,-0.162431493,-0.158645436,-0.163249105,-0.16075258
12233,-0.103574,-0.257994443,-0.190493181,-0.132337749
12267,-0.052087851,-0.280224591,-0.179695696,-0.085027024
12300,-0.019250892,-0.187905103,-0.126160234,-0.034472462
12333,-0.005536294,-0.058551401,-0.059393115,-0.00185194
12367,-0.004598522,0.000230598,-0.01507244,-0.000622702
12400,-0.006752872,-0.030558012,-0.002857018,-0.019848345
12433,-0.005463982,-0.068219945,0.000274658,-0.033247087
12467,-0.004454469,-0.036304664,0.023558233,-0.028839681
12500,-0.016750144,0.05344047,0.071701236,-0.018615818
12533,-0.052982494,0.13643989,0.122397415,-0.014669036
12567,-0.106700771,0.161868662,0.141624063,-0.011176443
12600,-0.149754941,0.116719425,0.105415523,-0.000976753
12633,-0.152259335,0.032819364,0.026239011,0.00832529
12667,-0.112845108,-0.032294653,-0.050198361,0.008758592
12700,-0.059028476,-0.04999122,-0.086026952,0.005415344
12733,-0.018229436,-0.041817855,-0.078080744,0.006651592
12767,0.001557541,-0.037157249,-0.044019699,0.01569929
12800,0.008119797,-0.029494284,0.003230667,0.03630881
12833,0.012315772,0.014179229,0.062817186,0.073571347
12867,0.018702578,0.105762281,0.131306633,0.122348204
12900,0.025010416,0.206789002,0.186935782,0.162119865
12933,0.027423475,0.255194634,0.200723916,0.171532482
12967,0.024062917,0.221665174,0.163225934,0.146428943
13000,0.015916012,0.131568715,0.090388581,0.098891184
13033,0.007399678,0.034308814,0.013340376,0.046261951
13067,0.004011154,-0.030690191,-0.033008479,0.009712243
13100,0.007631564,-0.041339494,-0.031884953,0.009366488
13133,0.01469364,0.001255989,0.001407623,0.045314312
13167,0.019826388,0.068135828,0.038869571,0.094769657
13200,0.02136898,0.12781848,0.070929334,0.1379008
13233,0.021266341,0.180466458,0.112432756,0.174539283
13267,0.020478701,0.24499768,0.177203178,0.21012117
13300,0.017283367,0.308522969,0.25250873,0.235411525
13333,0.009162497,0.321154684,0.304329008,0.229075581
13367,-0.000808525,0.255765408,0.305100322,0.181774363
13400,-0.000412774,0.144665897,0.255875558,0.112067014
13433,0.015562819,0.044705771,0.183895096,0.054139633
13467,0.031101678,-0.008002853,0.118740171,0.032624923
13500,0.027897045,0.000526714,0.076511472,0.049854606
13533,0.006280374,0.072956942,0.065566629,0.089413226
13567,-0.017298602,0.179502875,0.089911655,0.126496583
13600,-0.019593429,0.246501997,0.140725121,0.141863227
13633,0.00657885,0.226432502,0.19614771,0.13263306
13667,0.038664933,0.165263847,0.236204326,0.108441859
13700,0.060566351,0.134174243,0.254149795,0.080364011
13733,0.087465689,0.133899018,0.250482529,0.057357956
13767,0.128022969,0.126538739,0.227719963,0.048168965
13800,0.156263202,0.110797681,0.198128402,0.060763091
13833,0.144152999,0.117500775,0.178887457,0.09659104
13867,0.099305496,0.153462112,0.175180718,0.142605349
13900,0.051746603,0.181009486,0.180734828,0.172702253
13933,0.019035744,0.168202966,0.186721787,0.167339683
13967,-0.000314605,0.137305915,0.179597989,0.129474297
14000,-0.012108241,0.120113462,0.137953505,0.070562832
14033,-0.012406074,0.093200959,0.046003815,-0.005416131
14067,0.020559704,0.015935039,-0.081387088,-0.083770491
14100,0.113782018,-0.099116981,-0.200153291,-0.120444164
14133,0.26039809,-0.199176967,-0.27401647,-0.075474322
14167,0.394654036,-0.244113907,-0.292600811,0.03059642
14200,0.430680782,-0.226775244,-0.256612271,0.121578053
14233,0.342033237,-0.167142957,-0.178211123,0.140868038
14267,0.190289915,-0.094743051,-0.08849144,0.101694763
14300,0.062851094,-0.031143377,-0.018871306,0.050713595
14333,-0.00146867,0.006196689,0.015351675,0.011531531
14367,-0.0175601,0.001091194,0.011804866,-0.019485103
14400,-0.014046691,-0.037023064,-0.017779253,-0.050115034
14433,-0.007567012,-0.066097066,-0.04611196,-0.076426327
14467,-0.002837205,-0.053922266,-0.049717709,-0.083964899
14500,-0.001710248,-0.017489718,-0.032151889,-0.072445601
14533,-0.007691037,-0.008251476,-0.021318341,-0.06868647
14567,-0.021813799,-0.059438318,-0.043618012,-0.097815275
14600,-0.036363706,-0.15033187,-0.099834532,-0.149369434
14633,-0.039239213,-0.227278218,-0.161798567,-0.181708351
14667,-0.027763471,-0.247801185,-0.189678371,-0.16117312
14700,-0.011403143,-0.197473228,-0.159545228,-0.098130509
14733,0.000379515,-0.10232991,-0.08510828,-0.04011387
14767,0.005081641,-0.027672097,-0.011535644,-0.025569668
14800,0.002611327,-0.014612101,0.012916945,-0.050913721
14833,-0.010699582,-0.034181785,-0.047990222,-0.083112717
14867,-0.044051256,-0.044089794,-0.224939331,-0.086631209
14900,-0.103392981,-0.048783012,-0.536162555,-0.034567934
14933,-0.170175254,-0.065136902,-0.929521382,0.06699612
