NaiveD/Slimdog/Experiment/Scaffold/12-23/No-support/Kinovea/No_P1_R1_RB_J123_Angular_Vel.csv
Time (ms),RB_Joint2,RB_Joint1,RB_Joint3
33,2.48304677,-14.72943974,1.855523348
67,-8.862067223,21.7650795,22.06465149
100,-7.880159855,26.59142685,35.37931824
133,5.676296711,0.976990283,22.95384026
167,18.84261131,-15.73573112,-7.819200516
200,19.48550415,2.096799612,-23.78841972
233,4.930849552,47.0237999,-1.247055888
267,-14.75197887,84.08139801,43.57134247
300,-22.05952835,69.4826889,61.86860657
333,-9.843975067,-3.853865862,26.48887253
367,9.329866409,-84.43444824,-26.17413712
400,18.20207596,-106.2935791,-44.82987595
433,14.45496845,-58.34709549,-27.77803612
467,6.912799835,8.456251144,-4.49921608
500,-0.163412258,46.27138519,8.06037426
533,-6.457704544,46.93507767,9.398304939
567,-5.521695137,20.90222168,3.489338636
600,6.530035973,-15.02573299,1.037949562
633,15.15461922,-34.5401268,16.1348877
667,5.072234631,-23.35063934,43.21921539
700,-12.19700909,3.501632929,56.46697998
733,-10.82967377,21.46058846,44.23318863
767,15.00401306,17.85588837,23.29377747
800,40.75635147,-3.572940111,15.54629612
833,39.69268417,-24.33398247,26.77358818
867,16.6149807,-27.81594276,42.7232399
900,-3.6553123,-17.40366173,31.87266731
933,-12.19157982,-5.853334904,-23.65338707
967,-15.47314453,4.492146492,-82.45619202
1000,-14.63251877,17.37517929,-78.70078278
1033,-8.595894814,25.09397697,-8.797521591
1067,-3.324184656,11.50155926,65.01831055
1100,-2.354161024,-21.99231911,84.90901184
1133,0.321906775,-50.81025314,50.44511032
1167,8.36301899,-52.76607513,8.474898338
1200,15.70929813,-26.81190681,-1.863514662
1233,19.69327736,8.754798889,20.39467049
1267,27.34435272,30.7842083,46.96673203
1300,41.6265831,27.4342041,33.35126495
1333,53.60301208,2.918881178,-42.29713821
1367,47.15842438,-24.63191414,-127.3369904
1400,9.665911674,-28.21038628,-136.1911621
1433,-42.3986702,4.547881126,-55.89826584
1467,-63.85834122,42.7427063,39.78089523
1500,-37.79587173,36.12916946,74.05874634
1533,2.267690897,-15.94309616,40.49663162
1567,21.01133347,-55.12003326,-4.700740814
1600,15.76144695,-39.18759155,-13.23659801
1633,7.417687893,6.462314606,9.297081947
1667,13.8142271,28.43639755,21.22402573
1700,24.28316498,7.975133896,-4.8195858
1733,7.824220657,-32.86604691,-52.23588181
1767,-40.86310577,-57.79323578,-79.50759888
1800,-81.52642822,-37.39405441,-64.07093048
1833,-72.24655914,25.73451233,-22.44044876
1867,-17.55857086,84.12831879,11.83063793
1900,42.00514603,86.41567993,20.0384407
1933,66.92577362,39.32733917,8.493032455
1967,45.66394424,-1.181076169,-5.343017578
2000,7.844711304,-0.911420465,-12.65794468
2033,-0.71214962,20.17357635,-17.30592155
2067,35.62602234,19.97625351,-25.47438431
2100,77.85298157,-18.63391495,-36.95186615
2133,64.46936798,-66.8621521,-44.88878632
2167,-3.841469049,-78.89052582,-43.26880264
2200,-59.73758698,-46.61562729,-33.33948135
2233,-65.66088867,-3.102066755,-19.99643517
2267,-41.26287842,24.71694946,-5.792580605
2300,-12.00562763,31.57821846,6.838829041
2333,11.59397221,16.90102768,12.30919552
2367,22.4531517,-12.1248827,6.217144966
2400,17.93354797,-32.180233,-8.587493896
2433,9.507314682,-24.08952904,-22.67148018
2467,7.720743179,-1.429421902,-28.5189743
2500,-0.548122644,1.919966221,-27.50346184
2533,-28.79344749,-17.57004547,-25.70900154
2567,-56.96182632,-24.65937233,-26.02680969
2600,-57.97795868,-1.993732214,-26.92030144
2633,-36.9277916,25.21159172,-25.10401726
2667,-14.15867424,31.28930092,-19.96498299
2700,2.559886456,16.97540855,-16.4321022
2733,13.27399349,-3.354920387,-18.53269196
2767,17.87658501,-15.65602303,-23.2756958
2800,14.90709305,-15.2306385,-25.55772972
2833,0.078786224,-5.111781597,-23.77878952
2867,-21.07208824,9.814776421,-19.85884094
2900,-33.29481125,17.17970085,-16.48967934
2933,-33.61169815,9.117892265,-12.47060966
2967,-26.10293198,2.835074663,-3.124555111
3000,-9.700950623,16.12259293,11.7467289
3033,10.75580502,32.14990616,25.26215363
3067,23.23046112,20.5014267,30.20524788
3100,21.86343384,-16.7100563,25.74813843
3133,11.92479229,-44.36617279,18.1797924
3167,3.428584099,-38.8814621,13.9601717
3200,3.145506859,-12.04722309,14.97435284
3233,9.537845612,13.09183216,20.83654976
3267,12.20295143,20.39528465,26.22075272
3300,4.25414896,-1.418152094,21.63168526
3333,-3.694756746,-39.29516602,8.005254745
3367,1.229024172,-49.45992279,-0.760507345
3400,9.966918945,-3.313939333,3.332688093
3433,2.02579999,75.79603577,14.76140499
3467,-25.15001869,127.476944,26.21501541
3500,-50.47492218,101.8479462,30.3563652
3533,-54.64890289,13.11416721,18.53320503
3567,-40.97898102,-60.43569946,-2.129891872
3600,-21.04473305,-51.42824554,-10.78510666
3633,-4.153181553,21.50566864,-1.561688542
3667,-0.092975944,73.55641937,11.82039261
3700,-2.239260197,54.36474991,15.11179352
3733,2.041014194,-5.116904259,5.84534359
3767,6.635152817,-44.95732498,-5.202861786
3800,1.300023913,-37.50941467,-4.173518181
3833,-15.75637531,0.475790977,11.67542171
3867,-42.07696533,33.44900513,32.44886398
3900,-63.81305695,35.25135422,43.96804047
3933,-61.36177063,2.388790131,39.98590469
3967,-37.18571472,-37.86308289,27.68992615
4000,-10.71999836,-43.89898682,15.52109241
4033,6.362679482,-7.920014381,5.363200665
4067,10.10123444,28.81076241,-2.148230791
4100,2.392785788,26.20231056,-5.939702988
4133,-7.234655857,-6.342444897,-4.320333481
4167,-9.002785683,-25.44784927,4.969781876
4200,-1.331476927,-7.786620617,18.01776505
4233,7.523470402,24.4169693,23.18005562
4267,8.560190201,33.25967026,15.02112293
4300,0.80650866,7.98312521,2.489091396
4333,-11.610672,-28.08642006,-5.609189987
4367,-22.48214722,-42.99986267,-10.49741936
4400,-22.99164391,-27.56411552,-13.23588085
4433,-10.14170265,-1.364056945,-11.83832169
4467,8.950791359,15.20912361,-9.089307785
4500,26.70832634,21.41038704,-7.909051895
4533,36.9199028,24.7726841,-5.199071407
4567,30.57720375,24.9962368,-0.440239817
4600,5.900514603,16.64120865,0.91254741
4633,-22.4494133,0.4835774,-2.054179192
4667,-37.34799957,-13.9610424,-2.677707195
4700,-35.76832962,-15.41320992,2.753624678
4733,-22.93176079,-1.532489419,9.646651268
4767,-2.861456394,17.86736298,10.84760284
4800,17.4994545,31.3888855,2.786716938
4833,25.83865547,33.27278519,-12.64308929
4867,14.3130188,20.5479393,-27.02336884
4900,-9.259174347,-5.066497326,-27.23442078
4933,-26.45198822,-32.14519119,-9.897455215
4967,-26.37709618,-44.53480911,7.03410387
5000,-13.88947868,-33.48199463,4.460181236
5033,-0.760200024,-3.223371029,-11.56036758
5067,6.226827145,29.26708794,-20.16322899
5100,8.248118401,36.6182785,-13.32071209
5133,9.865387917,5.54372263,-1.989736557
5167,13.6918478,-34.87412262,-0.127041519
5200,17.65492821,-38.98760605,-9.208459854
5233,14.93654823,-0.841342628,-18.5221386
5267,1.234966397,36.17158508,-18.09778023
5300,-16.85179901,29.53510475,-10.33513451
5333,-28.19015312,-8.518543243,-6.752973557
5367,-27.4303627,-24.75178337,-12.54831982
5400,-17.48639297,2.700246811,-21.31090546
5433,-6.415493965,35.5259285,-24.14157486
5467,1.634327531,33.58178329,-17.85209846
5500,9.4370327,7.956692219,-7.206327915
5533,18.76310921,-9.242884636,1.150032997
5567,24.5451889,-12.17959213,4.887717247
5600,21.25522232,-11.33579063,4.634146214
5633,13.31062031,-9.983822823,2.888862371
5667,9.955494881,-10.78152084,4.267570019
5700,12.45160484,-16.50597,12.54258251
5733,16.18083763,-15.91953182,21.58937263
5767,15.84448528,0.457144558,13.70685673
5800,3.074609518,13.21129227,-13.58504009
5833,-19.74189186,-0.046718489,-27.84012222
5867,-26.60484886,-19.05909538,-2.194232225
5900,2.637340784,-6.377893448,41.75905609
5933,44.68710709,28.89292908,65.11400604
5967,59.20278168,41.01268768,58.09137344
6000,41.25165939,18.84640312,34.86920547
6033,12.71603584,-3.305128336,8.252062798
6067,-6.895075321,-8.15913868,-17.20111275
6100,-3.610130548,-10.35900593,-33.89006424
6133,24.81955719,-11.14563847,-24.90197945
6167,59.09674454,4.506285191,15.38933849
6200,72.74688721,31.31122589,61.45643616
6233,62.32001114,42.23228455,74.64139557
6267,47.50419998,18.90889931,41.30375671
6300,40.53720474,-27.0026722,-8.674168587
6333,34.4527359,-53.97317505,-30.04634285
6367,20.46587372,-29.83611107,-12.79902267
6400,2.198945045,20.39364624,12.39771461
6433,-8.517518044,44.20941925,14.00509739
6467,-5.304597855,28.27472687,-8.830512047
6500,6.270010948,-4.901343346,-22.69033051
6533,16.16111565,-35.83779526,3.783173561
6567,18.20791626,-51.1200676,49.13187027
6600,11.0496397,-38.90010834,57.0186882
6633,-1.969041109,-4.08950758,14.89100742
6667,-13.75419044,26.71498489,-27.03607178
6700,-18.07964516,24.39770699,-26.2405262
6733,-11.27298737,-13.43197632,-0.476713061
6767,4.574109077,-50.84672546,10.36064434
6800,16.86906242,-43.54142761,0.552630544
6833,13.61874771,12.85578156,-11.98021889
6867,0.004815283,68.3956604,-16.89262772
6900,-6.150038719,65.20385742,-12.85352707
6933,3.842391253,1.748869777,-4.737111568
6967,18.56988335,-62.60380554,-4.171674252
7000,20.07184029,-67.86803436,-16.12833023
7033,2.426595211,-13.9893198,-26.8840332
7067,-22.05051231,42.90519714,-18.59108925
7100,-31.22240067,53.24289322,5.033404827
7133,-16.72306824,17.66921997,22.11229134
7167,6.44950819,-27.29650688,23.18323135
7200,21.18273735,-47.99628067,19.83281898
7233,26.1549778,-40.86904907,22.70477676
7267,32.4602356,-30.90530777,23.28773308
7300,47.83184433,-37.91533279,1.313650131
7333,61.93612289,-50.81496429,-42.80366516
7367,54.77343369,-44.93417358,-73.51994324
7400,22.18380356,-13.25944519,-57.34859085
7433,-19.4397068,26.24677658,-7.670643806
7467,-50.10046005,46.55272293,29.83447075
7500,-56.31002426,32.99923706,30.58073807
7533,-37.13290024,-1.352992058,7.365744114
7567,-10.67773628,-17.98641396,-15.61606598
7600,-0.630289793,10.50346375,-25.30830765
7633,-10.619133,56.4295845,-22.04579926
7667,-21.81620216,59.47919846,-14.50240421
7700,-18.81720352,8.778363228,-11.34408951
7733,-6.990561485,-38.47636414,-11.30823135
7767,3.525299549,-36.15416718,-7.81756115
7800,11.08928967,1.739239216,-0.805586636
7833,12.99655151,37.09202194,5.697606564
7867,5.473542213,42.30932999,8.434531212
7900,-4.088892937,7.302838326,3.238431454
7933,-3.910214901,-42.77262115,-8.950791359
7967,2.344223261,-55.65934372,-17.23635674
8000,2.566750765,-14.20672417,-12.90178299
8033,-0.850460947,32.4466095,-1.885542035
8067,5.177863598,30.59794998,2.536014795
8100,20.50828934,-9.607001305,-2.999204159
8133,27.93509674,-36.10519791,-9.814980507
8167,15.6352253,-22.46196365,-10.65488911
8200,-10.16239834,12.07017326,-4.514686108
8233,-36.0741539,35.33884811,8.478279114
8267,-54.19252777,32.57672501,23.9580822
8300,-60.44922256,7.147314548,30.18578148
8333,-50.95727158,-23.70123291,21.44491386
8367,-30.79302025,-31.62124825,6.835038185
8400,-13.59395409,-4.730247021,-3.269167423
8433,-6.455860138,30.4555397,-7.490224361
8467,-5.919417381,37.78993225,-8.509015083
8500,-6.012854099,12.00214386,-8.55685997
8533,-7.176411629,-19.20969963,-8.376543045
8567,-12.41533661,-24.87677574,-8.069185257
8600,-15.12880039,-2.528945684,-8.762482643
8633,-6.704718113,21.60197449,-10.03638172
8667,7.916633129,25.27695656,-9.591018677
8700,16.1171627,11.31038284,-7.614089966
8733,14.53324223,-4.643776894,-4.637937069
8767,10.09990215,-12.58202744,1.612607598
8800,6.76311636,-11.1245327,11.04318523
8833,3.648857832,-5.425287247,19.54318428
8867,4.21603632,-5.895545483,22.55478477
8900,11.93739414,-18.03333664,14.45148468
8933,18.53340912,-32.5201683,-3.14796567
8967,13.70818901,-32.46914673,-11.65318966
9000,2.757313013,-11.03007126,1.660760403
9033,-2.831079006,19.78651047,21.03971291
9067,0.633260906,35.48289871,25.13803101
9100,14.12179089,17.80117798,13.72355652
9133,30.38751221,-20.66145706,-1.598264217
9167,31.43673134,-39.5676918,-13.58340168
9200,11.62747383,-15.61135387,-18.15126038
9233,-15.5690403,27.16270447,-11.84723568
9267,-33.22954941,43.17649078,6.362627983
9300,-33.61077881,13.76084995,30.07001114
9333,-22.79913521,-35.03476715,38.50361633
9367,-13.1211338,-57.18281937,12.54924202
9400,-11.04318523,-28.09072304,-35.17615509
9433,-10.64618111,30.5918026,-62.02054214
9467,-2.475567818,66.37426758,-37.63871002
9500,9.810985565,46.19577789,14.18623352
9533,15.28995895,-5.651708126,41.97891998
9567,13.99075413,-36.78650665,34.77627945
9600,16.43189621,-30.69610023,19.97000313
9633,30.44437218,-11.31693935,14.85730076
9667,52.18486023,3.564333916,14.25713158
9700,65.46224213,12.54063606,3.861140013
9733,53.73456192,7.2493577,-19.38663673
9767,18.37143135,-13.12687111,-33.85533142
9800,-21.31305695,-13.87395763,-15.71431828
9833,-47.25585556,33.20926285,23.9387188
9867,-52.49898148,91.08773804,44.70016861
9900,-38.30506516,98.8104248,23.27031708
9933,-14.91528893,55.18498993,-17.22262764
9967,0.203368872,13.85695076,-38.28539276
10000,-3.466491461,14.97286797,-32.90907669
10033,-19.449543,48.27106094,-18.86228371
10067,-31.9118042,70.17874908,-8.002693176
10100,-27.10666275,47.53012085,-0.027662264
10133,-2.442270517,-12.59678078,6.239684582
10167,26.44184685,-69.37921143,8.007099152
10200,37.05339813,-83.19579315,5.745862007
10233,24.01412392,-49.75847244,4.804525375
10267,1.776941895,1.644982696,9.33765316
10300,-13.46107292,33.12340927,17.78755188
10333,-16.48588943,20.26291466,22.53675461
10367,-15.45449829,-23.80204582,17.25305557
10400,-22.39424133,-52.6658783,3.695166588
10433,-38.81640625,-36.50722122,-10.50459099
10467,-54.47744751,9.190633774,-18.17584801
10500,-54.14468384,49.48287201,-19.78087425
10533,-32.34886932,61.9786377,-23.4954052
10567,-9.213993073,46.48674393,-32.31885147
10600,-10.87654591,19.60598755,-37.89955521
10633,-32.18842697,7.546676159,-33.77951813
10667,-41.03425217,31.18705368,-24.28552055
10700,-20.89894295,75.28704834,-14.37392807
10733,10.94247437,94.91127777,-1.855933189
10767,31.57611847,72.17760468,10.641366
10800,34.87535095,34.89584351,9.777380943
10833,25.7524929,10.32458115,-7.38848877
10867,13.69077206,-7.928005695,-22.64453506
10900,8.715815544,-36.54225922,-17.14230537
10933,12.67464447,-69.95663452,6.072379112
10967,14.83194351,-88.48194885,31.31839752
11000,1.046658039,-91.05433655,53.7253418
11033,-24.54672432,-104.7424469,66.92208099
11067,-36.21020889,-152.1324158,54.45460129
11100,-20.27920532,-208.7488708,24.52515793
11133,7.932667255,-210.2100525,7.95474577
11167,26.96158981,-128.0192261,9.206411362
11200,26.95641518,-6.148808956,8.194996834
11233,12.3183651,90.5692215,-0.309612453
11267,-0.88427037,113.5068741,-4.417048931
11300,0.300903946,48.40158463,0.808557749
11333,8.98654747,-52.39335251,4.162248611
11367,7.059717178,-76.71791077,-3.810425997
11400,-8.488524437,43.6369133,-14.88332367
11433,-18.41650963,205.9281464,-17.44003296
11467,-2.184960127,229.9199371,-12.20438576
11500,35.81433105,110.6000824,-5.449670792
11533,67.63162231,-7.530078888,2.3013978
11567,74.62028503,-45.80830002,17.91961479
11600,64.43914795,-32.34558868,46.38306046
11633,51.61573792,-23.84241295,74.16375732
11667,40.2287178,-41.08583832,61.65161133
11700,26.7926445,-66.58142853,-17.76562691
11733,6.321749687,-76.38391113,-110.2325897
11767,-21.3743248,-49.89207077,-112.8982086
11800,-44.09703064,19.77688026,-13.13937092
11833,-44.40869141,98.17829132,86.23690033
11867,-18.38423729,123.428215,98.5850296
11900,16.46212006,76.52243042,40.54724503
11933,34.43429184,12.28860188,-12.51625252
11967,29.87770653,-1.207918882,-19.32936478
12000,20.10882568,38.47636414,4.828294277
12033,13.33095741,67.08283234,28.02894402
12067,1.610968351,36.77626038,27.4789772
12100,-8.729083061,-35.35852051,-4.281606197
12133,-1.261911511,-98.35287476,-52.05679703
12167,10.24600029,-104.3535385,-75.63600159
12200,-5.931711674,-44.53132629,-37.99770355
12233,-51.88559723,28.8205986,48.16184616
12267,-90.76347351,50.39326859,113.1403046
12300,-83.7937088,14.36040401,91.79855347
12333,-43.23099518,-24.9282074,9.781273842
12367,-14.68886852,-18.51752853,-42.17962646
12400,-12.88815594,25.44805336,-24.88589478
12433,-15.57037258,60.55187988,22.92156601
12467,0.271807343,62.04256821,36.3307991
12500,33.17770767,39.29024887,-19.94193077
12533,63.96519852,10.74217892,-97.97389984
12567,74.03087616,-1.011209488,-107.959877
12600,56.4510994,12.66644859,-36.8401947
12633,22.53214264,25.28802299,40.53566742
12667,-8.24601841,8.599685669,55.55279541
12700,-25.74752426,-31.12783623,12.46236229
12733,-30.90889359,-61.46022797,-30.53780937
12767,-26.9908905,-51.62290955,-34.28450775
12800,-15.23719597,-6.905935764,-9.259584427
12833,2.868371964,29.72771454,12.74861526
12867,21.49695969,27.3915844,7.03430891
12900,28.89887238,-2.399240255,-25.87927818
12933,15.8255825,-31.15816116,-56.11997223
12967,-8.579707146,-44.56185913,-56.06864548
13000,-21.32883453,-41.22189713,-30.23321724
13033,-15.43349552,-20.65182686,-2.788356304
13067,-6.38137722,9.326280594,10.63275909
13100,-5.225606441,23.45145226,10.48994064
13133,-5.597202778,3.518844843,2.726474762
13167,-0.503350794,-34.62926102,-7.799119949
13200,2.656704426,-55.87429047,-17.12314606
13233,-5.370884895,-41.3196373,-25.68594933
13267,-19.0392189,-12.72873974,-38.039608
13300,-28.41775131,-4.889663696,-51.7191124
13333,-33.8595314,-7.496269226,-55.73218918
13367,-35.96954727,21.79827309,-44.97320557
13400,-28.85993958,88.24938202,-25.81227303
13433,-13.88727665,139.6872559,-7.862435818
13467,-0.785096049,126.4698334,2.521978855
13500,8.184240341,55.81548309,2.830259323
13533,21.56918907,-27.63603592,-6.426148891
13567,40.2950058,-74.32419586,-20.23766136
13600,41.36010361,-48.79213715,-28.95895958
13633,2.874723911,30.34079361,-25.09013557
13667,-55.39901352,90.5578537,-11.31642723
13700,-89.95661163,89.73535919,-0.775465488
13733,-81.19007874,56.63797379,-6.353509903
13767,-39.4590416,32.7767067,-25.02220917
13800,11.68121052,24.53417397,-37.87255859
13833,44.46985626,15.11568642,-33.35725784
13867,42.30175018,-0.614512086,-21.29010773
13900,17.52532387,-5.459506512,-16.09728813
13933,-2.73067522,12.469944,-19.12825012
13967,-13.34458351,35.60850525,-23.18379402
14000,-33.96741486,37.74935913,-20.98679543
14033,-68.23778534,16.62297058,-7.506053448
14067,-87.02342987,-11.99517727,14.32387924
14100,-70.40630341,-37.95713425,34.02719498
14133,-35.60640335,-56.7213707,47.69712067
14167,-8.917443275,-60.54245377,59.98193741
14200,0.845133424,-50.91864777,69.6306839
14233,-1.680943608,-42.32203293,69.25693512
14267,-7.863716125,-38.49214172,55.9030304
14300,-9.376688004,-33.48875427,33.92264175
14333,-4.917787075,-33.39654922,12.95331669
14367,-1.68370986,-38.51632309,2.074464798
14400,-3.267784357,-29.53264427,2.571566105
14433,-4.150978565,-1.646826863,8.030970573
14467,-0.315298587,23.48485184,11.68105698
14500,5.377339363,30.55184555,11.7719326
14533,7.361543655,25.43637466,11.09615326
14567,0.946869135,18.63350487,13.49119377
14600,-14.00340652,11.817729,19.57115364
14633,-32.58732605,-0.000614717,25.01529312
14667,-47.23188019,-17.64790916,24.71479797
14700,-48.08874512,-33.68177795,17.77054596
14733,-31.8788662,-35.3099556,8.143873215
14767,-11.49341488,-12.36954021,1.869047165
14800,-1.146856904,21.12761688,1.47142756
14833,1.63647902,23.45903397,3.133110046
14867,4.94703722,-71.97843933,1.410775423
14900,6.181542873,-490.9697266,-7.153051853
14933,1.21201694,-1154.360596,-23.45780563
