NaiveD/Slimdog/Experiment/Scaffold/12-23/No-support/Kinovea/No_P1_R1_RB_EE_J123o_V_Pos.csv
Time (ms),RB_End_Effecter,RB_Joint2 - o,RB_Joint1 - o,RB_Joint3 - o
0,0.0877282006154315,-25.0284979105617,-23.2927449533312,0.0534102954590056
33,0.0909283131279715,-24.8269416950602,-23.2677421455712,0.198140622861043
67,0.0753112846894224,-24.8540917696002,-23.3070539508322,0.190888659329743
100,0.0306305074017507,-25.0938011586272,-23.447798998874,0.00966568159620976
133,-0.0316054959834831,-25.3825018701481,-23.701223187868,-0.298293853182846
167,-0.0761272579265634,-25.6607686789331,-24.0675542532511,-0.751978080506618
200,-0.0584152206645921,-26.0043971755247,-24.534706930964,-1.42366324762982
233,0.0437653179176221,-26.4909768078874,-25.0636147613529,-2.27765387731062
267,0.18969370081499,-27.1006442459515,-25.5795233608126,-3.0899201169566
300,0.295860584728044,-27.6596378216863,-25.9841164659722,-3.60440467866936
333,0.324809972487121,-27.9173669146473,-26.1977976814655,-3.74488804970236
367,0.315411577074774,-27.7820354373392,-26.2203674274405,-3.63124578609994
400,0.317604123274128,-27.4618790431088,-26.158661635003,-3.4700285748235
433,0.340233155371411,-27.3107661247187,-26.1735780036757,-3.46913501885441
467,0.355301686643788,-27.5291694476796,-26.382477902561,-3.75725471206043
500,0.299675419591981,-28.0710844387048,-26.8077552875866,-4.32087710895498
533,0.0760803470265447,-28.7923856785273,-27.3972497510283,-5.03821082328172
567,-0.374802021359288,-29.5500948560806,-28.0672838877567,-5.78541932147479
600,-0.986413977130551,-30.203616172043,-28.737113741475,-6.50750756764558
633,-1.61149672651287,-30.6957982909308,-29.3582928072157,-7.20309937573423
667,-2.14095997248589,-31.1302802476659,-29.9266567732861,-7.86163981232773
700,-2.52683086744098,-31.6492118262067,-30.463759547065,-8.44313674977775
733,-2.75426025173095,-32.2566263490894,-30.9880467334004,-8.92453830740308
767,-2.85132699638646,-32.840132022419,-31.5007230398145,-9.31953159585696
800,-2.87982484386236,-33.3172755845233,-31.9855428306407,-9.65149956556242
833,-2.89200727354239,-33.6866496567267,-32.4077549277056,-9.93659082448239
867,-2.92428753149195,-33.9584240537826,-32.7209269486149,-10.1704545043743
900,-3.03018971456005,-34.1006230912173,-32.8985022332157,-10.3393498392317
933,-3.27192838173024,-34.1068037048157,-32.9652517582935,-10.4834396375683
967,-3.6466404411146,-34.0802814457093,-32.9910918720129,-10.6999746095704
1000,-4.057508791274,-34.1561831025534,-33.0510648872811,-11.0173388372131
1033,-4.39991700755387,-34.3637031469841,-33.187019820009,-11.329004851009
1067,-4.64477941502759,-34.6305226749324,-33.3964680630418,-11.5138455701721
1100,-4.81823417828858,-34.8880855054418,-33.6488957433412,-11.5619962184819
1133,-4.9398636637339,-35.1228518977592,-33.9098875395829,-11.5512545463319
1167,-5.00613740028396,-35.3457719130501,-34.1539298735974,-11.5486218725395
1200,-5.01775838788127,-35.5657279437624,-34.3647767167861,-11.5689208450573
1233,-4.99531044787287,-35.781926913628,-34.5264031955053,-11.596052620894
1267,-4.97433513606018,-35.9496867921494,-34.611683416514,-11.59717438478
1300,-5.0081288118555,-35.9703822011493,-34.5846908743602,-11.544629187437
1333,-5.15925660311911,-35.765706241995,-34.426555822051,-11.467280497887
1367,-5.44975035288807,-35.3553201679527,-34.1678470912063,-11.4432177777411
1400,-5.82074050160879,-34.8814983937974,-33.8919082082377,-11.4957819503533
1433,-6.17539986670499,-34.5834711358962,-33.7010533127743,-11.5408705896908
1467,-6.45591422325826,-34.6274828727336,-33.6660087437488,-11.484038102533
1500,-6.65392878273568,-34.9201979115576,-33.7872107336835,-11.3280497963493
1533,-6.77522202268873,-35.2165504037668,-34.0013176020726,-11.1565723634551
1567,-6.83092860463564,-35.3918605819146,-34.2279931705844,-11.049875641294
1600,-6.8459136058702,-35.4977810182667,-34.403119611722,-11.0192946071901
1633,-6.84750163232115,-35.5920441513921,-34.4729153467941,-10.991956857223
1667,-6.84482954384552,-35.606990008936,-34.3818168728985,-10.8627805188687
1700,-6.8207836226692,-35.3858774406412,-34.0852567147595,-10.5692186740297
1733,-6.7436477658407,-34.8224729305722,-33.5832192974877,-10.1337259464637
1767,-6.60235651435205,-33.9863291786918,-32.9514934793586,-9.65952903000775
1800,-6.43697571578154,-33.1428013666922,-32.3349901135712,-9.26589111505452
1833,-6.31199800988719,-32.6131291809259,-31.8812888701466,-9.01783178147732
1867,-6.25639635934638,-32.5271539274856,-31.6545330298981,-8.91310625017097
1900,-6.25007560093082,-32.704440966712,-31.6008918426322,-8.89073446195169
1933,-6.25670750279533,-32.8314566373792,-31.593941325795,-8.8513569681979
1967,-6.24897494903851,-32.7556918096621,-31.5225829109227,-8.71910375695587
2000,-6.21749770916285,-32.5641845326536,-31.345527905562,-8.49287710513887
2033,-6.17466829684377,-32.3671787550306,-31.0731356192483,-8.21883756459652
2067,-6.14174355345183,-32.0402281509816,-30.7177179604476,-7.9205122745359
2100,-6.1236281703185,-31.3169873235191,-30.2748655903152,-7.57915730024575
2133,-6.10321371787319,-30.2241907226109,-29.7486532995736,-7.18270049519431
2167,-6.06236391449263,-29.1508603878449,-29.1799408859708,-6.76998314395621
2200,-6.00477264374958,-28.3838529964846,-28.6374733001277,-6.40888119741457
2233,-5.95306670015083,-27.9120416448011,-28.1825861887585,-6.13591925467413
2267,-5.92065952241997,-27.6474931942356,-27.8409859097747,-5.9317946385533
2300,-5.89504823313946,-27.5167095704345,-27.5864997490798,-5.74218862171874
2333,-5.85376762163154,-27.3877046811612,-27.3410741668162,-5.50127541555223
2367,-5.79056076186392,-27.0948543834835,-27.0107400184689,-5.15957524539554
2400,-5.71849916625431,-26.5747611817191,-26.5405479227397,-4.71964297827634
2433,-5.65341242618959,-25.9195732478471,-25.9410244591869,-4.23390450255489
2467,-5.60802814403139,-25.2384743992228,-25.265010088942,-3.75329333366994
2500,-5.58942756053729,-24.5405113031882,-24.5651350374134,-3.28888256396874
2533,-5.58079041716189,-23.8186080853491,-23.8820283439717,-2.83894338049878
2567,-5.5317441391397,-23.1439902970029,-23.2584946159901,-2.43815542546844
2600,-5.38757950276087,-22.6084031339324,-22.7330840888543,-2.13484897582265
2633,-5.14844413275533,-22.2316668778734,-22.3108592044181,-1.92079188948611
2667,-4.88899646277279,-21.9397905144407,-21.9481473737697,-1.72315521891787
2700,-4.69147839160893,-21.6122534949445,-21.5717127318927,-1.46052903226691
2733,-4.5765197687018,-21.174031972871,-21.1258259106144,-1.10561113637191
2767,-4.51497567551019,-20.6406676011929,-20.611176699324,-0.708245655662259
2800,-4.47624048728239,-20.0686137505148,-20.0771137244962,-0.347055409253612
2833,-4.45027870074572,-19.5248891774658,-19.584995017114,-0.0738523314692522
2867,-4.43061456079345,-19.1004692095973,-19.1852891906165,0.0935728561829215
2900,-4.37999454128381,-18.8372561133282,-18.907758813874,0.172600546990644
2933,-4.23315143076865,-18.6809182463146,-18.7578331201169,0.209622347568415
2967,-3.95324906015041,-18.6074484728325,-18.7301701571541,0.230387999498927
3000,-3.57726386282465,-18.6794833380955,-18.8180236361688,0.214086725569244
3033,-3.20023543306578,-18.9165912075306,-18.9957988192084,0.157026572641555
3067,-2.91634739050511,-19.2171813919765,-19.2064682250604,0.130668047504791
3100,-2.7575491096013,-19.4354916921399,-19.3851161702079,0.234634866104475
3133,-2.68649643032105,-19.515691129361,-19.4971399090774,0.497808435788191
3167,-2.65587641668433,-19.5240783873931,-19.5526287586402,0.837188919591725
3200,-2.65207804739365,-19.5449695950497,-19.5897637180605,1.11739045186554
3233,-2.67770352723119,-19.6310059750134,-19.6494018460646,1.24466399134048
3267,-2.72077487154322,-19.8215062337624,-19.7539900309205,1.21449984839435
3300,-2.74633017808561,-20.0665493792102,-19.8956512290965,1.09993681160793
3333,-2.7021753142816,-20.2257370782525,-20.0582871265475,0.983809290286176
3367,-2.53389988559274,-20.2873847617673,-20.2667811204065,0.870399098603186
3400,-2.22238543093642,-20.4483546496408,-20.5866259687704,0.682075682924088
3433,-1.82982565083331,-20.8927757106675,-21.0476056186365,0.373816646760666
3467,-1.48037725007914,-21.6131544696185,-21.5824260638981,0.0302197094538398
3500,-1.25908670889971,-22.3872814281916,-22.0514712558729,-0.18234980055353
3533,-1.15149717776585,-22.8454580925124,-22.3265159115758,-0.160757368442148
3567,-1.09890762714935,-22.7539813220686,-22.3774231159623,0.0357514863791102
3600,-1.07631564571416,-22.3320830617403,-22.3038953323786,0.217601392123202
3633,-1.09340412641217,-22.1015373284165,-22.2684428463802,0.207977115755388
3667,-1.14585803989471,-22.3483971387843,-22.3794529239881,-0.0259893736571815
3700,-1.20047742416196,-22.8924684918197,-22.6411138837942,-0.38708898419979
3733,-1.22608079040014,-23.4021530409098,-23.0018002998782,-0.770639553210497
3767,-1.21869987166841,-23.7551377531155,-23.4194918757495,-1.14510862396314
3800,-1.19952225797724,-24.0629497579736,-23.8828379425234,-1.54026492141387
3833,-1.19860028262407,-24.4915691547791,-24.3975389061326,-1.99520828354315
3867,-1.23327757015221,-25.136732605931,-24.960496995557,-2.51974455271292
3900,-1.29294590507653,-25.9619403670561,-25.5354818675673,-3.0747271090024
3933,-1.3489631322804,-26.7395714620406,-26.0530676073108,-3.57139664848047
3967,-1.38457321779384,-27.2014450925178,-26.4530915006825,-3.9339806801849
4000,-1.40896810686343,-27.3571807849749,-26.7345711237563,-4.18489023177885
4033,-1.43857638990616,-27.4680542151624,-26.9470498276451,-4.42419938002242
4067,-1.47327985597678,-27.6778355281347,-27.1315751617585,-4.71153520272868
4100,-1.50299944650513,-27.8867023372548,-27.2910742665671,-5.01039722401679
4133,-1.53972666784212,-27.9782048804371,-27.4226607165063,-5.26501695941588
4167,-1.63553417774824,-27.9962847370607,-27.5563175124591,-5.48696203103875
4200,-1.84698750658707,-28.0852317437289,-27.739080205107,-5.74282309427182
4233,-2.1542580613555,-28.3356943303541,-27.9848696928596,-6.07651035890616
4267,-2.4437676196151,-28.6991202025943,-28.2515900789213,-6.43880108979089
4300,-2.61163972810209,-29.0123438404782,-28.4610155948029,-6.69557804599328
4333,-2.65141360372215,-29.1187056871466,-28.5453406866866,-6.739583341904
4367,-2.62419987228991,-29.0099722356656,-28.4968594022621,-6.5883502440079
4400,-2.58808695986384,-28.8303202629662,-28.3768171352414,-6.36031190763704
4433,-2.56771544859127,-28.7319086116631,-28.2670783281668,-6.18552018206988
4467,-2.5624536575325,-28.7532536899856,-28.2109172411997,-6.12954429484752
4500,-2.56430575343256,-28.8184976393355,-28.1956311768886,-6.16666160155084
4533,-2.56748845537158,-28.8283101674077,-28.1792433254462,-6.22163258305973
4567,-2.5695544425353,-28.7404551064994,-28.1268603288771,-6.23885242295654
4600,-2.57005225947976,-28.579709541345,-28.0336021977782,-6.21934052043165
4633,-2.56979108082478,-28.4088796516781,-27.9292606418237,-6.20207924851813
4667,-2.57119291055139,-28.277959426107,-27.8619317764691,-6.22413369083718
4700,-2.57836997777113,-28.2017511954035,-27.8700983227824,-6.30757707206185
4733,-2.59408554422681,-28.2057528471123,-27.96501612798,-6.46329217726467
4767,-2.6151584448921,-28.3404382027295,-28.1289386663994,-6.68450830279462
4800,-2.63457163698893,-28.5961105914434,-28.3107103264081,-6.92509908306633
4833,-2.64790785946377,-28.837820026331,-28.4227893625548,-7.09888583784906
4867,-2.6506430489072,-28.8790810754836,-28.369551888966,-7.12218435546079
4900,-2.62901584276141,-28.6065895508505,-28.0979455336822,-6.93900015133013
4933,-2.56422548654556,-28.0485189688675,-27.6333917942745,-6.52985961973741
4967,-2.45594635825218,-27.373996166735,-27.0799034904239,-5.96742113572774
5000,-2.33634431952248,-26.7947068506792,-26.5774286880717,-5.43759826592733
5033,-2.24664940404412,-26.446533184922,-26.235686736469,-5.1210482313344
5067,-2.20159255616494,-26.3603271021186,-26.0862549560214,-5.04870136241412
5100,-2.18492849179719,-26.4584556460979,-26.0793397238995,-5.10426432914192
5133,-2.17438545109473,-26.5690641975887,-26.1221024639089,-5.14920679247921
5167,-2.16332971055514,-26.5524697458516,-26.1318175459671,-5.1231188093293
5200,-2.15836585922189,-26.4239136068851,-26.0639927101037,-5.04535898449814
5233,-2.16087203485307,-26.2757756620709,-25.8958015714915,-4.95113728574982
5267,-2.15368852178021,-26.0896262885771,-25.5951685830076,-4.81608655096265
5300,-2.10336346593197,-25.7060752096592,-25.1269957861452,-4.54512575015282
5333,-1.98736310314483,-25.0254756036589,-24.5040381267811,-4.0825132145686
5367,-1.83309272851807,-24.1959022725144,-23.8227089016782,-3.52805071870145
5400,-1.70466097545516,-23.5262512481387,-23.2245095663045,-3.08435166797155
5433,-1.63595273439426,-23.2006371114169,-22.8106525689499,-2.86400528826898
5467,-1.60526360691728,-23.1422398859811,-22.5948280797688,-2.79068046219854
5500,-1.57665727333899,-23.1769594117552,-22.5271458117251,-2.71724845962966
5533,-1.54036178318484,-23.2216967661496,-22.54467870784,-2.57800196585134
5567,-1.50960859533116,-23.2766074521881,-22.5983304126327,-2.39411997770634
5600,-1.49364507760579,-23.3432657637985,-22.6504439355299,-2.20016797216098
5633,-1.48813839068099,-23.3941931264829,-22.6677233260352,-2.0083258206266
5667,-1.48675045164154,-23.3817923736195,-22.6259163175958,-1.81773689452946
5700,-1.48643828531101,-23.2648230668425,-22.5225430750905,-1.63525883280009
5733,-1.47220025283801,-23.0667235210414,-22.3896108752964,-1.49617289899471
5767,-1.39940877266459,-22.9040345705343,-22.2907206875889,-1.4752758388856
5800,-1.21978122583123,-22.8755304079254,-22.2890562905368,-1.65064080114039
5833,-0.953356787045634,-22.952138716398,-22.4177872459317,-2.02779551812425
5867,-0.706561825731998,-23.0842436873013,-22.6922141044782,-2.52741333765026
5900,-0.580024203166463,-23.3685436599342,-23.1294498141536,-3.06348040133282
5933,-0.581618959619764,-23.946525416503,-23.7217185917245,-3.58232390498201
5967,-0.648207036514334,-24.7386707695353,-24.3952260817861,-4.02863027488316
6000,-0.721959935867627,-25.4723898885009,-25.0264592448312,-4.36742474682029
6033,-0.787200960036827,-25.9724326552061,-25.5108493661731,-4.63703966809871
6067,-0.843960407353576,-26.2408379184292,-25.810355500177,-4.88800108842548
6100,-0.859990785528352,-26.3215146157708,-25.9474874292917,-5.08888920963481
6133,-0.750115514734654,-26.2733341691973,-25.9827158694292,-5.14469820431669
6167,-0.412880031202651,-26.2353038986566,-25.9945431280643,-4.98007941902032
6200,0.175130151695469,-26.3635979680551,-26.0440978275921,-4.60826121210439
6233,0.887871783022269,-26.6593784536163,-26.1400876305927,-4.14362435153229
6267,1.50753622369777,-26.9324201483796,-26.2456307476874,-3.73632777442788
6300,1.88344013144445,-26.985766331331,-26.3269024228096,-3.48206202500778
6333,2.02619906423382,-26.839066045484,-26.4003893090161,-3.38498294006604
6367,2.04579379571666,-26.7561399272915,-26.5309812816412,-3.41340209986304
6400,2.03585718341059,-26.977771677161,-26.7676104543921,-3.56538475041917
6433,2.03180576189962,-27.4399497459245,-27.0795588808051,-3.83830019005563
6467,2.03706530584143,-27.8620265330508,-27.371474792763,-4.16746789836485
6500,2.04918423925105,-28.0476724620442,-27.5549361527506,-4.42297245461628
6533,2.06081484486874,-27.9981059104742,-27.6010019263311,-4.46896388527751
6567,2.04488563674077,-27.8290764471003,-27.5519343270315,-4.27976576028243
6600,1.94998201619263,-27.6991630773817,-27.5037711704,-4.02682574940174
6633,1.74153046116379,-27.7617057450604,-27.559243246056,-3.97881322398395
6667,1.45772234758641,-28.0734992820063,-27.7662569490475,-4.24096647909529
6700,1.19963480216912,-28.5408001542112,-28.0843071584127,-4.62955809163291
6733,1.05165239564364,-28.9713442969852,-28.409407537571,-4.86518920483635
6767,1.0204433840313,-29.2011225828567,-28.6438264683101,-4.84308917636903
6800,1.05853040419617,-29.2176863328435,-28.7490221153816,-4.66059663444193
6833,1.11937875606944,-29.1580282461104,-28.7350725359003,-4.45600492714077
6867,1.15896813641494,-29.1366924901611,-28.6140880124093,-4.29164210069267
6900,1.0964181189682,-29.0769204690419,-28.3779083397103,-4.15006866634889
6933,0.816364907067292,-28.7949029441386,-28.0286656068151,-4.0061405241063
6967,0.273331676810242,-28.2677829637485,-27.6319982431384,-3.90733165363924
7000,-0.410229786576483,-27.7415257638887,-27.324235413415,-3.9626228378976
7033,-1.03738018816144,-27.5441924040914,-27.2414184208056,-4.24163557356597
7067,-1.49838169077779,-27.8026682094689,-27.4272135882786,-4.69463205895905
7100,-1.77672092981702,-28.3478965086466,-27.8080349522554,-5.1669500585135
7133,-1.89569359931615,-28.8917918650242,-28.2514361103217,-5.50945940111865
7167,-1.90973530633869,-29.2792275330608,-28.646717093721,-5.67920225055301
7200,-1.88059078083899,-29.5464746783754,-28.9381027123281,-5.71173551228671
7233,-1.85043547260198,-29.7552625639604,-29.0995609945886,-5.63442682497688
7267,-1.85093192987575,-29.860148213155,-29.1104208117847,-5.45294876114625
7300,-1.91958203862439,-29.7533027193542,-28.9687721616194,-5.21302071622111
7333,-2.07683276188589,-29.3834809115147,-28.7147713121319,-5.02768459835114
7367,-2.26303572725179,-28.8514935129781,-28.4333097046637,-4.98015917130782
7400,-2.33843455197952,-28.3994293608296,-28.2254137554353,-5.01620129706556
7433,-2.21910300502637,-28.2479573433011,-28.1582720051622,-5.02395241477176
7467,-1.98285693904012,-28.4191752827274,-28.2285457595099,-4.99260737198762
7500,-1.77251578487823,-28.7241437098688,-28.3656554843308,-4.98125077387356
7533,-1.64884042844516,-28.9211755734092,-28.4765920199304,-4.98243384645432
7567,-1.5913808858611,-28.9060109852305,-28.5045727652501,-4.93523820634396
7600,-1.5704556841157,-28.7644530448287,-28.4470346603818,-4.83246751149954
7633,-1.56942962734246,-28.637939860501,-28.3183030712941,-4.71915444903843
7667,-1.57829823131193,-28.5356091927732,-28.1149419290808,-4.60006850041192
7700,-1.59185915839018,-28.3188792837207,-27.8345123417965,-4.42582196972477
7733,-1.60423399869344,-27.935182385397,-27.5236442167541,-4.18909168468925
7767,-1.59835465688613,-27.568168091658,-27.2827869864746,-3.97853802826968
7800,-1.5429696323244,-27.4425014655114,-27.1988050230854,-3.89580287808082
7833,-1.41856935536287,-27.5894066342893,-27.2701510058917,-3.9449091341285
7867,-1.25737965864142,-27.8539172400746,-27.3994403421553,-4.02615689436527
7900,-1.12473919551618,-28.0099496607323,-27.4510343790474,-4.00856935592834
7933,-1.05184703011585,-27.8742124146892,-27.3313585107093,-3.81538708732926
7967,-1.02313991970633,-27.4531358226493,-27.0483982808229,-3.49072356676289
8000,-1.01581020040378,-26.9800989420075,-26.6962074418256,-3.164524526503
8033,-1.01859560113252,-26.6771623556989,-26.364332510336,-2.92355863578198
8067,-1.02760958869993,-26.4992477675922,-26.0685369498381,-2.74926951838742
8100,-1.0394297793665,-26.2334527821748,-25.7822739586641,-2.5817950020607
8133,-1.04144218191306,-25.8171528714212,-25.5185351421504,-2.41555016099886
8167,-1.00453718962258,-25.4507020598895,-25.3497506651792,-2.32162500786421
8200,-0.896161946531712,-25.3867339637495,-25.3452839913656,-2.3731266254812
8233,-0.720076308951848,-25.6588577513457,-25.5037754241703,-2.56404008681759
8267,-0.533231108474861,-26.0584933069159,-25.7437676334885,-2.80842882863853
8300,-0.39422493009321,-26.3436066575918,-25.9541554970607,-2.99715826121646
8333,-0.311444612650456,-26.4062652134862,-26.0613079474478,-3.0657035988413
8367,-0.265065499191423,-26.2975449657715,-26.0614242077813,-3.041232276594
8400,-0.246226647787071,-26.1633537289944,-25.9968975821363,-3.00889052547893
8433,-0.253489608632481,-26.1053919466017,-25.9018968965497,-3.01630230648401
8467,-0.274963521076694,-26.0704248001703,-25.7678739135692,-3.02654796373032
8500,-0.288301885182073,-25.8999690759489,-25.560472723557,-2.96469435122859
8533,-0.281028586813895,-25.5164116886096,-25.2729606967176,-2.8109161370352
8567,-0.263565130779832,-25.0616852904866,-24.959996679114,-2.64083306285109
8600,-0.251461401658232,-24.7759809987589,-24.7069867280055,-2.54709346020302
8633,-0.246531151051948,-24.7385490271047,-24.5636391397549,-2.53607754723568
8667,-0.240571494575438,-24.8294080288172,-24.5122668969098,-2.53513715411122
8700,-0.226814053251326,-24.8996547419418,-24.494679138495,-2.47364716554634
8733,-0.207055065979683,-24.8828132552506,-24.4606862485102,-2.33127139581123
8767,-0.189167552430163,-24.7919825834558,-24.3958703022883,-2.13727790193485
8800,-0.178774710219771,-24.6873278561369,-24.3161807703319,-1.94356936919048
8833,-0.178338468344294,-24.63884824837,-24.2454597633812,-1.79235335331015
8867,-0.18740104683723,-24.6625768391827,-24.196609931227,-1.70083964719468
8900,-0.188215749840517,-24.6873820910604,-24.1664352317602,-1.66529418747912
8933,-0.135623464332422,-24.6372569335748,-24.1513305530467,-1.66670771090296
8967,0.021687372802336,-24.5473233870233,-24.1713868455553,-1.67388575747691
9000,0.301959861463499,-24.5590160042579,-24.2695512471659,-1.67064345943578
9033,0.656785407480637,-24.8000155765892,-24.4774002746376,-1.69012716879425
9067,0.977573130450992,-25.2560873608779,-24.7745724009595,-1.77363566197304
9100,1.17387128933893,-25.7207842090353,-25.0800762004483,-1.87576208795103
9133,1.24589940130708,-25.9293004214218,-25.2959155524949,-1.88278307461966
9167,1.25451244320594,-25.8247986550865,-25.3736614730136,-1.76394545644492
9200,1.24723995262027,-25.6255997218365,-25.3401685007071,-1.62762052207464
9233,1.23888949723482,-25.5566374591089,-25.2531921649987,-1.58499672047303
9267,1.23479447521401,-25.5867524224128,-25.1381956815941,-1.61936053539375
9300,1.2375928653795,-25.5063187135886,-24.9825082463882,-1.6252839925608
9333,1.2272665591874,-25.2083773777986,-24.7882600595678,-1.55913523602708
9367,1.15022985582867,-24.8158748906513,-24.6132658717475,-1.53847794187428
9400,0.950901502114954,-24.5740270247381,-24.546963920566,-1.76884249822048
9433,0.640587550741788,-24.6517041725874,-24.6402069159535,-2.32487964152119
9467,0.324422098445313,-24.9979903010899,-24.8597508190914,-3.00708027329557
9500,0.116926946167024,-25.3820476736614,-25.115742448963,-3.49259471692762
9533,0.0421616729517282,-25.5992319415829,-25.3321949476029,-3.63733821500844
9567,0.0459062297165174,-25.6488513557293,-25.493338189631,-3.5592858238087
9600,0.0668726737974244,-25.6917465432081,-25.6313151944118,-3.45935447180421
9633,0.0672818331984431,-25.8433134247407,-25.7775868302078,-3.45603736575873
9667,0.0299201311367111,-26.0772109816554,-25.9341473998233,-3.56431989654122
9700,-0.0434015545226246,-26.3111367498473,-26.0868514906881,-3.73926601663775
9733,-0.131571626708168,-26.4908554034542,-26.2268397169316,-3.9166005238682
9767,-0.194194236570251,-26.5998438543298,-26.3556549896776,-4.03598148207375
9800,-0.192994996386202,-26.6723137899783,-26.4813418397073,-4.05442617551691
9833,-0.149999128990666,-26.8052779413008,-26.6030748830074,-3.97494505573181
9867,-0.143142104602397,-27.0658921323349,-26.6867693022199,-3.85639231829925
9900,-0.197161962857381,-27.3495815253359,-26.6621067989642,-3.73411689188536
9933,-0.247166513001364,-27.421134069042,-26.4632034631512,-3.55489138003679
9967,-0.238469227319064,-27.1549979019495,-26.0962374169991,-3.28193470452479
10000,-0.191748017756238,-26.6987301247402,-25.6711878128724,-3.01395131499716
10033,-0.162962745279006,-26.3693928463819,-25.3389150635793,-2.90704464628627
10067,-0.183933183816714,-26.3740202287829,-25.1826738044264,-3.01989337919024
10100,-0.24234453786543,-26.6345527056268,-25.1781952735886,-3.27131696549366
10133,-0.30170995156851,-26.8990751255094,-25.238064470301,-3.51944586588932
10167,-0.336389426064615,-26.9811971729105,-25.2758760610135,-3.68107781004511
10200,-0.346405967982592,-26.8827970140325,-25.2640912576533,-3.78562921903609
10233,-0.344775723026632,-26.7542301522531,-25.2561397176595,-3.9144461153978
10267,-0.341851944817217,-26.7614813048557,-25.3275002945287,-4.1060360942775
10300,-0.340903595597932,-26.9480871199181,-25.4914643135383,-4.32442160334695
10333,-0.340157701927583,-27.1856082042589,-25.6919550363589,-4.50068396090242
10367,-0.33614981938169,-27.3030813731198,-25.8695853297142,-4.60136096564007
10400,-0.328242885524005,-27.2913979304469,-26.0114082095161,-4.650672160606
10433,-0.325409134427737,-27.2787585173367,-26.1264079777089,-4.67831763560883
10467,-0.351942436192099,-27.2965365838797,-26.1879006218267,-4.66239120934132
10500,-0.438432983671407,-27.2130157041782,-26.1205680558735,-4.53823932375849
10533,-0.585421141539267,-26.907593322048,-25.8427966950157,-4.25464109686149
10567,-0.736223487790905,-26.3761634465379,-25.3206553343629,-3.82844887886732
10600,-0.819485774932039,-25.6679871613181,-24.6048736620641,-3.36857493866967
10633,-0.82120218225567,-24.8802244788503,-23.8450119953513,-3.03853390252123
10667,-0.789516785323401,-24.2573295037322,-23.2469933281041,-2.96904504221456
10700,-0.778858475407152,-24.1045429011648,-22.9608162185888,-3.17764038686111
10733,-0.806061534991988,-24.4653655718344,-22.9856324177247,-3.53733176283561
10767,-0.849581449028063,-25.0061964449276,-23.1638225138254,-3.83416124231139
10800,-0.880516080742375,-25.3196405333608,-23.2640548477753,-3.91600062575542
10833,-0.885455763441866,-25.2525164078255,-23.1294905151225,-3.78473788477777
10867,-0.837601242276315,-24.8988773770594,-22.7784986509152,-3.50003524460031
10900,-0.654033456415118,-24.410197498781,-22.3622446999307,-3.05595657738399
10933,-0.235625246362952,-23.9430166513861,-22.0614132707681,-2.43810444996309
10967,0.442181794801918,-23.7077315256689,-22.031587998869,-1.74433282501795
11000,1.31699355623637,-23.8956836300441,-22.3849736728422,-1.12732587175008
11033,2.26688089227049,-24.5014517286403,-23.1456659584216,-0.650825362520397
11067,3.10630960105903,-25.234667092114,-24.1749786049097,-0.314760048955565
11100,3.66454345168908,-25.7099139687071,-25.173883202494,-0.121024826141223
11133,3.91758387908651,-25.7884691404256,-25.8538984498183,-0.0250321217606477
11167,3.97021749101995,-25.6448701463818,-26.139291980168,0.0276572999666536
11200,3.92971032337376,-25.5444678229822,-26.1781491836805,-0.00976296536654164
11233,3.85784601742896,-25.662968702048,-26.1702371514557,-0.225567134951591
11267,3.80369320363919,-25.9859570385045,-26.2049392157645,-0.583035666130271
11300,3.81320146560864,-26.2846206018234,-26.2479353316417,-0.901508366932466
11333,3.88475004781571,-26.3220245940367,-26.2359748726631,-1.0284689962725
11367,3.91162516257822,-26.1381779482644,-26.1510049557944,-1.01543214710576
11400,3.69581114106421,-26.0389571725706,-26.0306141359085,-1.1026128591456
11433,3.11115161658708,-26.2753015416996,-25.9461647171328,-1.49125782270103
11467,2.29766615234336,-26.7917093366446,-25.968877972885,-2.1171689143649
11500,1.59353317698464,-27.3396040243026,-26.1295715015673,-2.69892364728611
11533,1.22413343327899,-27.7691696701798,-26.4020686469286,-3.02361704114626
11567,1.15109749194039,-28.1060537966113,-26.740096527504,-3.11652124177716
11600,1.20465338163143,-28.4248387888709,-27.1153883579871,-3.13024063115259
11633,1.23053187606403,-28.7623356659675,-27.5016999464074,-3.17850194644494
11667,1.11211940708898,-29.0958565663256,-27.8600806956569,-3.32308765854918
11700,0.766776650524656,-29.3365280835378,-28.169341673562,-3.63926327092237
11733,0.214226690574998,-29.3984654279909,-28.4408931881904,-4.17276876957113
11767,-0.377235443650738,-29.3453855291113,-28.6871409489089,-4.81046582019186
11800,-0.822830684162654,-29.4107237712816,-28.9050532376781,-5.33470888548421
11833,-1.08857982450911,-29.7841528299639,-29.1026073936342,-5.6638515735747
11867,-1.25518600716558,-30.4191069268568,-29.307350699465,-5.89974427190878
11900,-1.3797398756441,-31.0963240998216,-29.5306116834352,-6.12532266829874
11933,-1.46010787414891,-31.6259838304151,-29.755732156737,-6.32187315348341
11967,-1.48444073791131,-31.9508286476543,-29.9782646542037,-6.49394965499299
12000,-1.4658782428127,-32.1184402895663,-30.2228775991854,-6.71108486848794
12033,-1.45203256808962,-32.2381510351478,-30.5039213742588,-7.00122920153082
12067,-1.53757102230523,-32.4306674693741,-30.805874435892,-7.32599444668141
12100,-1.84332191403629,-32.7316622199756,-31.1158203577915,-7.67515923251035
12133,-2.41185882307455,-33.03559707422,-31.4428539614953,-8.09651803459934
12167,-3.11861894135177,-33.2649460707573,-31.8174539544358,-8.61529590065287
12200,-3.75676805893703,-33.6065505242736,-32.2952852066552,-9.17774432962034
12233,-4.20149564446348,-34.3225831770764,-32.9057818487032,-9.68698008571325
12267,-4.44726152999709,-35.326514454009,-33.5652412423549,-10.05999590773
12300,-4.54874793861,-36.1907463989078,-34.1037539952128,-10.2538274847934
12333,-4.57560052919222,-36.5792164285235,-34.4063087973998,-10.2898116895024
12367,-4.58565647997529,-36.5810871847367,-34.4997086482283,-10.2661734451694
12400,-4.60625735998631,-36.5776780119088,-34.5067917275566,-10.2939632376085
12433,-4.63067569155253,-36.7848098357071,-34.5187533594279,-10.3984956505661
12467,-4.64268383559813,-37.0324790869324,-34.5049600600137,-10.5156106575318
12500,-4.66037215797096,-37.026841929084,-34.3616983564581,-10.5907598695035
12533,-4.75435152911369,-36.6762098210738,-34.0269516087982,-10.6397163802153
12567,-5.01358892745529,-36.1172406828516,-33.5457193822039,-10.6885536169825
12600,-5.46569033058537,-35.5970847982933,-33.0827954096828,-10.7142256898154
12633,-6.01195546994309,-35.339110437898,-32.8429511673815,-10.6950652240327
12667,-6.48075250741732,-35.3782900918957,-32.9078705733858,-10.6587236519517
12700,-6.76425610710608,-35.5544098482732,-33.1776077981361,-10.6366747036152
12733,-6.87427578363238,-35.7115613094273,-33.4813819799126,-10.6226215595124
12767,-6.88578558920821,-35.8331963682602,-33.698142613729,-10.592331213983
12800,-6.86389214596706,-35.9592770792167,-33.7748458522197,-10.5179592437438
12833,-6.8316536161667,-36.0298243445206,-33.6766025674129,-10.350272456999
12867,-6.78178668514332,-35.8647510356407,-33.3560625638633,-10.0274840143635
12900,-6.70696980532253,-35.3247401225261,-32.8012263880506,-9.5346171725861
12933,-6.61505099608431,-34.4861563525157,-32.10982590618,-8.94668486083125
12967,-6.52414672843711,-33.6234443963287,-31.4630701999413,-8.39106706369029
13000,-6.45463116763264,-33.0083869935272,-31.0216549877359,-7.97049195232894
13033,-6.41803987942047,-32.7463195147026,-30.860480296045,-7.73179302503954
13067,-6.40530031031002,-32.7796626518999,-30.9327199644036,-7.66207886069512
13100,-6.39129897991147,-32.9509190005002,-31.0805369915323,-7.66704468284957
13133,-6.35442300575105,-33.0552588218636,-31.1452839981852,-7.59963547553256
13167,-6.29334132315518,-32.9425449788598,-31.0711503553692,-7.36494909084261
13200,-6.22224723415169,-32.6010193982241,-30.8861521877966,-6.96783775807825
13233,-6.15088110475726,-32.090424423482,-30.5982854502114,-6.44561062242903
13267,-6.08047137374989,-31.3979115867758,-30.1365963866668,-5.80424257438605
13300,-6.01435684614958,-30.4571061244524,-29.4169280158581,-5.04480277950389
13333,-5.96524926606278,-29.3410915520729,-28.4532029223126,-4.23483232282351
13367,-5.9532730840009,-28.3160740956651,-27.3880680052121,-3.51763190045923
13400,-5.97063937385302,-27.6359883524494,-26.4192019496998,-3.02300303810564
13433,-5.95602510667305,-27.351635282846,-25.6822330606915,-2.77051847261447
13467,-5.86688706703547,-27.3379498949856,-25.1932357393929,-2.66207227130892
13500,-5.74868053360997,-27.4049872746474,-24.8906307532679,-2.55301908645141
13533,-5.680906784329,-27.3344377610592,-24.6831569330472,-2.32970807123855
13567,-5.70681150585414,-26.9186086007952,-24.4535166415703,-1.95693088012668
13600,-5.79623092969177,-26.1377520112924,-24.0837459705131,-1.48639753219111
13633,-5.83743408773097,-25.2752607211783,-23.5153542633824,-1.01117596740542
13667,-5.75237191024137,-24.6282024405501,-22.7761018982766,-0.602177080289869
13700,-5.57966828007855,-24.1735014966852,-21.9406634765454,-0.28823023978032
13733,-5.34859603772467,-23.7337067165466,-21.0817714883987,-0.0664169736561531
13767,-4.99656355312936,-23.2808417307561,-20.2707786586506,0.0941561325916083
13800,-4.49510965982068,-22.8901157620012,-19.5636348336496,0.2547094880706
13833,-3.95480865245111,-22.5421910915444,-18.9499209532239,0.499243407664745
13867,-3.53408966602098,-22.1067768449436,-18.371053005781,0.898649821953449
13900,-3.29277211464194,-21.519108987233,-17.7820500316854,1.44994563269845
13933,-3.18911207207677,-20.9000476014544,-17.1661548995848,2.04999820109984
13967,-3.16586714497402,-20.3977568315306,-16.5372375422551,2.56554371178082
14000,-3.19120959472579,-19.9846751158697,-15.9688336545859,2.91316021238905
14033,-3.24658861408162,-19.5969997561218,-15.617547204036,3.03596267786288
14067,-3.27391661374799,-19.3633339226669,-15.6621406142965,2.87705270229571
14100,-3.10952393242325,-19.4907668906698,-16.1601283194261,2.47749263167056
14133,-2.51536999336878,-20.0241137977062,-16.9964977549031,2.07409159558758
14167,-1.37353657088817,-20.8186130714029,-17.9869048945952,1.97433037359423
14200,0.115657068006767,-21.6515410920318,-18.9471676303117,2.27806772061314
14233,1.49766868722906,-22.3304479319355,-19.6976512842902,2.78485087701145
14267,2.39587868466739,-22.7658278732942,-20.1352414558219,3.21718809658624
14300,2.76626828038853,-22.9620678386065,-20.2875961072126,3.46281607443856
14333,2.81488618944584,-22.9734500851929,-20.2610507470853,3.55527867220055
14367,2.75647722200548,-22.9207581495154,-20.1852517225792,3.53969288862576
14400,2.69781881829025,-22.9661746064085,-20.1823508248442,3.42537819606962
14433,2.66283245094891,-23.1675769974356,-20.303777496856,3.20559256946822
14467,2.64737190452993,-23.4068213077364,-20.4897627915734,2.91586918466911
14500,2.64391784693636,-23.5270586140904,-20.6352304287241,2.64582655338811
14533,2.63597044061309,-23.5234205899815,-20.7041105048647,2.43289857024643
14567,2.59264432850941,-23.5820689741373,-20.7773533734017,2.18791671517692
14600,2.49054512779621,-23.9196749016395,-20.994898695845,1.78079670196979
14633,2.35021958284407,-24.5842826434256,-21.4429198427963,1.19212047754002
14667,2.22895014638729,-25.434864566895,-22.0735564487214,0.569407609600337
14700,2.16512961499941,-26.2362898974519,-22.7074415649838,0.117632962405032
14733,2.15292941388519,-26.7513526768324,-23.1371913437499,-0.0847959018946507
14767,2.16765977308266,-26.9184886273034,-23.2748301838178,-0.149792844332675
14800,2.18680697774262,-26.9358333390837,-23.2140976825275,-0.255260347214626
14833,2.18506860041546,-27.0159040623549,-23.1887198763682,-0.489217676686203
14867,2.11547642489741,-27.1637124429826,-23.5340335295181,-0.809345135604051
14900,1.89139357080739,-27.3098348614649,-24.688315560939,-1.06675914499547
14933,1.42618974175416,-27.4889317015436,-27.108449483407,-1.03979799602963
14967,0.756891839570403,-27.7440811144482,-30.885122496169,-0.620118306312574
15000,,,-35.2944943571783,-0.0716096584271299
15033,,,-39.1219397883764,0.134416367890742
15067,,,-41.6257388434342,-0.177749005557307
15100,,,-42.8890702622973,-0.774360680481806
15133,,,-43.3853498237631,-1.34440711706959
15167,,,-43.5621886282738,-1.76541351564385
15200,,,-43.698235853722,-2.09852412361677
15233,,,-43.8852368712459,-2.42933371804118
15267,,,-44.0719536798518,-2.75287494092049
15300,,,-44.1761085520339,-3.00103989733717
15333,,,-44.2064100946235,-3.14737295722228
15367,,,-44.2503538710768,-3.2603511419728
15400,,,-44.3476065237516,-3.42953296502223
15433,,,-44.4427997736344,-3.64880330859344
15467,,,-44.4585381814632,-3.82816221315713
15500,,,-44.3652292894397,-3.91566194633928
15533,,,-44.1954727206718,-3.93198013669134
15567,,,-44.0197798810397,-3.89571141304237
15600,,,-43.8928379446218,-3.78909903872391
15633,,,-43.8099479469487,-3.59375050811016
15667,,,-43.7175533006405,-3.31689851738798
15700,,,-43.5554739965566,-2.97596113189708
15733,,,-43.2938324233455,-2.58197248363463
15767,,,-42.9614802527581,-2.15725512082825
15800,,,-42.6475572634492,-1.75196809311435
15833,,,-42.4546471484447,-1.42584464830097
15867,,,-42.4363755490373,-1.21277140704899
15900,,,-42.5710351102708,-1.09044319718931
15933,,,-42.7817428960265,-0.995700848046269
15967,,,-42.9780897358998,-0.883765855166718
16000,,,-43.0862009002814,-0.73753328342756
16033,,,-43.0579148901426,-0.526749862384107
16067,,,-42.8835587534826,-0.222695587346572
16100,,,-42.6141373750913,0.139907787949971
16133,,,-42.3557284775963,0.450859165402113
16167,,,-42.2132174653324,0.594491956495213
16200,,,-42.2214764284649,0.54131899352194
16233,,,-42.3263606852111,0.368993812843876
16267,,,-42.4287084558751,0.197524242911652
16300,,,-42.4518996139327,0.105833270039692
16333,,,-42.3866689816658,0.0903357176149645
16367,,,-42.2836967301956,0.0849931285517414
16400,,,-42.2043668041335,0.0188172393188895
16433,,,-42.1772162091991,-0.13705603685447
16467,,,-42.1913270691162,-0.365313582277182
16500,,,-42.2202074873291,-0.624200933105353
16533,,,-42.2540302628705,-0.861441675220036
16567,,,-42.3097584072793,-1.0306487193143
16600,,,-42.4077338806446,-1.12623398329274
16633,,,-42.5447785789985,-1.20763662460768
16667,,,-42.6900196954051,-1.34391971814786
16700,,,-42.8030770468965,-1.5080380875684
16733,,,-42.8575279273912,-1.5844607344611
16767,,,-42.8373583875363,-1.46457811002453
16800,,,-42.7141911850725,-1.0491591905248
16833,,,-42.453306593474,-0.236694639419091
16867,,,-42.0372971820973,0.939524747521588
16900,,,-41.466966152121,2.22168968572834
16933,,,-40.7641896462281,3.31979915712058
16967,,,-39.9883046345698,4.1203943200229
17000,,,-39.2236138902653,4.62744916648748
17033,,,-38.5522962964132,4.83556297740849
17067,,,-38.0523874745293,4.73085116617275
17100,,,-37.7943557611199,4.34244372125371
17133,,,-37.8157899821863,3.74769473943447
17167,,,-38.1022390780203,3.0353330558981
17200,,,-38.5892362597837,2.28398540728093
17233,,,-39.1800121222691,1.56395563385167
17267,,,-39.7737281186372,0.945892077051542
17300,,,-40.2933491014419,0.505117682420819
17333,,,-40.7035339613439,0.295144289552412
17367,,,-41.0074965830695,0.314445210761257
17400,,,-41.2214997409856,0.507028124545387
17433,,,-41.3613464162266,0.783211969528296
17467,,,-41.4515546117502,1.03582022302092
17500,,,-41.5221396092101,1.15961834434193
17533,,,-41.5942815085681,1.08713342856569
17567,,,-41.6779029500667,0.81708781145688
17600,,,-41.7700005950549,0.420085217988649
17633,,,-41.848509830984,0.0179404368026416
17667,,,-41.8797639694946,-0.272272457457325
17700,,,-41.836006746111,-0.381003482026417
17733,,,-41.702784354489,-0.2758281071119
17767,,,-41.4785826710795,0.0538133251729587
17800,,,-41.1761732918015,0.58697216353404
17833,,,-40.8207914128611,1.27417650002
17867,,,-40.444030626749,2.04793929048483
17900,,,-40.0779235519072,2.82005314429652
17933,,,-39.7474810476358,3.51531401728823
17967,,,-39.4624077319913,4.11490127477416
18000,,,-39.2137077288566,4.63134911125585
18033,,,-38.9780685259129,5.08822346574717
18067,,,-38.7295551640085,5.54364026919731
18100,,,-38.4495137831375,6.06136224422851
18133,,,-38.1249595422048,6.65541224473354
18167,,,-37.7423462444932,7.29519551262126
18200,,,-37.2895150234828,7.93332915197204
18233,,,-36.7760542466991,8.52119096758203
18267,,,-36.2608432084213,9.02658400197088
18300,,,-35.8461773738013,9.43908143551085
18333,,,-35.6342417604779,9.75633837033831
18367,,,-35.6740181723514,9.96940927057482
18400,,,-35.9186774980527,10.0671233671706
18433,,,-36.2443899178644,10.0657283391136
18467,,,-36.5294206095727,10.0243507319264
18500,,,-36.6984182754437,10.0068127197046
18533,,,-36.7132959370086,10.0285359190317
18567,,,-36.5772205863607,10.0571237828725
18600,,,-36.3525119984042,10.0566333125614
18633,,,-36.1353351304893,10.0032709289269
18667,,,-35.9958839625631,9.86927300240578
18700,,,-35.9497059881399,9.63054195802847
18733,,,-35.9720424736881,9.2881979832307
18767,,,-36.0259841981638,8.87829536799722
