NaiveD/Slimdog/Experiment/Scaffold/12-23/Min-support/Kinovea/Min_P1_R1_RB_EE_J123o_H_Vel.csv
Time (ms),RB_End_Effector,RB_Joint2 - o,RB_Joint1 - o,RB_Joint3 - o
33,0.005409407,0.089574195,0.038262889,-0.058431812
67,0.012822603,0.086197473,0.061252493,-0.024234865
100,0.013488006,0.088358976,0.083643004,-0.006682491
133,0.002709746,0.076923318,0.084893703,-0.007660674
167,-0.014042687,0.043051671,0.05742459,-0.015052413
200,-0.016679548,0.02132206,0.028268479,-0.009079742
233,0.024132226,0.05494079,0.040852547,0.042306233
267,0.10634286,0.131812036,0.105308808,0.142104432
300,0.168706641,0.188828796,0.173097044,0.224413469
333,0.152139962,0.183604568,0.181931019,0.214480281
367,0.077484652,0.131134123,0.128955737,0.124115169
400,0.013409184,0.07156162,0.066036128,0.0316987
433,-0.008485651,0.036693905,0.034685608,-0.011678981
467,-0.005740499,0.042818498,0.040872287,-0.011731051
500,-0.002673984,0.080390312,0.06765575,0.001370716
533,-0.00646398,0.113020986,0.088102624,0.006223297
567,-0.005138469,0.109626234,0.084590152,0.008113002
600,0.025301097,0.075111859,0.063702099,0.030004689
633,0.091260694,0.042213537,0.04540186,0.079055496
667,0.153908372,0.037097167,0.040785599,0.129433528
700,0.160658345,0.054022547,0.043321323,0.146597669
733,0.105277129,0.063468643,0.036373612,0.119354427
767,0.032561623,0.044486761,0.009524344,0.065140627
800,-0.010345494,0.007330942,-0.024746988,0.015358256
833,-0.014432107,-0.014676761,-0.032969281,-0.007498454
867,-0.003676271,0.003346109,0.007305908,-0.00660839
900,-0.000627029,0.052049726,0.075741,-0.001387596
933,-0.0039294,0.092424192,0.121291056,0.000652313
967,0.019280253,0.089099407,0.110708132,0.020940971
1000,0.108447038,0.045447063,0.058030412,0.08718624
1033,0.227462515,0.00258007,0.005391312,0.174405664
1067,0.253407151,-7.87E-05,-0.012345885,0.195733145
1100,0.13120462,0.038656708,0.012565612,0.104098022
1133,-0.031041535,0.079359621,0.054832645,-0.028028294
1167,-0.100141354,0.079837702,0.077221863,-0.090962507
1200,-0.068942048,0.045074843,0.072258562,-0.065386675
1233,-0.017064856,0.0242403,0.065324016,-0.015708731
1267,0.001390493,0.046977133,0.077256486,0.005242539
1300,-0.009290474,0.087328434,0.103421964,-0.001811027
1333,-0.008088701,0.102239504,0.117649831,-0.001771545
1367,0.056753002,0.079278938,0.090416335,0.046346564
1400,0.188059881,0.035385702,0.017970942,0.143504903
1433,0.289391756,-0.004528427,-0.060988992,0.215695649
1467,0.246455237,-0.014842413,-0.087319568,0.178279489
1500,0.070971265,0.015396308,-0.041110612,0.045902248
1533,-0.103257135,0.059379097,0.028162763,-0.081862167
1567,-0.163819447,0.072330661,0.062378306,-0.132475078
1600,-0.114091918,0.045309164,0.066246413,-0.107064046
1633,-0.036918119,0.014891909,0.074680135,-0.050451845
1667,0.001710284,0.011975955,0.081542298,-0.010423278
1700,8.26E-05,0.026465604,0.060827062,-0.003620624
1733,0.000199123,0.032291505,0.022861861,-0.0034029
1767,0.056241654,0.021453952,-0.003696441,0.038285635
1800,0.183170661,0.002121734,-0.012254905,0.1364436
1833,0.292450726,-0.014509963,-0.013536929,0.223662168
1867,0.251336813,-0.014373778,-0.010669326,0.194686875
1900,0.050588317,0.009417343,0.00327301,0.030743979
1933,-0.173505604,0.030337714,0.014356039,-0.165330797
1967,-0.293152899,-4.86E-05,-0.017916583,-0.274483949
2000,-0.278193593,-0.085746571,-0.096978083,-0.257784158
2033,-0.172421858,-0.155572698,-0.152749717,-0.160331726
2067,-0.059760645,-0.139884278,-0.120129764,-0.062698454
2100,-0.006142938,-0.060761828,-0.020532418,-0.015383147
2133,0.002873933,0.001081181,0.072995849,-0.002992057
2167,0.038715504,0.007174873,0.107955255,0.027803132
2200,0.134912983,-0.015004634,0.076857656,0.103787601
2233,0.224241108,-0.022817517,0.016991613,0.176672742
2267,0.20627138,0.000462627,-0.019091604,0.165430635
2300,0.078298777,0.035813712,-0.016759586,0.06425485
2333,-0.064116023,0.041490842,-0.008267784,-0.049649902
2367,-0.136435077,-0.004275798,-0.023330495,-0.113271326
2400,-0.122601137,-0.061581511,-0.044630241,-0.117771998
2433,-0.064198762,-0.059475228,-0.027032945,-0.080692008
2467,-0.018189806,0.014814662,0.038574886,-0.030975722
2500,-0.009159446,0.091964997,0.105635822,0.001236534
2533,-0.014484972,0.1058155,0.127683148,0.010580922
2567,0.023665691,0.067535587,0.108616725,0.034360599
2600,0.14977856,0.036071774,0.082203768,0.118561357
2633,0.308025926,0.046601769,0.066188045,0.240480691
2667,0.351370662,0.086390875,0.056681152,0.298279941
2700,0.210238233,0.117522232,0.046993729,0.216575697
2733,-0.003143406,0.106060974,0.030708501,0.045227051
2767,-0.121823139,0.048896596,0.003002643,-0.083959863
2800,-0.102693155,-0.011196899,-0.022781182,-0.099490635
2833,-0.030894361,-0.018437861,-0.01659107,-0.043514442
2867,0.009091615,0.033360954,0.03120546,0.008736991
2900,0.00582118,0.090553381,0.086545661,0.019016646
2933,-0.011576377,0.099467747,0.104560077,-0.004467773
2967,-0.005494988,0.061352342,0.080210209,-0.014588641
3000,0.065546319,0.025110625,0.049260803,0.042283058
3033,0.20045346,0.033309173,0.040557288,0.168477923
3067,0.3019436,0.078130238,0.046888441,0.281730622
3100,0.254595995,0.110855475,0.046848387,0.273603618
3133,0.085982464,0.091431707,0.031717014,0.137614906
3167,-0.048491474,0.02762489,-0.002139759,-0.006955146
3200,-0.063142411,-0.030144021,-0.051520437,-0.059681222
3233,-0.016915368,-0.035812851,-0.074520774,-0.039143082
3267,0.007938552,0.007868099,-0.025885675,-0.012080096
3300,-0.000772119,0.056329533,0.056752678,-0.006352043
3333,-0.014204549,0.067876048,0.088764951,-0.014487075
3367,-0.012348603,0.038620088,0.053434178,-0.018699644
3400,0.01680064,0.005316639,0.007675838,0.005493164
3433,0.085039541,0.010548878,0.002203274,0.073055074
3467,0.166205123,0.055752177,0.036734961,0.155445084
3500,0.183629736,0.094453804,0.070469283,0.183840454
3533,0.100429125,0.076253697,0.060358137,0.118544474
3567,-0.010272575,0.000526142,0.001551533,0.009813881
3600,-0.052754756,-0.071682639,-0.060484022,-0.051763624
3633,-0.025650499,-0.073628992,-0.067549892,-0.042108249
3667,0.006741356,-0.007052421,-0.008922672,-0.009510039
3700,0.01009469,0.060373016,0.062274452,0.006053638
3733,-0.003939772,0.074058719,0.082538798,0.003133392
3767,-0.011108279,0.043776512,0.04686727,-0.000973892
3800,0.016423272,0.018699644,0.010698509,0.022142315
3833,0.094208181,0.033004757,0.020296955,0.091035463
3867,0.181084856,0.076643936,0.065570921,0.171269417
3900,0.189761773,0.108589545,0.102132499,0.186048299
3933,0.090843916,0.091641128,0.090059564,0.103792183
3967,-0.029419754,0.024088953,0.023845766,-0.008964157
4000,-0.070908874,-0.04727754,-0.048235413,-0.061042782
4033,-0.03674097,-0.061604399,-0.060162157,-0.041044809
4067,0.005589867,-0.010973168,-0.004114151,-0.006819534
4100,0.020162487,0.04737968,0.055751033,0.000871468
4133,0.011300325,0.05766277,0.05687141,-0.009889412
4167,-0.005109215,0.021335792,0.006366348,-0.013947486
4200,-0.002314711,-0.014096831,-0.034303948,0.007507896
4233,0.04859018,-0.002845573,-0.018912219,0.062551111
4267,0.1307064,0.05397119,0.042466164,0.127591893
4300,0.160823539,0.103330985,0.09654092,0.142867461
4333,0.08264108,0.094319336,0.091904342,0.076126665
4367,-0.034832235,0.033317756,0.031198023,-0.02133522
4400,-0.079433434,-0.024714945,-0.024823664,-0.068962663
4433,-0.044042159,-0.031121919,-0.024315832,-0.050098225
4467,-0.001998424,0.012276934,0.021687984,-0.009748649
4500,0.009023952,0.057492539,0.062803738,0.011457823
4533,0.001713466,0.059255213,0.061398406,0.005249977
4567,-0.006519841,0.020363044,0.020988178,-0.011202049
4600,0.001257706,-0.012225722,-0.018818092,-0.005989265
4633,0.052057311,0.000628853,-0.018399524,0.044815063
4667,0.140127465,0.043678094,0.034797188,0.120664209
4700,0.17645058,0.064498328,0.119564146,0.146109
4733,0.080787994,0.032340143,0.164687917,0.067794792
4767,-0.070258707,-0.037911128,0.09314689,-0.054497331
4800,-0.126684085,-0.103962697,-0.059652325,-0.110646047
4833,-0.073949717,-0.11995925,-0.157633483,-0.080403328
4867,-0.014998197,-0.071454331,-0.131727785,-0.030096242
4900,-0.006629848,0.000843716,-0.044411086,-0.009645652
4933,-0.024061058,0.041399002,0.013339519,-0.015391158
4967,-0.017789267,0.038375184,0.016573904,-0.012924956
5000,0.047446486,0.017340658,-0.001229954,0.029974364
5033,0.144668326,-6.78E-05,-0.006980323,0.099326126
5067,0.170138165,-0.009178448,0.002850723,0.121986568
5100,0.050521225,-0.017326927,0.010447311,0.035448071
5133,-0.142279953,-0.038865849,-0.01244459,-0.121327393
5167,-0.250380397,-0.080301188,-0.08093033,-0.225744426
5200,-0.203827262,-0.121855535,-0.158014283,-0.200959384
5233,-0.083683632,-0.12366084,-0.168304533,-0.095232002
5267,-0.005650663,-0.069565766,-0.088294312,-0.009566116
5300,0.000290537,0.000825119,0.008814239,0.01307888
5333,-0.016585778,0.031628035,0.038336273,0.00159359
5367,0.008529853,0.016274355,0.000932121,0.009258842
5400,0.100713007,-0.003848362,-0.03609924,0.069158934
5433,0.205107436,0.002924251,-0.023133943,0.150932685
5467,0.218357697,0.028129576,0.030414961,0.167762369
5500,0.09418644,0.041849039,0.075261496,0.068622775
5533,-0.096092314,0.020506095,0.061077971,-0.088863373
5567,-0.21797359,-0.034250163,-0.019457243,-0.187595546
5600,-0.196810469,-0.087026313,-0.104479112,-0.169765666
5633,-0.08995156,-0.090175726,-0.114873208,-0.084741212
5667,-0.007925605,-0.033473108,-0.047574516,-0.016384505
5700,0.008969735,0.033855341,0.024489496,0.002040481
5733,-0.0029706,0.053069398,0.043590546,-0.005813026
5767,0.009423351,0.023240088,0.018168924,0.003840637
5800,0.07922072,-0.003666687,-0.003563118,0.060461421
5833,0.185231477,0.01254301,0.015591715,0.148064226
5867,0.237633109,0.057639882,0.069167517,0.194505483
5900,0.146560758,0.080504894,0.110914409,0.120203011
5933,-0.061394542,0.046669003,0.087944701,-0.06236114
5967,-0.228465125,-0.027223775,-0.005708599,-0.216578275
6000,-0.227915511,-0.089191817,-0.095719233,-0.218654811
6033,-0.109552138,-0.092316329,-0.09458226,-0.105110541
6067,-0.010993195,-0.02798681,-0.011908721,-0.00694828
6100,0.012462186,0.057572648,0.061225027,0.014771461
6133,-0.000637865,0.091129303,0.066830628,-0.000904655
6167,0.004750013,0.04767694,0.025397871,0.005743789
6200,0.061531156,-0.015789984,-0.007506751,0.059943575
6233,0.156695217,-0.029103467,0.00452156,0.141357988
6267,0.216855377,0.009905147,0.050589174,0.188537955
6300,0.160667896,0.047980782,0.083892062,0.140579209
6333,0.001213074,0.043040086,0.062860958,0.009182166
6367,-0.136438176,-0.004473495,-0.009396171,-0.109775722
6400,-0.151268855,-0.057552334,-0.075451754,-0.133162871
6433,-0.078637213,-0.063960455,-0.070522778,-0.08023338
6467,-0.014532994,-0.003244114,0.003426933,-0.025202177
6500,0.003647661,0.076033972,0.072954647,-0.000754738
6533,-0.002283382,0.096934594,0.073836707,0.006724548
6567,0.001688862,0.042379759,0.017705439,0.017360685
6600,0.041066408,-0.024703786,-0.027686689,0.049460217
6633,0.109258309,-0.038095377,-0.01501007,0.104713432
6667,0.148959577,0.002074241,0.036948394,0.137788579
6700,0.093589202,0.042897321,0.071087264,0.086215213
6733,-0.046429247,0.03297529,0.046471879,-0.039891239
6767,-0.163815022,-0.037298582,-0.028520105,-0.139174446
6800,-0.165476263,-0.117213525,-0.093428984,-0.131335244
6833,-0.081647158,-0.118246928,-0.086195186,-0.050775141
6867,-0.009901142,-0.000168514,-0.017449092,0.012654304
6900,0.008154773,0.147092625,0.040684033,0.021327209
6933,0.001238394,0.178660586,0.043339919,0.003907585
6967,0.01146655,0.078634351,0.007884406,0.002692223
7000,0.057102293,-0.031681534,-0.024346445,0.033529472
7033,0.113264024,-0.063127898,-0.023598859,0.076055139
7067,0.119766846,-0.028728388,0.009577273,0.08643093
7100,0.040205527,0.016425418,0.037516877,0.035232924
7133,-0.078157991,0.024797628,0.017779825,-0.051154513
7167,-0.139593303,-0.015925882,-0.043586254,-0.102596849
7200,-0.109274477,-0.063992783,-0.089313127,-0.080175593
7233,-0.04244528,-0.066620059,-0.076075166,-0.022962568
7267,-0.000435305,-0.029495142,-0.02340202,0.006254768
7300,0.006962728,-0.000283813,0.017203044,-0.00386753
7333,-0.001230097,-0.000632858,0.016757583,-0.020688629
7367,-0.006268787,-0.015573692,-0.013761519,-0.017081451
7400,0.009706019,-0.020025158,-0.037099741,0.012645148
7433,0.053878207,0.003179454,-0.024964426,0.058181759
7467,0.091145895,0.044552423,0.012526988,0.086731911
7500,0.062924765,0.066032119,0.037552353,0.056482311
7533,-0.024292801,0.035691544,0.020340443,-0.02340431
7567,-0.086226083,-0.029565237,-0.029679963,-0.08081989
7600,-0.073633999,-0.069994353,-0.062440105,-0.070531078
7633,-0.026307104,-0.04912376,-0.037306022,-0.025104329
7667,0.002438593,0.004770469,0.021897983,0.007521629
7700,0.003718757,0.039175984,0.051765628,0.01745796
7733,-0.005947923,0.032728098,0.02824001,0.015166282
7767,-0.006309413,0.002491951,-0.012980746,0.011602592
7800,0.024966285,-0.016484927,-0.027818009,0.02524738
7833,0.08937335,0.003080463,-0.003234958,0.068636507
7867,0.135515496,0.051247209,0.041061688,0.109004393
7900,0.093719661,0.076474853,0.061981484,0.083071515
7933,-0.028399084,0.033810135,0.02288389,-0.015771674
7967,-0.128453627,-0.056604475,-0.055621143,-0.10500697
8000,-0.127492473,-0.117786586,-0.094920434,-0.109707057
8033,-0.058380887,-0.092325203,-0.048766702,-0.052910037
8067,-0.00121007,-0.000864029,0.031288143,-0.006519699
8100,0.010655737,0.079731271,0.067155927,0.001952362
8133,-0.002614117,0.093592346,0.048035998,-0.004870033
8167,0.002362347,0.056677148,0.014964007,0.008041763
8200,0.06303148,0.024203394,0.004747867,0.065310858
8233,0.160104275,0.023476407,0.028393075,0.145749077
8267,0.195849463,0.036514089,0.064913742,0.169095039
8300,0.089214846,0.031780526,0.071702383,0.073892206
8333,-0.097153604,-0.003308487,0.023012349,-0.086017229
8367,-0.202926338,-0.051433176,-0.054526802,-0.176895335
8400,-0.160737559,-0.078323074,-0.094911851,-0.137480155
8433,-0.057340045,-0.061356921,-0.058895871,-0.041372109
8467,0.003681564,-0.009964942,0.016513538,0.013292884
8500,0.007701587,0.038085934,0.057226177,0.009901999
8533,-0.003224945,0.043085575,0.034156606,-0.006873893
8567,0.013557242,0.00280323,-0.015696716,0.005230522
8600,0.076254271,-0.036278628,-0.038623806,0.056397051
8633,0.15100278,-0.027748488,-0.016671753,0.113852113
8667,0.151035249,0.02098589,0.024238585,0.109419242
8700,0.021699715,0.05790424,0.043054678,0.000872612
8733,-0.159650072,0.039790247,0.012830256,-0.151757225
8767,-0.238767952,-0.026073931,-0.055897519,-0.221409976
8800,-0.167303473,-0.084978677,-0.107141294,-0.161445811
8833,-0.050785586,-0.085478209,-0.089183807,-0.056950945
8867,0.003389454,-0.033731744,-0.019182013,0.000460625
8900,-0.005200624,0.014094543,0.038350008,0.009709739
8933,-0.0171504,0.017135238,0.045645047,0.01357498
8967,0.01471238,-0.01631956,0.016242312,0.036347006
9000,0.096748486,-0.050684735,-0.00994892,0.081954002
9033,0.179706857,-0.048038289,-0.001037979,0.134657472
9067,0.183045805,-0.001733494,0.037591837,0.150227726
9100,0.069001287,0.039480112,0.061076827,0.081119731
9133,-0.103626385,0.018825816,0.024080656,-0.059729572
9167,-0.209215581,-0.052392766,-0.061921403,-0.172573477
9200,-0.175404593,-0.094731897,-0.119135559,-0.168318555
9233,-0.067659043,-0.052669138,-0.084465981,-0.079317279
9267,0.001185751,0.037243363,0.009564399,-0.005023956
9300,0.002982187,0.093152612,0.074834913,0.010006142
9333,-0.012389516,0.077804372,0.070079036,-0.006715965
9367,0.011429642,0.024548719,0.02875757,-0.002430153
9400,0.096632332,-0.007226371,0.008578776,0.06045799
9433,0.205710962,0.011644648,0.035682961,0.163021088
9467,0.247334272,0.05769138,0.08353357,0.221642852
9500,0.147035971,0.078913018,0.098718159,0.155880541
9533,-0.059410997,0.044555854,0.049157806,-0.017075157
9567,-0.219944999,-0.026616095,-0.045564938,-0.17086716
9600,-0.215523988,-0.079328723,-0.117212951,-0.192207515
9633,-0.098910846,-0.069457047,-0.104034513,-0.103213109
9667,-0.004965305,-0.009280586,-0.023424337,-0.013138388
9700,0.016931247,0.048632234,0.045050524,0.013419341
9733,0.003111076,0.063337892,0.05073709,-0.006853294
9767,-0.006208992,0.027663801,0.008146762,-0.023597144
9800,0.01138444,-0.034116838,-0.038100526,-0.002876472
9833,0.057057377,-0.074938767,-0.050453562,0.045897096
9867,0.087477349,-0.061072823,-0.018992042,0.074371718
9900,0.043885518,-0.016487502,0.026160905,0.039330479
9933,-0.058916327,0.000947857,0.030648991,-0.042489626
9967,-0.128570646,-0.027309893,-0.024712369,-0.10248813
10000,-0.110862486,-0.062030692,-0.084611893,-0.094503582
10033,-0.047226042,-0.057639021,-0.075947851,-0.037939452
10067,-0.001942205,-0.016091822,0.00201559,0.013956641
10100,0.006682205,0.016792201,0.073985189,0.027359961
10133,-0.004294538,0.008695792,0.072831914,0.010809517
10167,-0.008671617,-0.022159481,0.013949774,-0.000109291
10200,0.024929235,-0.031773087,-0.026842115,0.025511168
10233,0.105319537,0.000267506,-0.005736351,0.085042194
10267,0.165512308,0.04900188,0.045730874,0.124075688
10300,0.103713214,0.067483515,0.06695623,0.072496027
10333,-0.063235037,0.029971788,0.029360959,-0.055679508
10367,-0.179742903,-0.039255809,-0.041807272,-0.146625131
10400,-0.152593359,-0.078642078,-0.08540497,-0.126996219
10433,-0.056102365,-0.052761551,-0.060379881,-0.048040576
10467,0.004603529,0.004015159,0.005802726,0.007853507
10500,0.011392879,0.033167265,0.047628876,0.018685339
10533,-0.002197122,0.017264269,0.035382267,0.004868889
10567,-0.005470276,-0.017865656,-0.003581428,-0.006484222
10600,0.023428343,-0.034610651,-0.024222562,0.009391021
10633,0.082144402,-0.012510394,-0.008637427,0.055588529
10667,0.117372602,0.030866429,0.02250967,0.094107047
10700,0.068883985,0.049625296,0.033082578,0.075789064
10733,-0.038519237,0.015139102,0.001323509,0.006590652
10767,-0.108007044,-0.045567513,-0.05648746,-0.047407147
10800,-0.091344878,-0.070525929,-0.084543228,-0.043976784
10833,-0.034379765,-0.030549143,-0.041613005,-0.011910438
10867,0.002086544,0.036432836,0.039587401,0.004319
10900,0.006531143,0.069154643,0.084564112,-0.00055275
10933,-0.000673485,0.048189636,0.064268582,-0.007993125
10967,0.00068922,0.005171585,0.016120719,-0.006101989
11000,0.027906129,-0.014778613,-0.008202839,0.017044829
11033,0.089692213,0.011490439,0.013027953,0.075666614
11067,0.151009217,0.062288471,0.05799007,0.141555965
11100,0.136022747,0.08313074,0.07597246,0.139956087
11133,0.023989819,0.0458868,0.039818283,0.04553318
11167,-0.092678107,-0.019098472,-0.021365833,-0.064965814
11200,-0.112570517,-0.062449545,-0.060115524,-0.102062404
11233,-0.050394055,-0.060110945,-0.056502338,-0.062404629
11267,0.005842924,-0.021638775,-0.019923305,-0.007646369
11300,0.01545453,0.017043112,0.021672821,0.015990255
11333,-0.000718403,0.021287154,0.03616247,0.006665611
11367,-0.013540935,-0.006625556,0.015761947,-0.010461616
11400,0.004382944,-0.029377554,-0.011254692,0.0019598
11433,0.071959011,-0.013801574,-0.009842491,0.065518565
11467,0.149612173,0.033144664,0.022361469,0.140349761
11500,0.147211641,0.070878692,0.055456061,0.144017592
11533,0.033211324,0.066538803,0.05838117,0.048751827
11567,-0.107591622,0.017559813,0.017480563,-0.076306336
11600,-0.160285518,-0.048428245,-0.048806757,-0.137644947
11633,-0.105022565,-0.082220361,-0.087629415,-0.110501856
11667,-0.0242403,-0.054534812,-0.062012382,-0.046337694
11700,0.010487651,0.007267856,0.00346241,0.000757599
11733,0.002611113,0.048620507,0.051998802,0.016892051
11767,-0.012133883,0.043375395,0.052767273,0.008202552
11800,-0.00866518,0.010205555,0.022053052,-0.007177734
11833,0.02738056,-0.010543155,-0.001568413,0.008075523
11867,0.089431718,0.007514476,0.004502106,0.069337457
11900,0.114195861,0.050238986,0.031346224,0.108281128
11933,0.018195532,0.066729061,0.042768858,0.026348874
11967,-0.167930886,0.012969588,0.000632286,-0.147292316
12000,-0.282986253,-0.090360545,-0.083816245,-0.249113262
12033,-0.23014389,-0.153896704,-0.13852872,-0.189090133
12067,-0.093649216,-0.111012258,-0.105289355,-0.057610698
12100,-0.00305314,-0.003591156,-0.011717604,0.016853712
12133,0.013322137,0.069732852,0.061003871,0.012361335
12167,0.006697225,0.067625135,0.070904441,-0.007831192
12200,0.035893105,0.02651138,0.045516301,0.018737983
12233,0.12345621,-0.001795292,0.02646675,0.101147451
12267,0.211069599,0.001979828,0.022015,0.178860858
12300,0.185721725,0.022013282,0.019942759,0.162142754
12333,0.017754076,0.024952695,0.010312271,0.032164764
12367,-0.166876733,-0.014361476,-0.014113425,-0.115205377
12400,-0.219619483,-0.080181599,-0.04999122,-0.168396384
12433,-0.137609765,-0.11732053,-0.074753374,-0.118441761
12467,-0.034782525,-0.089082524,-0.070191473,-0.04244728
12500,0.010086179,-0.021772956,-0.049342342,-0.002436447
12533,0.005556607,0.024512384,-0.044315241,0.00015564
12567,-0.006951355,0.016712379,-0.073499963,-0.004850006
12600,0.00945475,-0.023928164,-0.116355509,0.008748435
12633,0.073211998,-0.044276904,-0.116686814,0.050718494
12667,0.150062501,-0.011456107,-0.04085226,0.101702489
12700,0.153969094,0.051976487,0.068074316,0.107508078
12733,0.041059542,0.087650299,0.125086769,0.028753851
12767,-0.108580105,0.056666274,0.084140398,-0.086344525
12800,-0.168653429,-0.018521117,-0.018383216,-0.135516346
12833,-0.117080279,-0.066287898,-0.087995335,-0.089165494
12867,-0.037895463,-0.038580034,-0.062032696,-0.016696928
12900,0.001950073,0.030804632,0.019493293,0.0174345
12933,0.004602456,0.064570419,0.065961167,0.010990906
12967,0.001017237,0.029681394,0.047327038,-0.010246468
13000,0.017194031,-0.034259032,0.011281872,-0.019923018
13033,0.063279957,-0.064442821,0.003709602,0.00563221
13067,0.112730734,-0.036189076,0.020192241,0.061915394
13100,0.105289146,0.021263409,0.03613672,0.095068924
13133,0.024494074,0.056053445,0.038796615,0.059708402
13167,-0.056924909,0.037690543,0.020555878,-0.008423423
13200,-0.070649952,-0.017142104,-0.017090606,-0.041782379
13233,-0.035416957,-0.057330318,-0.045765206,-0.03277187
13267,-0.003728485,-0.048017975,-0.037149522,-0.015340804
13300,0.005472064,-0.008676338,-0.00667963,-0.004919243
13333,0.000165796,0.012708663,0.005435658,-0.001529503
13367,-0.008108639,-0.004076099,-0.012517832,-0.004390526
13400,-0.002499533,-0.034480762,-0.034676742,0.001885414
13433,0.038646195,-0.039355371,-0.032022282,0.040205382
13467,0.104565233,-0.003338527,-0.001773834,0.100815572
13500,0.126089141,0.048495479,0.032405946,0.12688522
13533,0.048428386,0.065863036,0.037519738,0.073310845
13567,-0.070288032,0.017961787,-0.004828834,-0.02224331
13600,-0.115560286,-0.062303919,-0.069263361,-0.075735278
13633,-0.067868754,-0.096521467,-0.092627041,-0.061584659
13667,-0.006989765,-0.046864983,-0.039752197,-0.02377281
13700,0.011828755,0.035399433,0.044492055,-0.000750732
13733,0.001214075,0.069980331,0.077357478,0.002760887
13767,-0.008980322,0.03496084,0.03489561,-0.006806945
13800,-0.00611515,-0.02220726,-0.023544215,-0.017291449
13833,0.011133814,-0.041617014,-0.035018917,-0.007605743
13867,0.040156174,-0.007103347,0.001063442,0.029126927
13900,0.057706255,0.04598064,0.042380907,0.0613821
13933,0.030393073,0.070572279,0.053176969,0.048920628
13967,-0.024145745,0.050268456,0.029877946,0.001296043
14000,-0.045090578,0.008818816,-0.003292751,-0.030835532
14033,-0.019961355,-0.013700293,-0.017476272,-0.025581548
14067,0.005264855,0.000508404,0.001011371,-0.007776832
14100,0.00357871,0.030472467,0.037983797,-0.001712608
14133,-0.008762455,0.038040157,0.049390979,-0.005963515
14167,-0.011277151,0.002667904,0.005383015,-0.009064864
14200,-0.002057934,-0.05234012,-0.057575792,-0.003234672
14233,0.019558525,-0.06946563,-0.071637437,0.017858503
14267,0.058861107,-0.017261408,-0.018079661,0.056659695
14300,0.083966158,0.065883629,0.058832929,0.087018587
14333,0.036179207,0.107910052,0.097039022,0.060313221
14367,-0.063108154,0.072677992,0.06353645,-0.017504882
14400,-0.111008681,-0.007417487,-0.012220286,-0.070531078
14433,-0.072831482,-0.059623428,-0.056044862,-0.060361858
14467,-0.017543076,-0.042954255,-0.028785322,-0.027263829
14500,-7.05E-05,0.011048126,0.029217336,-0.010093117
14533,-0.008383369,0.038446996,0.049486823,-0.007970809
14567,-0.009623908,0.01023674,0.012119292,-0.009013939
14600,0.014710091,-0.041303158,-0.038160894,0.001824188
14633,0.070787571,-0.055018038,-0.045026205,0.044548988
14667,0.134849444,-0.00464344,0.001603603,0.105776586
14700,0.122451916,0.06892547,0.060181327,0.107097238
14733,-0.035799693,0.090233229,0.072226234,-0.021344375
14767,-0.251660705,0.018547153,0.006927108,-0.217062935
14800,-0.334688365,-0.099444859,-0.09960679,-0.3165676
14833,-0.23122637,-0.158152476,-0.156713098,-0.245857418
14867,-0.075254053,-0.103609651,-0.10781192,-0.099128142
14900,0.006642437,0.00562706,0.001702881,-0.002645302
14933,0.012779187,0.0761218,0.080904581,0.018974876
14967,0.01485722,0.085030459,0.0991496,0.025988672
