NaiveD/Slimdog/Experiment/Scaffold/12-23/Min-support/Kinovea/Min_P1_R1_RB_EE_J123o_H_Pos.csv
Time (ms),RB_End_Effector,RB_Joint2 - o,RB_Joint1 - o,RB_Joint3 - o
0,-6.8166903754539,8.74188393730774,14.3017146892529,19.9771517137747
33,-6.81266980953562,9.05462133200289,14.3982582373227,19.718482760458
67,-6.78062769110194,9.33904953305878,14.5567969457683,19.5876098055014
100,-6.72718561793707,9.62927235247497,14.8066068353571,19.5569134807521
133,-6.6907076851425,9.92810918651831,15.1144167510555,19.5430561137137
167,-6.70912059437136,10.1420942398645,15.3725654452547,19.5058410537582
200,-6.78432538884939,10.2151204679,15.4972481795423,19.4427063050488
233,-6.82031767360368,10.2842416482708,15.5610220666197,19.445311047345
267,-6.62344425027776,10.5813918140224,15.7695979292597,19.7247494375832
300,-6.11136527695183,11.1629887394234,16.2630799388777,20.392673098099
333,-5.49873283532993,11.840251373105,16.9235778407107,21.2208394209997
367,-5.09709874291272,12.387018822391,17.4759531428082,21.8225425156566
400,-4.98216843714011,12.714478508149,17.7832827784668,22.0482721409577
433,-5.00770443528785,12.8640970952286,17.9161944038949,22.0338661201535
467,-5.03873956957129,12.9591044399182,18.0145211190344,21.9704122728511
500,-5.04597405946056,13.1495533652398,18.1886771841903,21.9556603874726
533,-5.0565660068133,13.4950402339529,18.4655585339876,21.9795510457385
567,-5.08906741688285,13.9030266727228,18.7760277926432,21.9971490789647
600,-5.09082254682756,14.2258812945969,19.0294929602193,22.0336374268809
633,-4.92039360371795,14.4037724636594,19.20070799965,22.197179902583
667,-4.48241818263237,14.5073048488769,19.3321719400181,22.5606745961651
700,-3.89433756919706,14.6510868547981,19.4726124146428,23.0600696720822
733,-3.41136245922741,14.8674558967024,19.6209817505581,23.5379915751247
767,-3.19249005796345,15.0742112069464,19.7151037769513,23.8557663031067
800,-3.19428484247495,15.1640335308802,19.6844777619248,23.9722627435352
833,-3.26146006875487,15.1230839662472,19.5501238900518,23.95815446861
867,-3.29049907116146,15.0661885845937,19.464682007838,23.9222743240097
900,-3.28596852615031,15.145391034142,19.5988296115557,23.9140996601385
933,-3.29467910502884,15.4131872856931,19.969621824602,23.9130223673089
967,-3.31216446481638,15.7615529078574,20.4074363175048,23.9184475216178
1000,-3.16614418263398,16.0071824357566,20.7076762053228,24.0526287616346
1033,-2.589184272322,16.0645341382469,20.7943061704685,24.4996886951306
1067,-1.64972727498218,16.0243828467744,20.7436185577936,25.215335239733
1100,-0.899803083504579,16.0640085730124,20.7119992711259,25.8045789433898
1133,-0.77502973612986,16.2820943667572,20.827388395084,25.909324694756
1167,-1.10674664619733,16.5930738333363,21.0775517369151,25.6177211742287
1200,-1.4426387629727,16.8143464370484,21.3422022309723,25.3028992129202
1233,-1.56636039868033,16.893571516458,21.5592768931067,25.1818031943417
1267,-1.55640441958064,16.9759481561555,21.7776978390067,25.1981714296804
1300,-1.5570903430278,17.2067519857788,22.0743212902393,25.2167554502111
1333,-1.61834098122666,17.5581373734755,22.4671769463212,25.1861028441964
1367,-1.61101512146915,17.8883504244825,22.8586502855619,25.2049474883378
1400,-1.23998757620195,18.0866650180723,23.0699498078548,25.4950804183201
1433,-0.357282333761299,18.1242535652427,22.9784567705929,26.1616490333702
1467,0.689290754261293,18.0564745941868,22.6633581427221,26.9330574153829
1500,1.28575254903137,18.0253039233451,22.396326484132,27.3501821843309
1533,1.16243258074528,18.1591174461306,22.3892857029615,27.239069580554
1567,0.597371652320292,18.4211658955697,22.5840785989291,26.8044311143475
1600,0.0703028030553395,18.6413207716326,22.8051420180304,26.3558993246856
1633,-0.163241244023198,18.7232262372254,23.0257209004354,26.0906701486402
1667,-0.175817993836858,18.740600347481,23.3030070017948,26.0195538715112
1700,-0.151839346901061,18.8030660336385,23.5693315917171,26.0211793988406
1733,-0.175267393438676,18.9170388423094,23.708517560434,25.9954143789664
1767,-0.150511863428783,19.0183426405537,23.7217413143241,25.9984945379762
1800,0.199677003894973,19.0600638689278,23.6838760810837,26.2506553275008
1833,1.07062590712004,19.0324879775845,23.6400462439946,26.9081224528653
1867,2.14934839493666,18.9633319500313,23.5936327603991,27.7417381388325
1900,2.74620492836033,18.9366620602619,23.5689200715034,28.206037276811
1933,2.48660393869895,19.0261140406775,23.6154546252321,27.9467029427173
1967,1.58950069622256,19.1389138085774,23.6646277628373,27.1038343245863
2000,0.532251265885276,19.0257893392638,23.4960099645975,26.1168094822777
2033,-0.265123351336359,18.5672709181087,23.0181056092564,25.3852704060985
2067,-0.617227985362081,17.9886388717074,22.4776785767382,25.0479270131484
2100,-0.663527669293622,17.6347091163969,22.2172408182085,24.967277227982
2133,-0.65818091706,17.5835581021042,22.3407956196981,24.9453684677547
2167,-0.644368110272175,17.6419161542531,22.7038800360892,24.9473258237556
2200,-0.40007751169562,17.6313906035816,23.0604976599388,25.1307208173055
2233,0.255051747329176,17.5418844509034,23.2162642008855,25.6392420887141
2267,1.09486327585753,17.4792741456845,23.1737743654058,26.3085398101505
2300,1.63019433232621,17.5449689750037,23.0889878813374,26.7421175241488
2333,1.61685520223922,17.7180332225021,23.0620450071372,26.7369095009807
2367,1.20275408316232,17.8215758957054,23.0338682315614,26.4111194411247
2400,0.707287929055599,17.6895283085525,22.9065077331658,25.9817681885666
2433,0.38541320466337,17.4110314832625,22.7363333743846,25.625972822385
2467,0.27929609884906,17.2930252757846,22.7262871390362,25.4438173230505
2500,0.264147811741423,17.5097954369096,22.9935004350605,25.4194623671895
2533,0.218233126801114,17.9061259001393,23.430526393148,25.4520613990211
2567,0.167581334681023,18.2152328834312,23.844720619372,25.4900062826225
2600,0.376004398785152,18.3563636162072,24.1546380039034,25.6811352053383
2633,1.16610512832827,18.4557117804272,24.392746471739,26.2804165333448
2667,2.42951062982152,18.6670414724519,24.5958928217906,27.2843395635498
2700,3.50857619860018,19.0316503630048,24.7706199148713,28.2689490850761
2733,3.83109879574764,19.4505237198042,24.9091842769024,28.7281792511844
2767,3.48762000537122,19.73872280914,24.9753439851207,28.5704650609906
2800,3.01894457507431,19.7765009677317,24.9292002138404,28.168445769919
2833,2.80299909216154,19.6640778953013,24.823469239632,27.9071906876917
2867,2.81298206588399,19.6535807031495,24.8185949038653,27.8783512232944
2900,2.86360979628033,19.8864840082778,25.0315060913046,27.9654448867304
2933,2.8517899747713,20.2572716547727,25.3955643644065,28.0051346223059
2967,2.78643395725831,20.5496031146498,25.7285727528174,27.935657428311
3000,2.81515658244414,20.6662870510775,25.9302997038936,27.9078668308128
3033,3.22340940687801,20.7170058840825,26.0569784790958,28.2175366839202
3067,4.15151313164354,20.8883481812861,26.2006826022994,29.0310517299
3100,5.23636672077201,21.2378750208081,26.3695680832863,30.0957439488347
3133,5.8488199205721,21.6273846657674,26.5130019627605,30.8550781064848
3167,5.80958342433464,21.8474204062992,26.5810123723162,31.0131786564461
3200,5.52554306077648,21.8115506273656,26.4987389248322,30.8087139167939
3233,5.38863366117072,21.646460179426,26.2375445329741,30.6153052865579
3267,5.41277394005754,21.5727969734568,26.0019344144584,30.5477569524591
3300,5.44155739060455,21.6989140417363,26.0649725305859,30.5347677272531
3333,5.40762648856189,21.9483277641497,26.3802832914087,30.5054105537513
3367,5.3468604893143,22.1514215450457,26.6567388359478,30.4381898960975
3400,5.32530244421869,22.2057946256871,26.7365134954106,30.3807509096342
3433,5.45886464701468,22.1868650382497,26.7079117427427,30.4748135707539
3467,5.89223280701285,22.2761209782264,26.7512013121637,30.8677819903012
3500,6.56689903179165,22.5585468139256,26.9528124647787,31.5111111451848
3533,7.11643143035784,22.905813221794,27.2209971255135,32.0933805561164
3567,7.23642641771758,23.0669037635552,27.3551992663193,32.3014042043027
3600,7.04794738044848,22.9093206431057,27.2313396892307,32.1588111106929
3633,6.88472779126003,22.5890200327826,26.9519731258203,31.9563202047897
3667,6.87694417302857,22.4184614727806,26.7810070807559,31.878095832435
3700,6.92967011975091,22.5420028653115,26.8924890691797,31.8929241907029
3733,6.94424192689217,22.8209470977157,27.1961706890976,31.9184540213688
3767,6.90340513556951,23.0357281769493,27.442747129272,31.9138119147322
3800,6.87018664865811,23.1127917775511,27.5086186688502,31.9119572650099
3833,7.01289354141901,23.1603924820606,27.5140705590651,32.0614218255231
3867,7.49824144095368,23.3328219613755,27.6439331389529,32.5188562892639
3900,8.22012597039095,23.6713515325601,27.9512108693067,33.2032177582718
3933,8.76332004319631,24.0567537404386,28.3248157257452,33.7591816690142
3967,8.82575245252909,24.2822929394527,28.5516068432665,33.8951684569139
4000,8.56718801321013,24.2173453864961,28.4837881620056,33.6994189663904
4033,8.35302609772692,23.9671105056734,28.2300385766546,33.4882172376997
4067,8.32224808205066,23.8066505586196,28.0827059965453,33.4257886239941
4100,8.39029211817244,23.8939560480679,28.2026094228935,33.4427495951406
4133,8.4566651961003,24.1225141329101,28.4543807040558,33.4315942905014
4167,8.46562761913659,24.2783732784876,28.5817529755333,33.3768198877008
4200,8.422603387606,24.2647531644631,28.4968214467625,33.3386108077174
4233,8.45019611406722,24.1843941066974,28.3530596751968,33.4268689247935
4267,8.74653847035368,24.2457830642412,28.3707404073258,33.7556157059213
4300,9.32157275015176,24.5442035348745,28.6361678610284,34.2774828109713
4333,9.81869543146919,24.9346552295333,29.0143469005383,34.7080674766422
4367,9.87251323207582,25.1729990600434,29.2488630995064,34.7849986986897
4400,9.58648046020133,25.1567753891309,29.2223330881823,34.5658333720276
4433,9.34295686651884,25.0082318602127,29.0833730114864,34.325245863207
4467,9.2928654582978,24.9492941670419,29.0602280665785,34.231850579362
4500,9.32963365062365,25.0900786367856,29.2279594887753,34.2602556977218
4533,9.35302514449421,25.3325787559297,29.4789209440255,34.3082289735327
4567,9.34105692337335,25.4851136213045,29.6372814932531,34.2952501365499
4600,9.30955969773786,25.4683329377079,29.618840564567,34.2335489178367
4633,9.34944187728417,25.4036088344204,29.51182708437,34.2553233873238
4667,9.65660887593052,25.4725249376888,29.4961767078038,34.5323218708355
4700,10.2836245855071,25.6947954201983,29.7438097264956,35.0597560764106
4733,10.8329454969528,25.9025139092085,30.2932741632026,35.5063747286236
4767,10.822211467764,25.9103971877947,30.8417313656259,35.5117128667117
4800,10.3645542656025,25.6497733468486,30.9142548534462,35.1430588807871
4833,9.97765022034566,25.2173116083857,30.4440464240877,34.7740756665431
4867,9.87155614092479,24.8500437820096,29.8633610383927,34.6070408809004
4900,9.87766272715117,24.7409488534437,29.5658604322953,34.5734365414568
4933,9.82735685411867,24.8556699331523,29.5672877212656,34.5427315972669
4967,9.71725568895652,25.0169434279516,29.6547917241936,34.4708248475463
5000,9.70876255870158,25.1115031337324,29.6777796344109,34.4565659011053
5033,10.0335659898452,25.1325480896443,29.6465904044469,34.6706552424243
5067,10.6732179320148,25.1110514649427,29.6312440526817,35.1187456402335
5100,11.1678203057968,25.0713579385574,29.6655952255075,35.4839051869604
5133,11.0100257016366,24.9955380328964,29.7008932808052,35.3550666136896
5167,10.219287208716,24.8122521078426,29.582631480023,34.6750514520816
5200,9.34082271996996,24.4601978565843,29.1613582937958,33.8500996178697
5233,8.86043864480517,23.9998821763243,28.5292041992206,33.33531987937
5267,8.78293252058228,23.6357909018832,28.0393278614653,33.2152167824685
5300,8.82276724065926,23.5361094643995,27.9405742970608,33.2715468301035
5333,8.78486960700831,23.6412922479721,28.0980898032702,33.3024153183609
5367,8.71219555837064,23.7469636069874,28.1961500012559,33.2821737861843
5400,8.84173523419975,23.7497884561835,28.1043027437659,33.3641398349237
5433,9.3836154773946,23.721308460983,27.9554875459117,33.7432281778216
5467,10.2091177114181,23.7692833415268,27.9500770736809,34.370354894594
5500,10.8393332797102,23.9088374430529,28.1582538570687,34.8616441904787
5533,10.8370270771683,24.0482776625326,28.451820587589,34.8278376665632
5567,10.1987182973006,24.0455447900732,28.5654410299652,34.2692239939368
5600,9.38386992041295,23.8199416893357,28.3221059605316,33.5772011595165
5633,8.88664826119494,23.4653693143579,27.8689137066673,33.137455274787
5667,8.78419257810967,23.2187701284762,27.5562836820698,33.0122679270811
5700,8.83381046689891,23.2422164347419,27.5517504834357,33.0282305316564
5733,8.84399145547323,23.4444735053125,27.7195464726301,33.0258708414172
5767,8.81400653458095,23.596011678614,27.8423540397709,32.9894691513206
5800,8.90681400069825,23.599407993454,27.8406736291124,33.05146687543
5833,9.34214494888658,23.5715673192963,27.8185995862765,33.3925458170357
5867,10.1416899192658,23.6830270908419,27.9446173502441,34.0385656315883
5900,10.9263660891658,23.9558343267905,28.2797168438876,34.6892516175027
5933,11.118762480102,24.2197272439865,28.684047016112,34.8399224324866
5967,10.5170690985412,24.2669608485653,28.8660143824852,34.2735130791762
6000,9.5956608441431,24.0382345836808,28.6459902762229,33.3960703301882
6033,8.99763166054201,23.6723481882833,28.2278865832427,32.8158130951739
6067,8.86531335927026,23.422792643176,28.0154417275738,32.6953302529565
6100,8.92434420115491,23.4857701317274,28.148493776979,32.7694884605591
6133,8.94839515790152,23.8066106499811,28.4236089990243,32.7938037503704
6167,8.92009128110818,24.0932988298019,28.5940327488007,32.7634578786726
6200,8.98006179549526,24.1244556090093,28.5929272076236,32.8320955357888
6233,9.33029970719743,23.9880314861991,28.5439868214618,33.1630830629905
6267,10.0246964860724,23.9304338057163,28.6230715383075,33.7744831454482
6300,10.7760015812941,24.0540658120531,28.8812489245571,34.4200047250355
6333,11.0958152528964,24.2503048858621,29.1823530095215,34.7116781994571
6367,10.7840893142276,24.3409989577252,29.3003223481546,34.4812161312369
6400,10.1862279851575,24.2204817977762,29.1197111641083,33.9798381839871
6433,9.77562989410728,23.9573173779199,28.7973091903807,33.5934614296824
6467,9.6619796260411,23.7940787602606,28.6495597782468,33.444948278643
6500,9.67874295100948,23.9356893755606,28.8201570097383,33.4254491474308
6533,9.68629734926809,24.3009727667426,29.1359240964022,33.4399182154611
6567,9.66352080061569,24.5819202670899,29.3124013418494,33.4702792548585
6600,9.69755668525324,24.5835044726262,29.2539600749284,33.5556560749322
6633,9.9372972517175,24.4172287963444,29.1278228034636,33.8000134331193
6667,10.4259457212317,24.3295352740558,29.1538916056949,34.2537463046903
6700,10.9303606854703,24.4310573841798,29.3741455217482,34.7186059170617
6733,11.0498729753621,24.6155161619264,29.627807329673,34.8285125815161
6767,10.6208320069794,24.6508924522464,29.6839583748645,34.4526589454064
6800,9.95777275141677,24.3668595017418,29.4376732939501,33.9006840924765
6833,9.51765692424712,23.8694694779201,29.0610982514504,33.5770947102109
6867,9.41345847100347,23.5785452097225,28.8630381033266,33.5621857293107
6900,9.45164924902418,23.8683438841691,28.9447713614319,33.6614593594723
6933,9.46782362986468,24.5591610721382,29.1342664221318,33.7043651950972
6967,9.45990528008426,25.0594149245393,29.2337029588448,33.6875047877096
7000,9.54426780981543,25.0833922627925,29.186829343033,33.7223095161165
7033,9.84058785465736,24.8482058555081,29.0713932563445,33.9110373779764
7067,10.2993609733306,24.6625391573495,29.0295033974106,34.2293475237805
7100,10.6390333137369,24.6566822355637,29.1352416292381,34.4872458437172
7133,10.5673984569403,24.7720447912998,29.2796155749741,34.4642348252782
7167,10.1179796128889,24.8220046426037,29.2537740279221,34.1462174583398
7200,9.63677592501065,24.6658754893752,28.9890409937947,33.7802580365753
7233,9.38948365297042,24.3953842354456,28.658353794582,33.6117144291551
7267,9.35380716046541,24.2217380151197,28.4818731345412,33.6271722107521
7300,9.38658135515909,24.1987475590922,28.5023406131667,33.6534102413441
7333,9.40022547207529,24.2198449153403,28.5965597102063,33.6013850537628
7367,9.37838122697024,24.194529063689,28.6140582735025,33.5154834607616
7400,9.35843360619713,24.1160174226037,28.5048168634147,33.4875119718444
7433,9.44308749901917,24.0610262970536,28.3667254384065,33.5997838988008
7467,9.71762222338676,24.1372174136878,28.3383869292669,33.8753880348955
7500,10.0507273337469,24.3580452980631,28.4502396339162,34.1779956310737
7533,10.1371204444785,24.5774310394906,28.5887348370934,34.2519338186583
7567,9.88877491325779,24.595987493963,28.5858416260395,34.0219653563864
7600,9.56228013074961,24.3803288934608,28.3908696411305,33.7131322442642
7633,9.39788116179679,24.1293572797825,28.1695755158161,33.5517559854431
7667,9.38689904200651,24.0528371912916,28.1421632484852,33.5457720719258
7700,9.41413872349279,24.1611610097399,28.3155607345874,33.601903076805
7733,9.41169088168399,24.31400998632,28.4872670409534,33.662164812371
7767,9.37448601864063,24.379348790123,28.5038273247716,33.7030175813561
7800,9.36962764678089,24.3306238439099,28.4007284514487,33.7395175602002
7833,9.5409283607672,24.269448413226,28.3183750532301,33.8713330545349
7867,9.9654499397875,24.3511609107417,28.3791613838011,34.197089417323
7900,10.4443650205901,24.6110964556441,28.5921182696108,34.5980211975816
7933,10.5902485111558,24.8609928023094,28.7923708045757,34.7508954088558
7967,10.2550375095398,24.8364990660871,28.7446791324323,34.4928794431613
8000,9.73389100295583,24.4836301526894,28.4215633541307,34.0508537503552
8033,9.40508764131335,24.0512543910661,28.111876376715,33.7614986092004
8067,9.34468488483008,23.8681275247087,28.0964530138425,33.6981182946348
8100,9.39702029639083,24.045493971586,28.320463777359,33.7180371854032
8133,9.41572241162384,24.3996687541668,28.5441584730163,33.7111357821311
8167,9.37959262494939,24.669442530038,28.6407036875875,33.6855681473044
8200,9.43147219367309,24.7775164891028,28.6439198421712,33.7647452260551
8233,9.79980244931113,24.8307994041024,28.6723557798526,34.12097738279
8267,10.4988339308913,24.9340273437367,28.8332056465027,34.7364082775588
8300,11.105466017074,25.0742261153956,29.105113602269,35.2482761717971
8333,11.0935996453697,25.1458975983006,29.3112219487905,35.2290233418235
8367,10.4577755460009,25.0521693312335,29.2585299620671,34.6748289234676
8400,9.74075670649296,24.803008155511,28.9477100053143,34.0497236555714
8433,9.38619147897901,24.5300166713478,28.6257839723977,33.7582960341988
8467,9.35848972772085,24.3939619727235,28.555070527619,33.7739079930925
8500,9.41073546899772,24.4635832028757,28.7358742272291,33.8469133714767
8533,9.40983391733669,24.6478696317434,28.9365794815962,33.8399229979713
8567,9.38923519958447,24.7508201514768,28.9635839870734,33.8010855911047
8600,9.50021551249133,24.6665566521153,28.8319340880096,33.8747882127944
8633,9.89759730331597,24.5089619088807,28.7060928496141,34.1770630335997
8667,10.506900440471,24.4815681723391,28.7207881509013,34.633800518021
8700,10.9044987071812,24.6488683860187,28.8676834951968,34.906525164672
8733,10.6515651757478,24.867594902669,29.0078202503345,34.6396206172864
8767,9.84016542850529,24.9141370229159,28.9532189673731,33.894811807543
8800,9.05977918771464,24.6937698669719,28.6351707205242,33.1635569023343
8833,8.72480865684414,24.3476129325616,28.2389437891439,32.8185100735724
8867,8.72120818395563,24.1239146743298,28.0406120279801,32.7838781737936
8900,8.74740521722563,24.1227339437672,28.1110622140297,32.8215720174431
8933,8.6865372914933,24.2178783263904,28.2962782391176,32.8486075850575
8967,8.63306871606023,24.2369700210618,28.4153638181456,32.9120736918432
9000,8.7846199854153,24.1090843380471,28.4045598493116,33.0909250335146
9033,9.27805905420932,23.8990732580613,28.3490366823803,33.4584402923579
9067,9.98266644334771,23.7888279692886,28.3976393438921,33.9886420203017
9100,10.4983648604905,23.8875167779262,28.5996496804811,34.4599573619125
9133,10.4426749956515,24.0520295203815,28.8048195105826,34.5294424411584
9167,9.80752160547754,24.0130187965374,28.7601864112959,34.061761356451
9200,9.04790447062957,23.7027349767851,28.3920095316413,33.3789531820554
9233,8.63815830778734,23.3814639504694,27.9659502723916,32.9396332550508
9267,8.59684411286382,23.351607262804,27.8289039159949,32.8501652504616
9300,8.64606251617238,23.6297609678702,28.0297126699251,32.9061429504909
9333,8.6167249806052,23.9726336047966,28.3278034259048,32.9168830260717
9367,8.56346640840815,24.1484601587582,28.4969060808381,32.861371959576
9400,8.6929225582868,24.1362902700452,28.5195190432353,32.9006746579127
9433,9.20768183782329,24.100281926271,28.5540977540704,33.2644185803019
9467,10.064328944409,24.2139237848951,28.7574062843358,33.9874784609528
9500,10.8565764847599,24.4848991632703,29.1109879140861,34.7420404977958
9533,11.0445689013134,24.7400138196898,29.415528100604,35.0266894190015
9567,10.460503725972,24.7819376223445,29.4387065130218,34.6282099148245
9600,9.57826863788886,24.5625697103912,29.1117606814263,33.8875744211112
9633,9.0236766280689,24.2530730694705,28.6572883718766,33.3468259532038
9667,8.91886282003868,24.0995195226085,28.4181978533504,33.1994834649564
9700,8.99057493007225,24.1912024390246,28.5011257277291,33.2592318203386
9733,9.03173817620654,24.4237344283389,28.7185350274452,33.2889471406249
9767,9.01131537113117,24.6134543753036,28.8393729379572,33.2135463021176
9800,8.99034486869382,24.6081610501432,28.7728454538602,33.131635433047
9833,9.08721144206291,24.3860113064056,28.5853692214372,33.1943743509854
9867,9.37072734955212,24.1085732647208,28.4364894720307,33.4376205250696
9900,9.67039374510602,23.9788618699157,28.4587550661144,33.6901867136633
9933,9.66329779878728,23.9986543607961,28.6108947774834,33.6998218887343
9967,9.27761846395448,23.9851768921456,28.6630824613247,33.4069225033643
10000,8.8061600465493,23.8165851688243,28.4461454560318,33.0165666420196
10033,8.53853551405042,23.57163869172,28.0990031747746,32.7768995852591
10067,8.49131921055073,23.4323245455321,27.9398271970671,32.7636382425218
10100,8.52558683725498,23.4643585605995,28.1124397460571,32.8699408091787
10133,8.53586797877707,23.5442730884021,28.4330618626523,32.9460344910082
10167,8.49695661740581,23.5223303437117,28.5979867582425,32.941999918325
10200,8.47805658552152,23.3965428204716,28.5260609841871,32.945301778217
10233,8.66315202503704,23.310511432113,28.4190387372889,33.1120782546206
10267,9.18018685692287,23.3983265472439,28.4878170632365,33.5122595796302
10300,9.76656749004738,23.6371894339428,28.7239111542687,33.9392541210143
10333,9.87160894049675,23.8482162556581,28.9341926911456,33.9955603389563
10367,9.34500071364264,23.8370022232803,28.9196508787038,33.56804704767
10400,8.67332267887045,23.5865118029392,28.6554766046161,33.0180559627637
10433,8.32771090803557,23.3127214312183,28.3502836644353,32.7214016366592
10467,8.29930692757756,23.2347685749945,28.2529449013971,32.6977805077992
10500,8.35840091726162,23.3394882684069,28.3889697445683,32.7737613356183
10533,8.37525902997761,23.4558836036669,28.5704707337089,32.8223535627712
10567,8.34375379725504,23.4545833825656,28.6248515448211,32.8062258327426
10600,8.3387913604814,23.3367791924621,28.5465953735059,32.779132180848
10633,8.49994325263459,23.22384649848,28.4633682595682,32.8688319606738
10667,8.8864202577847,23.2533767839113,28.4890111156743,33.1497187028793
10700,9.28242706821233,23.4296229491062,28.6134320911182,33.4962110048649
10733,9.34564645621334,23.5842107587646,28.7095625722368,33.6549798125919
10767,9.02563206586032,23.5305508490753,28.6222548567066,33.5401460841033
10800,8.62560016287024,23.2804283464973,28.332979053859,33.3389291693232
10833,8.41666619137767,23.0603777928512,28.0586334975052,33.2469692214703
10867,8.39640182040231,23.0767674008527,28.0555596561291,33.2595287360579
10900,8.43057661272984,23.3032630682759,28.3225490059866,33.2757615417959
10933,8.43994190608889,23.537797229436,28.6193197748431,33.2558411613153
10967,8.42608672508936,23.624527331892,28.7510074509783,33.2224755184657
11000,8.44453693444475,23.5722756986416,28.7267910651832,33.2151622511651
11033,8.61212775484257,23.5260034504193,28.6963213901721,33.3361062670641
11067,9.04248569600637,23.6488773911268,28.8136437550885,33.7196050057584
11100,9.61885512330968,23.941260201045,29.0829228047092,34.2798141024093
11133,9.94930354186558,24.2030821202154,29.3201279138519,34.6526454662012
11167,9.77878719558088,24.2471717520306,29.3483775764864,34.5833666750859
11200,9.3314491589281,24.0757606195614,29.1776882878104,34.2195439922985
11233,9.02831765406542,23.8308413412179,28.9476063928182,33.902958706557
11267,8.99548949550483,23.6750195948819,28.8010055468654,33.8035179177437
11300,9.06727001728567,23.6865832100182,28.814784922789,33.8519793949709
11333,9.09851907691243,23.7886406905625,28.9454927309757,33.9101134963038
11367,9.06248087826993,23.8284967556281,29.0558684256231,33.8964152509038
11400,9.00824635364745,23.744469994907,29.0505717867874,33.8403741021868
11433,9.09170075468732,23.6326472022839,28.9808364381938,33.9094839698371
11467,9.48797275088568,23.6524595717534,28.9849550679816,34.2771608558113
11500,10.089114748078,23.8536117629784,29.1299136822119,34.8451422073476
11533,10.4693842534645,24.1249841198309,29.3546613771913,35.2372715057777
11567,10.3105236771044,24.2972021314051,29.519121481592,35.1701519938345
11600,9.75210676712897,24.2420511093938,29.4711986290935,34.7285666136059
11633,9.24195363260763,23.9743485520437,29.193742931946,34.252520529118
11667,9.05195595970227,23.6939141115715,28.8870023240636,33.9918876536568
11700,9.08035156307707,23.6107817705434,28.7803273880435,33.943607841398
11733,9.12187431612937,23.7423667974201,28.9100849747859,33.9969433305168
11767,9.09775911924853,23.9349194721683,29.1269864186617,34.056223503741
11800,9.04098112434956,24.0315365553491,29.2618674430511,34.0516234648401
11833,9.03999143929514,24.0029556841546,29.2740060278476,34.0083664681692
11867,9.22351802930897,23.961247968477,29.2514115625506,34.1054569649764
11900,9.63620245426944,24.0530527691855,29.304020625903,34.4706170000529
11933,9.98482380900727,24.2961757825029,29.460385809658,34.8273323449543
11967,9.75750664442386,24.4979125221793,29.5891452966639,34.6462771583049
12000,8.86528458297245,24.3826377270619,29.4646013650692,33.8453848945985
12033,7.8709309452351,23.8955089540568,29.0303716140902,32.9855229295312
12067,7.33099242331324,23.3566591112354,28.541076903634,32.5847842968986
12100,7.24660281019749,23.1554272348648,28.3284408402228,32.6014487030919
12133,7.31063799411265,23.332720379574,28.4629585631001,32.6971418614598
12167,7.33541717944876,23.620313246741,28.7351337393755,32.6838606183557
12200,7.35528612253764,23.7835545441604,28.935655259667,32.644936446868
12233,7.57470443512235,23.7970563848366,29.0385759822384,32.8087830889356
12267,8.17832783448294,23.7715859960546,29.1120997297142,33.3192558622617
12300,8.98183555152897,23.8102543370526,29.1853425809969,34.0011921790391
12333,9.4164728221702,23.9183413390581,29.2450516455513,34.4002071159703
12367,9.10019596293029,23.9766061782662,29.2540922229,34.2156196867851
12400,8.30396036426108,23.8225982489169,29.150963243948,33.6321671267368
12433,7.63606603310199,23.4420631059772,28.9208169633778,33.0929720883708
12467,7.38656246099169,23.040460403026,28.652606461419,32.8425521939944
12500,7.40418249699831,22.8481788772386,28.4528738794527,32.8099900774855
12533,7.45380368392257,22.8953072801232,28.3236583205309,32.8263123761967
12567,7.44122642181392,23.0115948584705,28.1574400184495,32.8110301364405
12600,7.40746109733601,23.0067236094065,27.8336588232978,32.7939813029201
12633,7.50425826924558,22.8520746026282,27.3817341919779,32.8693562881837
12667,7.89554121169219,22.711543832998,27.0557468826062,33.1321033819566
12700,8.50467518602455,22.7756997528979,27.1093886645353,33.5473675276175
12733,8.92200193894547,23.0580530413587,27.5095769806662,33.8488216695197
12767,8.77840530347191,23.3600352968,27.9432992232013,33.7390602233009
12800,8.19813471365763,23.4358296588582,28.0705107657327,33.2731884822561
12833,7.65404912663666,23.2365604066293,27.8207454733821,32.8356173715075
12867,7.41759922439226,22.9939091632299,27.4838773305563,32.6787514662326
12900,7.40141266801808,22.9793609561156,27.4071935719936,32.7242994327266
12933,7.43059960984392,23.1992735953837,27.6138305315211,32.7949805042241
12967,7.43209557516286,23.4098302270898,27.8469340745492,32.7975786514867
13000,7.43738134353675,23.3971498928502,27.9293444833134,32.7266797358819
13033,7.54672227956478,23.181436523031,27.9221452199436,32.6647644571787
13067,7.85924776141942,22.9675306051922,27.9540757868242,32.7642245115569
13100,8.29826088295347,22.9401759183268,28.05676043489,33.0775265303778
13133,8.56117545376081,23.1092863587304,28.1949863106129,33.3980171185797
13167,8.46155494987364,23.3138651264358,28.3154043802836,33.475585036667
13200,8.18167580091149,23.3605583611119,28.3320247377367,33.3418641679404
13233,7.99055485338415,23.1995850337178,28.2014675478529,33.1970399874591
13267,7.94556290762671,22.9783557429711,28.0269249686777,33.1233851562787
13300,7.96569830814311,22.8794653647526,27.9538035164431,33.0947666045757
13333,7.98204330269621,22.9205139863081,27.9823925222491,33.0905867645892
13367,7.966803379047,22.9641903315223,27.9900416327187,33.084565725925
13400,7.9279856531849,22.893338674517,27.898941858304,33.061315126396
13433,7.95013987830326,22.7343172101874,27.7588633755837,33.0971379765568
13467,8.18562691092697,22.6309706732289,27.6854597211858,33.3293522539541
13500,8.64724203147051,22.7120608663665,27.7470387730944,33.7692398156786
13533,9.02622160526906,22.9542739538832,27.9014995020537,34.1752562786435
13567,8.97009713999708,23.151148413545,27.9971698975816,34.257982830832
13600,8.5576345668657,23.0740187844787,27.8693064671926,34.0269687470031
13633,8.19969541658829,22.7357889817221,27.5354144508111,33.7530795995398
13667,8.1051755285098,22.4305415045497,27.2517922380953,33.6164028318027
13700,8.15309704074113,22.4233558061026,27.2703999536514,33.5945926670104
13733,8.18403399958913,22.6665374555453,27.5484061783203,33.6113965953379
13767,8.16119105790309,22.8898914676716,27.7861163414657,33.612996680096
13800,8.1241657071974,22.8996108682325,27.7810444837087,33.566017828266
13833,8.12042324285735,22.7418426227895,27.629155029832,33.4977240941722
13867,8.19839067657045,22.6221640572141,27.5475846926973,33.5153119668777
13900,8.38813126058044,22.6944872225923,27.63624318791,33.6919029393624
13933,8.58309972063553,22.9287014633769,27.830123057112,33.9245265405537
13967,8.59075122594599,23.1649686902578,27.9907569802589,34.0180394279949
14000,8.42212750963967,23.2638243399917,28.0293111502971,33.9331658481228
14033,8.29014810706815,23.2237596981445,27.9688047459311,33.8124651100149
14067,8.28905156465454,23.172488288112,27.9128017592292,33.7626184811689
14100,8.32524699808561,23.2271494116275,27.9755487177012,33.7606204090974
14133,8.31291049865705,23.3756397662327,28.16602612602,33.7512043452202
14167,8.26682998700521,23.4807513255254,28.3048210609724,33.7208645715692
14200,8.23772901651594,23.3934256712005,28.201914410438,33.690768681824
14233,8.25311120391398,23.1318170003365,27.9209830028696,33.6992991918292
14267,8.36811925836054,22.9303206172278,27.7243311028494,33.8098259486837
14300,8.64551851080784,23.0167407090551,27.8004510072876,34.0770327374531
14333,8.92789390987583,23.3695445025856,28.1165503112069,34.3899579891588
14367,8.88671338206647,23.7361411017931,28.4473788497108,34.4791244561574
14400,8.5071722537756,23.8540653102149,28.5401272693618,34.2732577825432
14433,8.14665534854798,23.686690461524,28.3659101165161,34.0089160162496
14467,8.02162978349511,23.45657486179,28.1664943433019,33.8708404349198
14500,8.029701650282,23.4003301979445,28.1740065348322,33.8271585601238
14533,8.0211591187833,23.530230205204,28.3612774520459,33.8035583619555
14567,7.97381221764623,23.656643554244,28.5039205386325,33.7740186475426
14600,7.95699975878869,23.5984741676132,28.4420718291576,33.7434597917666
14633,8.07187894187325,23.3812877382676,28.2495129838053,33.7861769381546
14667,8.42891739795225,23.2316871167473,28.1418963046837,34.040458171632
14700,8.97087556856125,23.3503327562339,28.2602042545109,34.4913596379272
14733,9.2452634498433,23.6911907419382,28.5431057920822,34.7544394867387
14767,8.73221137909757,23.9518862087294,28.7417132056376,34.3490624302449
14800,7.56752510759189,23.8148388693755,28.5892860693217,33.3073489315922
14833,6.50095527607151,23.2889218361756,28.0776679283337,32.2386087631473
14867,6.02601594688308,22.7604887360783,27.5445320403683,31.6683012316924
14900,5.99926125926387,22.5981894491095,27.358920485924,31.5777546631382
14933,6.07029884903173,22.7980029871273,27.5558847320053,31.6506658384849
14967,6.08445588850547,23.1056687433571,27.8982839623523,31.7042563870574
15000,6.16934703627943,23.3648718412675,28.2168824553054,31.8239232646123