NaiveD/Slimdog/Experiment/Scaffold/12-23/Min-support/Kinovea/Min_P1_R1_RB_J123_Anglar_Vel.csv
Time (ms),RB_Joint2,RB_Joint1,RB_Joint3
33,-6.739193439,33.67193985,45.54018021
67,2.921442509,-1.964225769,11.0449276
100,4.205585957,-23.20064735,-20.64824104
133,-1.046811819,-20.88500977,-38.59848785
167,1.821662664,-16.38630486,-50.7722435
200,13.15801716,-18.06899071,-50.24583817
233,15.03116322,-4.40915966,-16.37606049
267,4.315517902,24.04137611,40.68278885
300,1.361803055,34.51553726,72.28364563
333,12.26268196,22.37631226,57.78483582
367,16.26192856,8.529197693,26.04596901
400,4.625028133,-5.987343311,3.163640976
433,-4.336008549,-21.13499451,-6.126986504
467,-1.377888083,-20.99360847,-3.974043131
500,-0.88437283,-3.938082218,3.056577682
533,-9.227824211,13.09019375,3.623347044
567,-11.94866371,19.35190582,-7.727607727
600,-4.223105431,17.91654015,-19.93424606
633,-2.478948593,16.99057198,-16.03663445
667,-8.169897079,17.62578011,2.986397505
700,2.101819754,12.9656105,19.11585426
733,28.6376152,4.081106186,20.68348503
767,39.95434952,2.631808281,10.30193901
800,27.7608242,10.71062374,-3.642710686
833,16.43230629,12.02529812,-12.36001205
867,20.1863842,-5.869932652,-9.669395447
900,30.40359688,-29.84778976,3.491285086
933,32.8077507,-38.47349548,17.85445404
967,22.00758553,-30.13896179,21.45915413
1000,1.721310019,-16.7743969,12.91254044
1033,-23.26447678,-4.325763226,4.444711208
1067,-41.36286926,8.346012115,6.113667965
1100,-35.51568222,19.59799576,20.57017136
1133,-4.34123373,24.17436028,46.23225021
1167,33.98657227,25.13454819,71.0710144
1200,55.32965088,18.33967018,68.74533844
1233,49.25378799,-24.92882347,28.3537178
1267,31.81099129,-100.9271011,-7.238702774
1300,23.14460564,-134.2778625,2.74727273
1333,21.77143097,-66.03095245,23.48638916
1367,15.40777969,51.81152344,3.249086618
1400,1.910540462,120.0492096,-42.03598785
1433,-11.32882404,90.03186035,-64.25442505
1467,-21.99170494,-10.58522129,-46.24485016
1500,-28.79047585,-85.66859436,6.502681255
1533,-16.96024513,-76.05073547,73.83437347
1567,14.74388504,-32.70991135,112.7893982
1600,31.4257679,-16.52687073,92.22998047
1633,12.85916233,-19.53191376,39.33358765
1667,-14.1011982,-13.87590408,6.848561764
1700,-24.05213356,7.381317139,2.925642967
1733,-23.0346756,35.35821152,-1.151979566
1767,-22.5990448,53.17435074,-22.5037632
1800,-20.24703598,50.86168289,-50.10639954
1833,-7.40508604,36.24740219,-61.84760284
1867,13.27245712,22.1091156,-50.82019043
1900,25.21845627,11.49479771,-22.01332283
1933,16.84549904,-1.683504939,19.71694374
1967,0.069258109,-19.22670746,60.42863083
2000,-0.005225095,-25.28904724,76.07019806
2033,17.6938076,-8.809509277,56.90721893
2067,23.94916916,6.622345924,21.65432739
2100,-0.750057161,-19.82810593,-5.622611523
2133,-43.15794754,-98.85263824,-14.95790958
2167,-69.36886597,-170.1692352,-11.05445576
2200,-50.73464203,-159.0493164,-9.774922371
2233,8.971076965,-80.71940613,-22.5873661
2267,66.12612915,-1.604206443,-40.62418747
2300,71.97085571,49.60745621,-36.22322083
2333,30.22871017,65.19944763,3.121430397
2367,-2.066985846,34.47701645,42.85571289
2400,9.023839951,-17.8650074,40.95572281
2433,31.95606422,-42.75336075,11.96792507
2467,34.86848831,-36.74450302,-3.302976847
2500,31.8711319,-39.43727112,-3.46393013
2533,30.22932434,-73.08677673,-16.78638268
2567,0.354691684,-113.0794449,-57.14706421
2600,-69.22502136,-105.4698639,-85.86991882
2633,-131.4729004,-27.35244751,-54.22439194
2667,-127.3908844,77.16828918,2.382540464
2700,-55.0182991,137.9742432,22.66635704
2733,27.69894218,118.9295044,17.04333496
2767,62.94948196,46.53622818,17.42845535
2800,45.2740097,-11.75717926,20.49855804
2833,12.43090916,-16.57389641,11.63720703
2867,-5.793297768,10.83110809,-3.721906662
2900,-6.395925522,25.75551414,-12.39546013
2933,9.15200901,1.382191181,-24.50210571
2967,35.75603867,-46.71060181,-56.26033401
3000,45.37041473,-60.08992004,-76.60694885
3033,7.7397995,6.656155586,-38.6152916
3067,-63.69564438,113.0156174,24.03983879
3100,-115.5777588,152.5397644,47.59548569
3133,-105.3716125,83.97290039,39.40130997
3167,-35.89260483,-6.158337116,29.21750069
3200,47.27911377,-22.74329948,23.54837227
3233,89.80277252,19.23142052,19.78763771
3267,75.26481628,45.0252533,10.98427486
3300,34.66921616,31.33571243,-0.760404885
3333,6.776537418,6.611588478,-6.198498726
3367,3.825588942,-14.77431393,-13.22461128
3400,8.214155197,-28.08119392,-35.89188766
3433,-9.662633896,-17.28338242,-53.46408844
3467,-59.02994537,12.72822762,-34.38501358
3500,-110.1356659,34.86141968,12.59370708
3533,-108.9622269,32.99001694,52.16918564
3567,-34.91080093,6.671933174,53.78568649
3600,48.84331131,-23.47655296,15.29180336
3633,64.35943604,-25.38832283,-26.32689476
3667,25.66935158,-4.094117641,-34.08000946
3700,2.877387762,5.024594307,-11.82141781
3733,19.18418884,-5.124793053,10.47129345
3767,39.93478012,-12.7947197,14.90688801
3800,25.96892357,-7.023448944,10.5073576
3833,-31.58928299,8.248784065,10.29579258
3867,-101.1792908,27.28974533,4.022195816
3900,-127.7846603,39.58480072,-6.767624378
3933,-84.13974762,32.99739075,10.17817593
3967,-5.998254776,10.50694752,45.94353867
4000,40.23430252,-10.43768978,51.56010437
4033,31.51935959,-18.78493118,19.2705574
4067,5.404027939,-19.62750244,-18.12400818
4100,-7.311341763,-18.18865585,-32.36966705
4133,-17.48685265,-6.965563297,-19.74368477
4167,-32.78085709,13.65184021,-5.046826363
4200,-34.59545135,25.0331192,-8.952123642
4233,-7.745383263,23.3436718,-14.90268707
4267,46.45631409,27.32744789,-1.622238159
4300,104.0947952,36.07097626,22.48060989
4333,119.3336792,26.42258453,37.11988831
4367,77.2864151,-1.864436746,31.45168877
4400,17.65088081,-26.55925751,14.23746014
4433,-8.602861404,-37.67374802,4.717133045
4467,11.86916065,-37.94791412,6.990869045
4500,34.91766357,-27.76389694,7.544831753
4533,9.180388451,-9.711708069,-4.789669514
4567,-58.81305313,4.19708252,-23.88892555
4600,-101.9059372,5.508274078,-33.05743027
4633,-54.30921936,9.342673302,-22.26320457
4667,47.78799438,43.37115097,-0.978219688
4700,96.29377747,90.52629852,12.7478981
4733,69.71740723,84.31622314,26.06492233
4767,30.59836006,27.8542614,49.3782692
4800,8.744041443,-13.38013458,60.00037766
4833,-3.687277555,-39.25603104,42.15882874
4867,-9.041154861,-71.84320068,12.63571262
4900,-5.341992855,-79.29234314,-7.421068668
4933,2.88404727,-38.4497261,-10.06660557
4967,3.403892756,10.41084671,-8.219175339
5000,-24.34976006,23.40842247,-27.32703781
5033,-79.78954315,10.37375832,-62.09143829
5067,-102.2680588,1.692725658,-67.84661865
5100,-35.39386749,-1.343156576,-19.03819466
5133,65.75950623,-9.444101334,51.60272598
5167,99.0690155,-7.889278412,90.1960907
5200,54.19006729,14.48601151,74.82191467
5233,-2.711414099,31.39749146,29.02570915
5267,-25.17542648,17.12458038,-6.173295498
5300,-15.98233509,-12.95577526,-13.22102547
5333,0.098866984,-24.78846169,-10.1194706
5367,-4.104260445,-2.229783297,-25.90448189
5400,-48.33539963,40.42419815,-56.84472275
5433,-120.5569077,67.00435638,-68.570961
5467,-152.2167358,56.58797836,-40.87242889
5500,-67.07510376,23.75164032,15.70663452
5533,88.83377838,-5.643716812,62.09020996
5567,169.8568573,-15.67507935,60.85544968
5600,124.214325,-11.38968086,26.2989254
5633,31.67001534,-12.31769848,1.135587096
5667,-22.47374535,-19.53775406,1.372150779
5700,-20.62897873,-21.52165031,12.60231304
5733,-1.2685709,-21.91035652,4.212553024
5767,-18.9441433,-21.54378128,-35.6520462
5800,-96.034935,-9.305789948,-69.52766418
5833,-178.2752075,16.54059982,-61.30070877
5867,-156.6885376,36.35292816,-23.4564724
5900,-0.550018013,21.79765892,17.10357666
5933,164.1490021,-13.30268002,49.81133652
5967,202.4951019,-19.86211967,68.042099
6000,128.3264771,-0.536647916,62.51200867
6033,39.03791046,1.76382792,37.02993393
6067,-12.49453259,-4.240932465,7.141269684
6100,-26.62062645,19.26358986,-16.8578949
6133,-12.65661335,57.34326172,-32.91963196
6167,11.41293812,68.84030914,-43.53876495
6200,8.998944283,59.44538879,-51.06474304
6233,-30.50102997,50.72050476,-55.50361633
6267,-62.96648788,24.01289368,-48.4780159
6300,-50.17811966,-31.42494965,-10.56780434
6333,-7.812233925,-74.63565826,52.84219742
6367,26.60525894,-66.58839417,91.63452911
6400,33.0196228,-29.07058334,66.3912735
6433,15.14888191,-12.2191391,5.612673283
6467,-6.741088867,-12.53571892,-29.3650322
6500,-14.54133606,14.29176044,-25.1576004
6533,-6.125654697,67.85799408,-15.42704105
6567,9.280382156,103.6656647,-17.30059433
6600,15.55715561,96.66035461,-22.4338913
6633,3.975784779,55.21715927,-31.19904137
6667,-12.76203728,1.113662243,-39.32979584
6700,-16.64827728,-42.11180115,-14.93506241
6733,-4.532205582,-61.80979538,41.72842407
6767,11.00660992,-60.01461792,71.25235748
6800,12.87145615,-47.44406128,45.08180618
6833,4.085614204,-25.7097187,-0.006556981
6867,10.77639866,19.36870766,-24.4887886
6900,35.36138916,78.72905731,-22.53665161
6933,42.93275452,104.8725586,-14.09453869
6967,17.08206177,70.80351257,-22.52937698
7000,-15.54732037,20.63789368,-44.02818298
7033,-29.97636795,0.923919678,-47.73759079
7067,-29.94880867,-13.32194138,-18.98389435
7100,-22.81276131,-44.92290115,22.43317413
7133,-6.624087811,-57.29592896,44.43840408
7167,13.69282055,-25.93306541,32.16537476
7200,25.27839088,13.37808609,2.892243385
7233,24.4634819,25.10627174,-14.28202724
7267,16.67952538,27.46575928,-10.72230339
7300,5.582039833,44.25224686,-2.409280777
7333,-5.204296589,51.28952789,-9.959644318
7367,-8.473566055,20.98049545,-35.19849014
7400,-2.824009895,-13.37316799,-52.1349678
7433,-2.916012526,-1.255661845,-37.23064041
7467,-17.22211456,31.50875473,1.07288599
7500,-25.39006615,17.33317375,40.07370758
7533,-8.251652718,-27.64197922,62.24522018
7567,19.59512711,-30.34980965,55.471035
7600,27.39281273,2.165852785,26.73680878
7633,9.179875374,9.421972275,-0.397004724
7667,-8.762687683,-2.703525305,-15.06200123
7700,-7.44535017,7.17149353,-21.74294853
7733,1.836057305,9.741624832,-23.7364769
7767,3.631748199,-57.91064835,-20.10380554
7800,-0.930886507,-154.8009033,-13.60962963
7833,-7.590833187,-170.4233093,-12.92473221
7867,-17.04425812,-114.8606949,-17.49884033
7900,-23.79384995,-79.24152374,-10.5373764
7933,-17.14127922,-51.87555695,12.01536083
7967,0.198348686,11.80912304,26.89806938
8000,11.65359974,55.12351608,23.16591644
8033,9.452810287,24.42618942,16.73567009
8067,0.148556605,-33.0643959,17.39628601
8100,-5.37600708,-51.53110886,19.99162102
8133,3.16200161,-8.769552231,17.64555359
8167,20.82138634,82.22249603,4.575543404
8200,22.56175232,154.6314392,-21.89775467
8233,-2.82964468,137.0204163,-49.64618301
8267,-28.88268471,50.42707825,-52.02708435
8300,-22.86675453,-29.80803871,-15.66473198
8333,10.98570919,-58.57720566,30.88399887
8367,36.5133667,-40.94588852,42.60593033
8400,30.47859192,-11.84703064,18.18896294
8433,6.154853821,-0.817368686,-4.874090672
8467,-11.95614243,-9.295340538,-4.229867458
8500,-17.18625641,-21.34194946,10.91522217
8533,-15.03065109,-24.87882614,14.72493172
8567,-9.654437065,-14.38970566,-9.588560104
8600,-7.394123554,9.733018875,-43.7013588
8633,-14.02599716,35.76546097,-51.91950989
8667,-22.49966621,43.12915802,-18.49078941
8700,-18.30422211,21.59336853,43.42248154
8733,2.419628382,-11.6572876,92.5934906
8767,24.0045948,-26.05949211,88.90692902
8800,26.37330437,-12.95454597,43.66047668
8833,10.13750267,4.879828453,4.897142887
8867,-9.082238197,5.559295654,-7.883131027
8900,-21.39409828,-4.924088001,-16.29860687
8933,-21.42042732,-5.261567593,-32.04591751
8967,-12.68468475,13.84813976,-40.55646515
9000,-12.10449409,39.01874924,-38.52246857
9033,-21.64766884,43.83751678,-37.312603
9067,-19.1734314,10.96634579,-35.02647018
9100,6.053527832,-42.12880707,-14.82605267
9133,35.03425598,-69.2999115,24.26605606
9167,39.93498611,-48.25405502,49.88285065
9200,14.48970032,-6.891797066,39.36555099
9233,-18.89189148,20.72395325,16.22566032
9267,-34.96161652,31.48191261,8.125329971
9300,-26.25251389,29.44064331,10.48153877
9333,-2.557325125,13.92866707,8.624171257
9367,14.18695068,2.748399496,-2.904332876
9400,6.474608898,14.99233341,-21.80093765
9433,-18.6543045,33.52030945,-42.70592499
9467,-33.76507187,20.62826157,-52.14162827
9500,-17.56983948,-28.88043022,-28.32195854
9533,20.50695801,-72.27596283,20.43605995
9567,44.11936569,-71.08402252,50.25403595
9600,29.73201752,-40.30064011,41.04270554
9633,-3.638407707,-19.53529549,14.76540089
9667,-22.07366753,-12.80393982,-2.773090839
9700,-17.34536552,-1.6931355,-4.97797823
9733,-0.821056962,5.938985825,-2.29412365
9767,14.51121521,-5.794937134,-14.12189293
9800,13.31251621,-25.36936951,-41.74040985
9833,-7.77780962,-34.15879822,-54.22664261
9867,-25.73748207,-31.68210602,-28.20598221
9900,-18.94055748,-25.80500031,17.7424736
9933,4.099547386,-21.32268715,42.75571823
9967,19.20969963,-16.62522507,32.23350525
10000,16.41130447,-11.85112858,10.52866745
10033,6.389675617,-29.13707542,-1.491713166
10067,-0.347622454,-90.24157715,-7.047115326
10100,-5.912655354,-150.670105,-11.71210003
10133,-10.06342888,-135.182312,-13.43556213
10167,-5.128788471,-55.38722992,-16.15875816
10200,3.26363492,12.50129414,-25.68697357
10233,-1.755939126,33.00220871,-27.49926186
10267,-15.77671242,19.11687851,-3.955294132
10300,-16.45914841,-7.539402008,35.61751938
10333,-0.386554539,-25.27081108,63.54903793
10367,15.60203075,-21.2284317,54.63348389
10400,21.00897789,-5.9710536,15.34999657
10433,22.42098236,2.391248941,-16.41232872
10467,26.55597878,1.25197351,-22.52620125
10500,18.88973999,-1.930518866,-18.70429993
10533,-9.879526138,-4.022400856,-21.27853012
10567,-31.8575058,-5.409714222,-29.64431953
10600,-26.56499481,-1.809624434,-34.71245193
10633,-16.37093735,13.7472229,-29.36554527
10667,-18.91453362,34.37128448,-11.34542179
10700,-18.85541916,38.20261002,11.76558018
10733,-3.259844065,16.6770668,20.93613243
10767,16.05569077,-11.84672356,6.02996397
10800,22.00696945,-24.97728348,-13.22471428
10833,13.95930099,-18.56558037,-12.73601341
10867,3.27306056,-4.989247799,-0.519845665
10900,-3.572120428,1.298077345,-0.228572279
10933,-6.634742737,-2.460302114,-12.54627132
10967,-5.755595207,-6.218374729,-15.58830166
11000,-5.058608532,-0.084728487,-3.425305605
11033,-11.9362669,11.50545311,1.969348431
11067,-20.30963326,13.16938972,-9.454449654
11100,-12.3532505,1.147983909,-12.0830822
11133,12.68007469,-9.419000626,13.62192345
11167,29.89030838,-6.927553177,44.78059387
11200,20.66832161,2.658548355,49.0145607
11233,-3.198474884,7.791743279,23.78206825
11267,-18.18599129,2.606194973,-8.048694611
11300,-15.32274437,-9.861186981,-21.31049538
11333,-0.807225883,-17.09066772,-9.867436409
11367,12.38511276,-9.033163071,6.27472353
11400,11.52389431,9.664682388,3.186385393
11433,-4.35065937,27.23083496,-22.19650841
11467,-20.79321098,33.58260345,-52.71792221
11500,-22.85287285,20.7094059,-54.27202988
11533,-10.41699409,-7.526185513,-0.48347494
11567,7.841074467,-28.63495255,71.82865143
11600,22.49044609,-21.15312767,87.61643219
11633,21.42462921,5.09344244,41.53826904
11667,4.207839966,13.8657608,-4.224027634
11700,-9.937822342,-8.643125534,-17.26780891
11733,-8.814426422,-30.46588898,-12.20756245
11767,-0.714915872,-18.74497414,-9.491845131
11800,4.043711185,14.32229137,-14.27618694
11833,1.52101469,34.16135788,-21.22556305
11867,-9.753918648,32.35890961,-26.14258194
11900,-21.95615387,21.28242302,-22.6223011
11933,-16.09616089,3.772108555,3.333507776
11967,16.92070007,-20.43401146,41.72883224
12000,53.21779251,-40.95275116,44.68152237
12033,50.70646667,-44.49137115,1.590067983
12067,6.702976704,-29.11760902,-29.99255562
12100,-28.10383606,-8.645482063,-14.41931438
12133,-20.57416725,3.522328377,15.99544907
12167,4.792128563,10.44547558,16.42790031
12200,11.99712372,21.67010498,-14.5755558
12233,-4.966913223,36.45066833,-43.80585861
12267,-29.89061546,41.92840958,-48.65628433
12300,-41.03809357,24.758955,-27.7705574
12333,-21.89422035,-11.15117073,10.6773262
12367,26.18110466,-49.07910538,44.87802887
12400,75.61546326,-70.28991699,49.13033295
12433,86.32439423,-49.96071243,25.77743912
12467,49.66534042,11.30587482,6.297365665
12500,3.784710169,63.31759644,5.987753391
12533,-16.9395504,63.14588547,2.311540604
12567,-20.08229065,33.56446838,-20.67252159
12600,-26.54142952,29.09844971,-42.73512268
12633,-36.21809769,61.23892975,-44.07500076
12667,-37.99422073,88.09211731,-28.38660622
12700,-26.85503769,64.4752121,-2.909250498
12733,-2.337358713,-2.274862528,30.38402748
12767,29.9850769,-51.66583633,55.16654587
12800,50.72675323,-47.02124023,43.17587662
12833,40.18722534,-19.55066299,4.309985638
12867,9.691115379,-9.704741478,-17.7833519
12900,-7.495552063,-11.94856167,-11.20403671
12933,-2.330596924,-8.008840561,-1.432700396
12967,5.270685673,-10.31618023,-10.2671051
13000,0.75692153,-35.85613251,-37.24908066
13033,-20.91441345,-61.79852676,-62.20444489
13067,-61.77772903,-49.42150497,-59.46741867
13100,-98.13859558,-8.595894814,-21.78659439
13133,-94.21916199,9.3475914,26.46735764
13167,-47.29371262,-12.0442524,47.87794876
13200,12.08292866,-32.68942261,34.06628036
13233,51.32518005,-22.68131447,14.13879776
13267,62.66650772,-0.245374545,6.711172581
13300,57.683918,11.88288879,-1.227692246
13333,43.39850616,17.5616436,-16.78709984
13367,28.73668861,25.60296249,-29.34905052
13400,24.80721092,29.91868782,-37.94207382
13433,18.14132309,23.5925312,-45.11090469
13467,-11.85789013,17.17529488,-35.76197815
13500,-50.22995758,19.59328461,-2.456614017
13533,-62.30187607,18.24746323,33.7682457
13567,-38.15415192,2.268100739,46.64123917
13600,-1.420303583,-13.47090816,29.51574135
13633,18.41210556,-12.41093063,2.70250082
13667,18.11488914,-7.470655918,-7.349966526
13700,12.5632782,-13.53155994,-1.067968249
13733,6.266834736,-13.70972538,0.66973412
13767,1.188555241,7.058487892,-8.269377708
13800,6.164689064,29.0208931,-18.0496273
13833,13.12973976,31.78476334,-25.09059525
13867,1.558000207,21.29000473,-22.91254997
13900,-24.40303421,6.142662048,1.311498642
13933,-37.86369705,-9.857704163,36.8071022
13967,-22.67911148,-19.02518272,52.88184738
14000,8.401234627,-22.98109245,38.59121323
14033,24.86033249,-26.51305008,9.296774864
14067,12.80312061,-22.0935421,-15.26926327
14100,-12.015975,-7.648616791,-21.58199501
14133,-27.98990822,8.229420662,-14.45548058
14167,-21.8564167,22.6204586,-19.01688385
14200,4.970601559,34.0813446,-40.46538544
14233,22.8964138,38.16716385,-47.10996246
14267,4.890073299,31.78138161,-23.16642952
14300,-23.5710659,8.938804626,10.07879734
14333,-18.50395393,-28.06008911,35.66434097
14367,13.97057056,-53.51060104,49.90549088
14400,36.52376556,-45.7405777,45.90275955
14433,36.5949707,-20.17255211,28.55688286
14467,25.57601738,-9.473505974,13.99925709
14500,12.79656315,-20.2057476,1.326764107
14533,1.761164188,-26.43344498,-20.31055641
14567,-1.567733169,-9.586920738,-44.79012299
14600,3.515464067,15.49793816,-48.50383377
14633,-1.457596421,27.78377342,-15.81154633
14667,-29.73498917,25.74178505,29.87155914
14700,-54.02588654,12.6439085,39.94697189
14733,-31.12271309,-14.76570797,15.30235577
14767,40.22057343,-46.94501495,-1.992400289
14800,98.2101593,-55.86886215,-13.09716034
14833,75.38212585,-33.05425262,-23.30474091
14867,-10.19948673,-8.222659111,-10.09508705
14900,-66.48809052,-5.444036007,18.10525894
14933,-39.84544373,-15.52047825,27.00605392
14967,28.05824471,-23.34602928,0.293629795
