NaiveD/Slimdog/Experiment/Scaffold/12-23/Min-support/Kinovea/Min_P1_R1_RB_EE_J123o_V_Vel.csv
Time (ms),RB_End_Effector,RB_Joint2 - o,RB_Joint1 - o,RB_Joint3 - o
33,0.006712514,0.059485812,0.063760467,0.100305527
67,0.008048665,0.075137608,0.077254198,0.103628032
100,0.004982436,0.093626395,0.103258312,0.108935378
133,-0.001502734,0.12472114,0.142659754,0.117597759
167,-0.002448571,0.176118568,0.181533903,0.126469359
200,0.016935503,0.2073057,0.19004114,0.12362916
233,0.070399024,0.156700507,0.144426718,0.098343439
267,0.151145205,0.034628104,0.051238913,0.05903184
300,0.214572906,-0.074128531,-0.049732585,0.026166199
333,0.209520593,-0.115104377,-0.110796824,0.008304262
367,0.138366804,-0.108125485,-0.113687888,0.003496957
400,0.05525545,-0.086482428,-0.078846924,0.011505102
433,0.004048598,-0.057530589,-0.039319322,0.025877306
467,-0.012322693,-0.0265048,-0.015119075,0.032657858
500,-0.011038417,-0.007400608,-0.003711033,0.030172704
533,-0.005001622,0.003192615,0.013942336,0.032166623
567,0.003207117,0.02864456,0.048518654,0.045187138
600,0.015749877,0.069794647,0.081519984,0.05466928
633,0.030829363,0.085193254,0.076755516,0.037719723
667,0.040979806,0.038731381,0.016317558,-0.010378504
700,0.041861072,-0.050939936,-0.074420922,-0.064054005
733,0.036208712,-0.130603403,-0.143134102,-0.088411905
767,0.026919756,-0.160733417,-0.154528424,-0.072228454
800,0.015487896,-0.137731642,-0.118944734,-0.035744045
833,0.005363631,-0.095959276,-0.080201909,-0.010800433
867,-0.001349223,-0.077350326,-0.070799731,-0.014534567
900,-0.006511294,-0.084112644,-0.081641868,-0.035800263
933,-0.012456141,-0.079824828,-0.08170338,-0.050344914
967,-0.020034885,-0.038741969,-0.056358144,-0.053692386
1000,-0.029048286,0.017070865,-0.020569324,-0.068461344
1033,-0.038480576,0.034093376,-0.006351184,-0.109557502
1067,-0.049523231,-0.019529628,-0.039807126,-0.157549083
1100,-0.063285001,-0.120813549,-0.113915339,-0.183489263
1133,-0.070503056,-0.201906949,-0.175885111,-0.180245444
1167,-0.058476999,-0.202992141,-0.164515406,-0.153410837
1200,-0.031459834,-0.138930693,-0.091677465,-0.110987194
1233,-0.006615212,-0.083823681,-0.056623932,-0.0731031
1267,0.006435281,-0.07496538,-0.110809982,-0.058736082
1300,0.008377021,-0.08002539,-0.16390571,-0.058088847
1333,-0.000350511,-0.05680389,-0.116812699,-0.044330262
1367,-0.022527328,0.001562691,-0.001241684,-0.015106951
1400,-0.057182156,0.069040768,0.083516695,-0.002797186
1433,-0.094665974,0.09893617,0.081840135,-0.032411419
1467,-0.117514059,0.047618002,0.00090065,-0.085812949
1500,-0.104577199,-0.07527408,-0.114625156,-0.12753509
1533,-0.05092432,-0.189744741,-0.204701602,-0.145949408
1567,0.012274235,-0.222248822,-0.221587926,-0.14554368
1600,0.044377536,-0.18221283,-0.165107638,-0.125915006
1633,0.03998081,-0.125807181,-0.087063506,-0.094483614
1667,0.022645731,-0.081281945,-0.040437412,-0.071399711
1700,0.006636708,-0.04391098,-0.027040957,-0.061959747
1733,-0.017435133,-0.01166439,-0.015117072,-0.053805228
1767,-0.069217995,0.007886982,0.00611515,-0.047456592
1800,-0.152389273,0.015097331,0.019461535,-0.057733927
1833,-0.237925857,0.011398315,0.005999851,-0.086949766
1867,-0.287896127,-0.023034953,-0.045701694,-0.122121722
1900,-0.284801602,-0.107028,-0.12743853,-0.152308077
1933,-0.216578633,-0.20480144,-0.192615494,-0.164697364
1967,-0.079666607,-0.230761796,-0.180001259,-0.134345517
2000,0.071177669,-0.141998574,-0.082172014,-0.055669319
2033,0.14613378,-0.012738131,0.022845555,0.02427263
2067,0.122593716,0.040596772,0.046447273,0.048223037
2100,0.058707543,0.007811164,-0.013108348,0.017977631
2133,0.004846751,-0.019447802,-0.084278584,-0.015504204
2167,-0.039007973,0.007937049,-0.102810279,-0.020555127
2200,-0.08814951,0.049685091,-0.060528368,-0.014623438
2233,-0.137152031,0.057318874,-0.00672655,-0.029863212
2267,-0.159699187,0.021035958,0.006116008,-0.066193089
2300,-0.127833724,-0.035757922,-0.018660448,-0.090015285
2333,-0.037973568,-0.061265081,-0.033548925,-0.070632286
2367,0.066055581,-0.015640926,-0.001988983,-0.006735205
2400,0.11900124,0.070972249,0.061057657,0.067149311
2433,0.101659939,0.117626943,0.099619955,0.104178928
2467,0.052183911,0.090408608,0.082318209,0.094363615
2500,0.010569048,0.047888942,0.043100167,0.073764212
2533,-0.013669394,0.059310433,0.031855486,0.076114915
2567,-0.026049756,0.115880862,0.052233692,0.092544213
2600,-0.025009988,0.154605672,0.076766677,0.082537755
2633,-0.002050066,0.133842364,0.088029385,0.028802222
2667,0.038366817,0.064251415,0.083189681,-0.027693305
2700,0.073107824,-0.004759311,0.066167735,-0.037455294
2733,0.083571441,-0.021414757,0.049003024,-0.002481973
2767,0.071558826,0.023264691,0.051996227,0.046160728
2800,0.048742924,0.086671256,0.082428649,0.087398425
2833,0.025178967,0.115384474,0.112412728,0.109120041
2867,0.007742106,0.094097033,0.110949032,0.108868562
2900,-0.001370573,0.061013598,0.089772604,0.100453481
2933,-0.004705488,0.068118952,0.082052708,0.101440094
2967,-0.004885053,0.11875619,0.095118992,0.108441211
3000,0.000839066,0.157106206,0.109863557,0.088236935
3033,0.023007093,0.127987564,0.106499285,0.01714121
3067,0.068782419,0.036761567,0.074296467,-0.066185579
3100,0.118153803,-0.053873058,0.016448019,-0.090172745
3133,0.131307453,-0.078168862,-0.033457372,-0.041249443
3167,0.097178839,-0.02264986,-0.026119135,0.025072569
3200,0.047373783,0.059688658,0.037935447,0.060274534
3233,0.012713437,0.095095247,0.088293746,0.059736922
3267,-0.003451842,0.064350985,0.07295265,0.042396631
3300,-0.009404074,0.019604586,0.031338211,0.031675324
3333,-0.009642988,0.016031455,0.031671237,0.040598825
3367,-0.006759703,0.05356092,0.074485585,0.057996649
3400,-0.002753967,0.087788202,0.104657352,0.053903583
3433,0.006745683,0.074877545,0.084061146,0.009310502
3467,0.030629413,0.009092617,0.020407105,-0.054202918
3500,0.066889875,-0.067056648,-0.046412081,-0.087730147
3533,0.095618419,-0.086097911,-0.069330879,-0.064116791
3567,0.096838087,-0.017820166,-0.029804418,-0.002277875
3600,0.071636111,0.076581568,0.03734922,0.054260336
3633,0.03881783,0.10039214,0.07056541,0.072032347
3667,0.01472555,0.042505644,0.046543688,0.048868541
3700,0.002652425,-0.014259337,0.006897639,0.014102571
3733,-0.002744961,-0.003601742,0.006737136,0.004693007
3767,-0.008404959,0.053438753,0.048916049,0.027779263
3800,-0.01726643,0.085906222,0.086247824,0.045983233
3833,-0.022625001,0.055283543,0.077618979,0.014618664
3867,-0.009554752,-0.012999915,0.023453234,-0.058469597
3900,0.029469036,-0.066400617,-0.040169906,-0.106114104
3933,0.078175239,-0.065487951,-0.065361783,-0.075078942
3967,0.10461729,-0.008478641,-0.029559229,0.009866917
4000,0.091992483,0.057145208,0.034006689,0.079410642
4033,0.055586256,0.076676838,0.063177392,0.094205201
4067,0.023503803,0.049865909,0.039268967,0.066190369
4100,0.008084526,0.022067642,0.010379505,0.034086261
4133,0.002862194,0.027791975,0.030297086,0.031394165
4167,-0.001325306,0.065286823,0.09357518,0.057841584
4200,-0.006105762,0.100774661,0.138554469,0.074202344
4233,-0.005529481,0.087097548,0.109221831,0.036570843
4267,0.009707986,0.01076374,0.013181876,-0.050356861
4300,0.041149653,-0.077775471,-0.084912874,-0.118908271
4333,0.072662957,-0.105925933,-0.119684309,-0.103702135
4367,0.081983499,-0.05122089,-0.075409122,-0.019769309
4400,0.064354055,0.03194904,-0.001307487,0.054890048
4433,0.036016647,0.063199706,0.032717798,0.0680537
4467,0.015331809,0.024516104,0.011136818,0.036300942
4500,0.006331872,-0.021311473,-0.016380213,0.009489798
4533,-0.00287143,-0.013227653,-0.000311565,0.016129088
4567,-0.030488042,0.03909187,0.052889436,0.039505109
4600,-0.082235247,0.078833193,0.087498665,0.03293341
4633,-0.130979002,0.061664481,0.057407852,-0.033277165
4667,-0.126347288,-0.014233302,-0.019277286,-0.126413465
4700,-0.045754973,-0.107519239,-0.075215429,-0.171851829
4733,0.070398435,-0.153106779,-0.064424224,-0.133754179
4767,0.150102228,-0.111124128,-0.008581924,-0.050804254
4800,0.153717294,-0.019640064,0.019279575,0.013606264
4833,0.102158003,0.030066201,-0.036441419,0.028095476
4867,0.043708023,-0.003277874,-0.137959659,0.00291937
4900,0.000796544,-0.066911027,-0.180232137,-0.029894497
4933,-0.045543157,-0.087102413,-0.122189417,-0.046462547
4967,-0.123460568,-0.050006386,-0.032612227,-0.056567378
5000,-0.220611989,-0.004074669,0.007958793,-0.090484858
5033,-0.274906158,-0.006413268,-0.018471336,-0.146016166
5067,-0.2385059,-0.071678922,-0.087690637,-0.176979408
5100,-0.132089987,-0.156627834,-0.160775185,-0.15593721
5133,-0.012009232,-0.190594748,-0.186653405,-0.105599202
5167,0.07634607,-0.140144333,-0.133153141,-0.054163437
5200,0.106379442,-0.048462577,-0.037584685,-0.01229047
5233,0.083172083,0.001418781,0.011935328,0.005186266
5267,0.04204645,-0.026884459,-0.023656938,-0.009202712
5300,0.007511673,-0.079809375,-0.080450252,-0.028284393
5333,-0.030089887,-0.080632783,-0.071616836,-0.022911498
5367,-0.091898814,-0.024127863,0.004119873,-0.011165107
5400,-0.171677068,0.03013172,0.067831703,-0.036274835
5433,-0.223050103,0.030400369,0.053552337,-0.10214527
5467,-0.200399667,-0.029183863,-0.031069562,-0.158813477
5500,-0.108121768,-0.104983509,-0.12119922,-0.155309126
5533,0.005079567,-0.128035635,-0.145569697,-0.088793099
5567,0.08504916,-0.068316363,-0.078485005,0.001331985
5600,0.103738755,0.023320196,0.025948046,0.067676991
5633,0.075145625,0.062447257,0.074519061,0.08204212
5667,0.036697697,0.02673454,0.039708707,0.051862013
5700,0.008087772,-0.018795203,-0.011170864,0.014934646
5733,-0.022567444,-0.00680952,-0.007806587,0.002959942
5767,-0.073649719,0.052627083,0.046040148,0.005375647
5800,-0.134134427,0.094043531,0.09077768,-0.017286515
5833,-0.156990945,0.068152137,0.070783995,-0.071907513
5867,-0.105147734,-0.014938258,-0.017288875,-0.109847508
5900,-0.001315212,-0.091789044,-0.111041442,-0.089753971
5933,0.088984318,-0.099825658,-0.125447839,-0.025437281
5967,0.119823389,-0.032036301,-0.036913775,0.044696402
6000,0.095792368,0.059671778,0.076190755,0.089340478
6033,0.051904496,0.099949256,0.112915985,0.089075871
6067,0.018501556,0.057132334,0.067019455,0.053684484
6100,0.002088117,-0.00654087,0.019109629,0.024709795
6133,-0.011428284,-0.000337315,0.026535986,0.030626783
6167,-0.039662108,0.079690643,0.073142618,0.04841591
6200,-0.08173874,0.147846207,0.109318249,0.032767545
6233,-0.105711356,0.132546887,0.095434278,-0.020801138
6267,-0.07141041,0.046326537,0.024869725,-0.063259147
6300,0.021229004,-0.042739965,-0.058448691,-0.047921345
6333,0.119674146,-0.069663331,-0.081862733,0.016662275
6367,0.164558887,-0.012563609,-0.016883468,0.08056958
6400,0.140911624,0.07656154,0.074344248,0.103758961
6433,0.082505733,0.104984373,0.099902049,0.082749084
6467,0.032099441,0.047130771,0.04820909,0.043521773
6500,0.005254841,-0.019119071,-0.004287529,0.02063638
6533,-0.009778511,-0.011079883,0.006344032,0.032056365
6567,-0.031552538,0.065038197,0.065915965,0.058054373
6600,-0.063909762,0.130894944,0.109986298,0.053671017
6633,-0.084152676,0.119260587,0.089071654,0.003733384
6667,-0.061991211,0.032722946,0.010957718,-0.049342271
6700,0.001447677,-0.06769409,-0.068379588,-0.057088919
6733,0.06749659,-0.109932795,-0.091942109,-0.018688362
6767,0.097010553,-0.062150568,-0.046769995,0.035354357
6800,0.082690641,0.027265832,0.023675822,0.075007416
6833,0.046662495,0.075002283,0.057524867,0.077518821
6867,0.015504401,0.065748595,0.040742684,0.042851292
6900,0.000105911,0.050204366,0.0188138,0.006546842
6933,-0.004752391,0.057360932,0.034850977,0.00943011
6967,-0.009344368,0.077845283,0.082883261,0.046182021
7000,-0.018896645,0.094867505,0.116927423,0.06123504
7033,-0.027542673,0.077108286,0.090248391,0.017439391
7067,-0.020869553,-0.003437805,0.001909447,-0.047916908
7100,0.007350379,-0.106447496,-0.092126362,-0.069588877
7133,0.040775906,-0.140552327,-0.12449912,-0.035655927
7167,0.054951683,-0.075999349,-0.077799223,0.013852392
7200,0.044592295,0.017352102,-0.003651237,0.042744625
7233,0.024245873,0.057913966,0.03112993,0.039651398
7267,0.00827287,0.034909628,0.016534995,0.011593669
7300,0.000621378,-0.000739574,-0.002513695,-0.016080467
7333,-0.002511326,-0.000196552,0.012594222,-0.015269797
7367,-0.007219764,0.039449211,0.054937359,0.013011162
7400,-0.016100477,0.075817674,0.081939697,0.034070749
7433,-0.022635071,0.055084415,0.056361005,0.016364139
7467,-0.012863319,-0.029260252,-0.017349815,-0.029811116
7500,0.017978372,-0.113204092,-0.092489138,-0.061815616
7533,0.051152181,-0.12026681,-0.111613363,-0.053465974
7567,0.060862537,-0.043693542,-0.05763616,-0.018402599
7600,0.043985672,0.036329839,0.015947627,0.014849208
7633,0.019709144,0.044638824,0.039952468,0.032063536
7667,0.004674299,0.004530143,0.014487075,0.035897505
7700,0.00025,-0.010446453,-0.003080749,0.036897797
7733,-0.002044684,0.023474405,0.020832825,0.043316439
7767,-0.011987399,0.073272794,0.064606182,0.047037948
7800,-0.03240177,0.093742549,0.083821394,0.027046008
7833,-0.051289383,0.055584237,0.052417085,-0.021222522
7867,-0.046719279,-0.032172486,-0.018716525,-0.068904094
7900,-0.007611027,-0.111647122,-0.084444523,-0.075481556
7933,0.05009263,-0.114613146,-0.089879319,-0.029086623
7967,0.090844147,-0.035565659,-0.026278494,0.036390316
8000,0.089821547,0.049760625,0.039145373,0.071017504
8033,0.056567769,0.062876694,0.037556361,0.057261191
8067,0.020440398,0.008311271,-0.010471344,0.022728654
8100,-0.001969168,-0.037643049,-0.032602783,0.003784918
8133,-0.017568225,-0.018312549,-0.001981544,0.007286703
8167,-0.041346647,0.043150805,0.048368163,0.012503555
8200,-0.072009943,0.076614469,0.069909953,-0.002532998
8233,-0.084444761,0.039284989,0.033873077,-0.038097352
8267,-0.056989752,-0.046908185,-0.047082134,-0.06833072
8300,-0.001880774,-0.117499053,-0.119706333,-0.067925245
8333,0.045704711,-0.118574798,-0.128552899,-0.039180383
8367,0.061907977,-0.054368872,-0.068677135,-0.001809043
8400,0.049130991,0.012368201,0.002657032,0.025700979
8433,0.026595246,0.024385355,0.023287579,0.031073874
8467,0.011051828,-0.010350036,-0.004227733,0.019991664
8500,0.003272618,-0.033862494,-0.019870948,0.016195508
8533,-0.010120229,-0.003521347,0.015856361,0.029188316
8567,-0.043020457,0.061317727,0.074123092,0.033476703
8600,-0.090281226,0.096241087,0.094143093,-0.003190791
8633,-0.118941173,0.054954812,0.045546055,-0.071966268
8667,-0.095944174,-0.049595829,-0.050691314,-0.120384902
8700,-0.030742655,-0.153285012,-0.136737153,-0.110044792
8733,0.029579613,-0.180821225,-0.153136536,-0.056674056
8767,0.051216025,-0.111069195,-0.090933323,-0.002362025
8800,0.040232953,-0.010013294,-0.009324073,0.025390647
8833,0.020397985,0.034483336,0.022277355,0.023545288
8867,0.005783379,0.005037117,-0.001781845,0.008401268
8900,-0.004366001,-0.038766857,-0.026096819,0.002282506
8933,-0.021088259,-0.034031864,-0.005383873,0.010457111
8967,-0.056864966,0.017061995,0.046305653,0.010425013
9000,-0.104830153,0.05685968,0.074311063,-0.023429221
9033,-0.128221318,0.042845823,0.039660357,-0.076266073
9067,-0.093393795,-0.012987899,-0.041567516,-0.096179038
9100,-0.011170506,-0.060904309,-0.106286995,-0.057427306
9133,0.073278859,-0.053651899,-0.093782894,0.013978421
9167,0.118852966,0.004736137,-0.006992053,0.078302294
9200,0.111281008,0.051852033,0.076043122,0.10429202
9233,0.069307745,0.033888813,0.082046129,0.079985365
9267,0.026645429,-0.025895689,0.028693769,0.033088014
9300,-0.000777733,-0.051119324,-0.006727123,0.007598411
9333,-0.023431821,-0.007129955,0.012058066,0.01270945
9367,-0.057877917,0.060301203,0.054133125,0.015996104
9400,-0.099255711,0.083961584,0.069994919,-0.015700506
9433,-0.112182818,0.039383408,0.032208536,-0.071920693
9467,-0.064648062,-0.043261241,-0.045827575,-0.101846822
9500,0.025717625,-0.102263249,-0.110836878,-0.07235831
9533,0.100476637,-0.088081457,-0.105743401,-0.003470313
9567,0.117884904,-0.00895214,-0.025909994,0.06160685
9600,0.085801952,0.065228172,0.060181614,0.09241534
9633,0.041336693,0.067180537,0.075945847,0.079194576
9667,0.012791436,0.008493233,0.027621172,0.038207367
9700,0.001644382,-0.032626819,-0.009328937,0.008081835
9733,-0.010113779,-0.001719761,0.012151335,0.014535747
9767,-0.041493967,0.074668691,0.069490813,0.037026461
9800,-0.090350188,0.119888581,0.10699252,0.029623315
9833,-0.120768614,0.085363768,0.08222723,-0.019857233
9867,-0.093028888,-0.008165359,-0.002183246,-0.068321243
9900,-0.018818734,-0.097609796,-0.093466751,-0.070696265
9933,0.043594766,-0.124839582,-0.124543466,-0.035225395
9967,0.058106426,-0.075259201,-0.072937198,0.002313387
10000,0.039771721,0.005307198,0.007376575,0.0281174
10033,0.017613208,0.048532385,0.030312821,0.040613562
10067,0.003979397,0.031548496,-0.027928445,0.033625297
10100,-0.002131927,-0.003298187,-0.092741765,0.017395036
10133,-0.00497353,0.001741505,-0.076441951,0.016727148
10167,-0.007046735,0.05421352,0.011674117,0.033541363
10200,-0.005802798,0.096492857,0.078613184,0.039949927
10233,0.005763548,0.068510048,0.057668775,0.014477151
10267,0.030690281,-0.019706724,-0.02841625,-0.029532677
10300,0.05952578,-0.097273916,-0.097219266,-0.052479368
10333,0.075000972,-0.097920217,-0.082455829,-0.024919078
10367,0.067083448,-0.018411255,0.003074741,0.038261458
10400,0.04228716,0.069179527,0.077341743,0.087774418
10433,0.017081879,0.094868653,0.079204552,0.090102613
10467,0.002702746,0.068116948,0.034511659,0.056315809
10500,-0.001478648,0.036650561,0.010778618,0.022479426
10533,-0.00256286,0.029196737,0.035964485,0.014950927
10567,-0.006916406,0.057155509,0.082539655,0.031845871
10600,-0.015240266,0.093554869,0.102836311,0.049280543
10633,-0.018641254,0.078606315,0.069657609,0.043693736
10667,-0.002086669,0.002435303,0.001016521,0.012836576
10700,0.038243972,-0.067597955,-0.050099369,-0.013772999
10733,0.080705605,-0.062849231,-0.04084482,0.001696889
10767,0.094201453,0.010921955,0.017359829,0.051516261
10800,0.071386926,0.077673905,0.065657325,0.084251188
10833,0.034270465,0.075607389,0.062099069,0.074390367
10867,0.007094418,0.025370404,0.026871584,0.044806227
10900,-0.003812501,-0.006204414,0.009008503,0.026334891
10933,-0.005060074,0.017318629,0.03062496,0.033378836
10967,-0.003758651,0.073184393,0.071103856,0.054919373
11000,-0.002114951,0.098927014,0.084802724,0.055172142
11033,0.001575364,0.053024191,0.041972924,0.013838338
11067,0.01063896,-0.031226918,-0.035217188,-0.040954057
11100,0.030030828,-0.081565186,-0.089641288,-0.063505501
11133,0.061229359,-0.070775412,-0.086470984,-0.041301902
11167,0.089388274,-0.02819824,-0.039966773,0.001168388
11200,0.09070465,0.012133883,0.014633846,0.038462285
11233,0.062901445,0.030153178,0.047464367,0.059439197
11267,0.028816471,0.019075584,0.042951681,0.056744024
11300,0.007517713,0.006824397,0.020722389,0.038439091
11333,-0.000384718,0.033526894,0.023982236,0.03171451
11367,-0.004982632,0.085408404,0.05985374,0.043575488
11400,-0.01667928,0.103681177,0.085720539,0.046450458
11433,-0.035960983,0.062895007,0.065067671,0.016868984
11467,-0.045396242,-0.008829116,0.003584289,-0.03286827
11500,-0.020992307,-0.077835552,-0.068690866,-0.065193392
11533,0.037562903,-0.122380532,-0.117503636,-0.054085489
11567,0.095967606,-0.110706985,-0.107376471,-0.008658725
11600,0.115611449,-0.032765862,-0.033883091,0.036857914
11633,0.090665907,0.046573728,0.042141724,0.053605765
11667,0.047996372,0.051953025,0.053115457,0.041611701
11700,0.015509997,0.002631569,0.010620976,0.022546113
11733,-0.000667298,-0.021931743,-0.017193316,0.017080985
11767,-0.013768779,0.011501597,0.009012794,0.031632256
11800,-0.041979145,0.067009158,0.064887993,0.049324173
11833,-0.087187879,0.087118722,0.090766527,0.03533145
11867,-0.119021341,0.039572809,0.04674625,-0.023018429
11900,-0.101578057,-0.057081982,-0.046990007,-0.083874814
11933,-0.042873465,-0.137625784,-0.121446982,-0.088837653
11967,0.012708395,-0.131478593,-0.115835086,-0.029254513
12000,0.037381765,-0.034059044,-0.036636543,0.048827611
12033,0.036125973,0.06070232,0.038613509,0.091176555
12067,0.024122482,0.057927128,0.040607072,0.076449499
12100,0.010731786,-0.014035319,-0.01119175,0.030869005
12133,-0.003191685,-0.05292663,-0.039927576,0.00081886
12167,-0.023125753,-0.022684479,-0.00958414,0.001688111
12200,-0.053042091,0.030372046,0.043671228,0.004515445
12233,-0.082855806,0.051865477,0.060184188,-0.022612238
12267,-0.087334007,0.015976524,0.012493228,-0.069306917
12300,-0.050729394,-0.065729998,-0.071830839,-0.091906853
12333,0.011347755,-0.136412993,-0.133091345,-0.067399547
12367,0.064616926,-0.130342469,-0.133323953,-0.016504543
12400,0.083308585,-0.048727795,-0.0848279,0.026426766
12433,0.066324785,0.02767925,-0.023722455,0.04079638
12467,0.035304323,0.031854343,0.020759583,0.026233468
12500,0.012595009,-0.012533568,0.029648492,0.004501068
12533,0.000967401,-0.033569239,0.011712454,0.004198515
12567,-0.01401624,0.001101208,0.013044833,0.030615626
12600,-0.046338394,0.060435101,0.059448332,0.052709375
12633,-0.089230374,0.088062003,0.104448497,0.028234396
12667,-0.11003197,0.046472162,0.080972672,-0.045373783
12700,-0.078699224,-0.051732153,-0.012238311,-0.113938659
12733,-0.005579374,-0.135102928,-0.103367031,-0.118965387
12767,0.062380888,-0.125822917,-0.114146508,-0.056515355
12800,0.086973384,-0.03001871,-0.041499712,0.025927287
12833,0.070425898,0.056980129,0.031535052,0.075022094
12867,0.040527701,0.063901804,0.039458368,0.072184712
12900,0.016440814,0.023374556,0.012958144,0.045164857
12933,-0.006114023,0.014614676,0.017956637,0.036514696
12967,-0.044100717,0.066642664,0.06484136,0.053365335
13000,-0.099229269,0.137820616,0.106234923,0.060818549
13033,-0.134406701,0.159817025,0.097294226,0.02969831
13067,-0.102019846,0.093359463,0.037180137,-0.023484776
13100,-0.012996175,-0.030493066,-0.041282844,-0.054924663
13133,0.061064765,-0.122451484,-0.097513668,-0.045257665
13167,0.073364183,-0.115442842,-0.099773876,-0.013396596
13200,0.044723973,-0.03400011,-0.048745818,0.015815554
13233,0.015406183,0.037199304,0.010159207,0.030110369
13267,0.000757183,0.047710128,0.030290792,0.02492176
13300,-0.003219701,0.018931674,0.020075798,0.005046451
13333,-0.003166714,0.002373504,0.023244092,-0.012002133
13367,-0.002783485,0.029692266,0.056006521,-0.005171621
13400,-0.002091752,0.082901284,0.090685561,0.025916038
13433,0.002059105,0.101861276,0.085590936,0.046563681
13467,0.014139197,0.048429962,0.027219484,0.02242763
13500,0.037762083,-0.043994807,-0.047775075,-0.029453764
13533,0.071444422,-0.100643337,-0.081773758,-0.052602477
13567,0.101023875,-0.070876688,-0.045841306,-0.016069721
13600,0.104684897,0.023990247,0.034342572,0.049948521
13633,0.076972149,0.096777812,0.089362048,0.08688347
13667,0.037057988,0.081479073,0.069770619,0.068262361
13700,0.006517535,0.013370131,0.010618401,0.02297648
13733,-0.007955342,-0.015438937,-0.006313705,0.002252626
13767,-0.010045427,0.035308454,0.046412367,0.027272342
13800,-0.005507362,0.119405642,0.116959468,0.070104897
13833,0.001536244,0.157265842,0.139371008,0.086921193
13867,0.011619436,0.11076621,0.094131649,0.061779782
13900,0.027995842,0.016735839,0.016282367,0.014333867
13933,0.04763161,-0.052193064,-0.036623951,-0.020633018
13967,0.058719702,-0.051579088,-0.033166979,-0.019830322
14000,0.052613888,0.004190826,0.006978893,0.009801113
14033,0.033785354,0.054823488,0.039058112,0.040037584
14067,0.013293313,0.051580805,0.038122844,0.048928209
14100,-0.001511264,0.012379359,0.019593429,0.036798332
14133,-0.007810842,0.001419067,0.023167416,0.023740122
14167,-0.006284952,0.053381819,0.067826837,0.031345151
14200,-0.00236038,0.127586737,0.119814195,0.055471867
14233,-0.001163185,0.140801519,0.119342983,0.062276024
14267,0.002346039,0.054048438,0.040650845,0.025237296
14300,0.021784401,-0.079304121,-0.078955077,-0.037126277
14333,0.059394762,-0.164951712,-0.160703093,-0.072457403
14367,0.091638386,-0.152211845,-0.14488706,-0.04991705
14400,0.090561315,-0.065875046,-0.053696245,0.002811241
14433,0.057753175,0.015921306,0.021910572,0.032507513
14467,0.019715844,0.026947115,0.019415759,0.021522546
14500,-0.00382694,-0.016968725,-0.031121919,-0.001548958
14533,-0.011644505,-0.036707494,-0.052447408,-0.001321077
14567,-0.012293922,0.010202122,-0.00954523,0.026132867
14600,-0.016947519,0.078089617,0.056952376,0.047035143
14633,-0.032468889,0.089513399,0.07526321,0.022281934
14667,-0.052411646,0.017841337,0.012856006,-0.045917481
14700,-0.060421653,-0.094459236,-0.090343378,-0.103486769
14733,-0.045985185,-0.170011997,-0.152881041,-0.09049616
14767,-0.012976956,-0.145092472,-0.120402135,-0.003244614
14800,0.022230756,-0.03189268,-0.018814372,0.092691347
14833,0.040017128,0.065627284,0.058299631,0.123439334
14867,0.034097027,0.057946868,0.043884944,0.080187529
14900,0.015537035,-0.016988752,-0.024197385,0.017449521
14933,-0.004296362,-0.053671643,-0.060748383,-0.013654016
14967,-0.027577577,-0.026154039,-0.046326824,-0.013298463